;FLAVOR:UltiGCode
;TIME:1865
;MATERIAL:2324
;MATERIAL2:0
;NOZZLE_DIAMETER:0.400000
;NOZZLE_DIAMETER2:0.400000

;Layer count: 79
;LAYER:0
M107
G0 F9000 X84.850 Y84.800 Z0.300
;TYPE:SKIRT
G1 F1200 X97.750 Y84.800 E1.54800
G1 X97.750 Y105.100 E3.98400
G1 X132.249 Y105.100 E8.12388
G1 X132.249 Y84.800 E10.55988
G1 X145.149 Y84.800 E12.10788
G1 X145.149 Y110.626 E15.20700
G1 X145.146 Y111.241 E15.28080
G1 X145.030 Y112.093 E15.38398
G1 X144.621 Y113.092 E15.51352
G1 X144.354 Y113.448 E15.56692
G1 X143.926 Y114.005 E15.65122
G1 X143.564 Y114.276 E15.70548
G1 X143.059 Y114.665 E15.78197
G1 X142.041 Y115.081 E15.91394
G1 X141.165 Y115.200 E16.02003
G1 X128.973 Y115.200 E17.48307
G1 X128.973 Y140.200 E20.48307
G1 X110.573 Y140.200 E22.69107
G1 X110.573 Y129.199 E24.01119
G1 X115.573 Y129.199 E24.61119
G1 X115.573 Y115.200 E26.29107
G1 X88.835 Y115.200 E29.49963
G1 X87.935 Y115.078 E29.60861
G1 X86.909 Y114.642 E29.74239
G1 X86.044 Y113.977 E29.87332
G1 X85.773 Y113.615 E29.92758
G1 X85.384 Y113.110 E30.00408
G1 X84.966 Y112.086 E30.13680
G1 X84.850 Y111.210 E30.24284
G1 X84.850 Y84.800 E33.41204
G10
G0 F9000 X88.650 Y88.600
;TYPE:WALL-INNER
G11
G1 F1200 X93.950 Y88.600 E34.04804
G1 X93.950 Y108.900 E36.48404
G1 X136.049 Y108.900 E41.53592
G1 X136.049 Y88.600 E43.97192
G1 X141.349 Y88.600 E44.60792
G1 X141.349 Y90.501 E44.83604
G1 X141.279 Y90.501 E44.84444
G1 X141.137 Y90.325 E44.87157
G1 X140.693 Y89.962 E44.94040
G1 X140.184 Y89.696 E45.00931
G1 X139.632 Y89.539 E45.07818
G1 X139.058 Y89.499 E45.14723
G1 X138.491 Y89.576 E45.21589
G1 X137.949 Y89.767 E45.28485
G1 X137.457 Y90.065 E45.35388
G1 X137.038 Y90.456 E45.42265
G1 X136.707 Y90.925 E45.49153
G1 X136.477 Y91.451 E45.56042
G1 X136.360 Y92.013 E45.62931
G1 X136.360 Y92.588 E45.69831
G1 X136.477 Y93.150 E45.76720
G1 X136.707 Y93.676 E45.83609
G1 X137.038 Y94.145 E45.90497
G1 X137.457 Y94.536 E45.97374
G1 X137.949 Y94.834 E46.04277
G1 X138.491 Y95.025 E46.11173
G1 X139.058 Y95.102 E46.18039
G1 X139.632 Y95.062 E46.24944
G1 X140.184 Y94.905 E46.31831
G1 X140.693 Y94.639 E46.38723
G1 X141.137 Y94.276 E46.45605
G1 X141.279 Y94.100 E46.48318
G1 X141.349 Y94.100 E46.49158
G1 X141.349 Y101.900 E47.42758
G1 X141.279 Y101.900 E47.43598
G1 X141.137 Y101.725 E47.46303
G1 X140.693 Y101.362 E47.53185
G1 X140.184 Y101.096 E47.60076
G1 X139.632 Y100.939 E47.66963
G1 X139.058 Y100.899 E47.73868
G1 X138.491 Y100.976 E47.80734
G1 X137.949 Y101.167 E47.87630
G1 X137.457 Y101.465 E47.94533
G1 X137.038 Y101.856 E48.01410
G1 X136.707 Y102.325 E48.08299
G1 X136.477 Y102.851 E48.15188
G1 X136.360 Y103.413 E48.22076
G1 X136.360 Y103.988 E48.28976
G1 X136.477 Y104.550 E48.35865
G1 X136.707 Y105.076 E48.42754
G1 X137.038 Y105.545 E48.49642
G1 X137.457 Y105.936 E48.56520
G1 X137.949 Y106.234 E48.63422
G1 X138.491 Y106.425 E48.70318
G1 X139.058 Y106.502 E48.77185
G1 X139.632 Y106.462 E48.84089
G1 X140.184 Y106.305 E48.90976
G1 X140.693 Y106.039 E48.97868
G1 X141.137 Y105.676 E49.04750
G1 X141.279 Y105.501 E49.07454
G1 X141.349 Y105.501 E49.08294
G1 X141.349 Y110.615 E49.69662
G1 X141.347 Y110.978 E49.74018
G1 X141.330 Y111.101 E49.75508
G1 X141.291 Y111.196 E49.76741
G1 X141.228 Y111.279 E49.77991
G1 X141.145 Y111.343 E49.79249
G1 X141.054 Y111.380 E49.80427
G1 X140.905 Y111.400 E49.82232
G1 X127.744 Y111.400 E51.40164
G1 X127.266 Y111.447 E51.45927
G1 X126.776 Y111.595 E51.52070
G1 X126.324 Y111.837 E51.58222
G1 X125.916 Y112.179 E51.64611
G1 X125.609 Y112.553 E51.70417
G1 X125.368 Y113.003 E51.76543
G1 X125.220 Y113.492 E51.82673
G1 X125.173 Y113.971 E51.88449
G1 X125.173 Y136.400 E54.57597
G1 X114.373 Y136.400 E55.87197
G1 X114.373 Y132.999 E56.28009
G1 X117.812 Y132.999 E56.69277
G1 X118.188 Y132.950 E56.73827
G1 X118.575 Y132.791 E56.78848
G1 X118.908 Y132.534 E56.83896
G1 X119.163 Y132.201 E56.88929
G1 X119.185 Y132.148 E56.89617
G1 X119.226 Y132.540 E56.94347
G1 X119.395 Y133.059 E57.00897
G1 X119.667 Y133.530 E57.07424
G1 X120.031 Y133.934 E57.13949
G1 X120.471 Y134.254 E57.20478
G1 X120.969 Y134.476 E57.27021
G1 X121.501 Y134.589 E57.33547
G1 X122.045 Y134.589 E57.40075
G1 X122.577 Y134.476 E57.46602
G1 X123.075 Y134.254 E57.53144
G1 X123.515 Y133.934 E57.59673
G1 X123.879 Y133.530 E57.66199
G1 X124.151 Y133.058 E57.72736
G1 X124.319 Y132.540 E57.79271
G1 X124.376 Y132.000 E57.85787
G1 X124.319 Y131.459 E57.92315
G1 X124.151 Y130.941 E57.98849
G1 X123.879 Y130.469 E58.05386
G1 X123.515 Y130.065 E58.11912
G1 X123.075 Y129.745 E58.18441
G1 X122.577 Y129.523 E58.24984
G1 X122.045 Y129.410 E58.31510
G1 X121.501 Y129.410 E58.38038
G1 X120.969 Y129.523 E58.44564
G1 X120.471 Y129.745 E58.51107
G1 X120.031 Y130.065 E58.57636
G1 X119.667 Y130.469 E58.64162
G1 X119.395 Y130.940 E58.70688
G1 X119.373 Y131.008 E58.71546
G1 X119.373 Y113.970 E60.76002
G1 X119.325 Y113.492 E60.81767
G1 X119.178 Y113.004 E60.87883
G1 X118.936 Y112.550 E60.94056
G1 X118.592 Y112.141 E61.00470
G1 X118.218 Y111.835 E61.06268
G1 X117.769 Y111.595 E61.12378
G1 X117.280 Y111.447 E61.18509
G1 X116.802 Y111.400 E61.24272
G1 X89.093 Y111.400 E64.56780
G1 X88.950 Y111.381 E64.58511
G1 X88.844 Y111.336 E64.59893
G1 X88.770 Y111.279 E64.61014
G1 X88.706 Y111.196 E64.62272
G1 X88.669 Y111.104 E64.63462
G1 X88.650 Y110.960 E64.65205
G1 X88.650 Y105.501 E65.30713
G1 X88.719 Y105.501 E65.31541
G1 X88.861 Y105.676 E65.34245
G1 X89.305 Y106.039 E65.41127
G1 X89.814 Y106.305 E65.48019
G1 X90.366 Y106.462 E65.54906
G1 X90.940 Y106.502 E65.61810
G1 X91.507 Y106.425 E65.68677
G1 X92.049 Y106.234 E65.75573
G1 X92.541 Y105.936 E65.82475
G1 X92.960 Y105.545 E65.89353
G1 X93.291 Y105.076 E65.96241
G1 X93.521 Y104.550 E66.03130
G1 X93.638 Y103.988 E66.10019
G1 X93.638 Y103.413 E66.16919
G1 X93.521 Y102.851 E66.23807
G1 X93.291 Y102.325 E66.30696
G1 X92.960 Y101.856 E66.37585
G1 X92.541 Y101.465 E66.44462
G1 X92.049 Y101.167 E66.51365
G1 X91.507 Y100.976 E66.58261
G1 X90.940 Y100.899 E66.65127
G1 X90.366 Y100.939 E66.72032
G1 X89.814 Y101.096 E66.78918
G1 X89.305 Y101.362 E66.85810
G1 X88.861 Y101.725 E66.92692
G1 X88.719 Y101.900 E66.95397
G1 X88.650 Y101.900 E66.96225
G1 X88.650 Y94.100 E67.89825
G1 X88.719 Y94.100 E67.90653
G1 X88.861 Y94.276 E67.93366
G1 X89.305 Y94.639 E68.00248
G1 X89.814 Y94.905 E68.07140
G1 X90.366 Y95.062 E68.14027
G1 X90.940 Y95.102 E68.20931
G1 X91.507 Y95.025 E68.27798
G1 X92.049 Y94.834 E68.34694
G1 X92.541 Y94.536 E68.41597
G1 X92.960 Y94.145 E68.48474
G1 X93.291 Y93.676 E68.55362
G1 X93.521 Y93.150 E68.62251
G1 X93.638 Y92.588 E68.69140
G1 X93.638 Y92.013 E68.76040
G1 X93.521 Y91.451 E68.82928
G1 X93.291 Y90.925 E68.89817
G1 X92.960 Y90.456 E68.96706
G1 X92.541 Y90.065 E69.03583
G1 X92.049 Y89.767 E69.10486
G1 X91.507 Y89.576 E69.17382
G1 X90.940 Y89.499 E69.24248
G1 X90.366 Y89.539 E69.31153
G1 X89.814 Y89.696 E69.38040
G1 X89.305 Y89.962 E69.44931
G1 X88.861 Y90.325 E69.51813
G1 X88.719 Y90.501 E69.54527
G1 X88.650 Y90.501 E69.55355
G1 X88.650 Y88.600 E69.78167
G0 F9000 X89.388 Y90.032
G0 X89.526 Y90.297
;TYPE:WALL-OUTER
G1 F1200 X89.146 Y90.608 E69.84060
G1 X88.910 Y90.901 E69.88574
G1 X88.250 Y90.901 E69.96494
G1 X88.250 Y88.200 E70.28906
G1 X94.350 Y88.200 E71.02106
G1 X94.350 Y108.500 E73.45706
G1 X135.649 Y108.500 E78.41294
G1 X135.649 Y88.200 E80.84894
G1 X141.749 Y88.200 E81.58094
G1 X141.749 Y90.901 E81.90506
G1 X141.088 Y90.901 E81.98438
G1 X140.852 Y90.608 E82.02953
G1 X140.472 Y90.297 E82.08845
G1 X140.035 Y90.069 E82.14760
G1 X139.563 Y89.935 E82.20648
G1 X139.071 Y89.901 E82.26566
G1 X138.585 Y89.967 E82.32452
G1 X138.121 Y90.130 E82.38353
G1 X137.700 Y90.386 E82.44266
G1 X137.341 Y90.721 E82.50158
G1 X137.057 Y91.122 E82.56055
G1 X136.860 Y91.573 E82.61961
G1 X136.760 Y92.054 E82.67856
G1 X136.760 Y92.547 E82.73772
G1 X136.860 Y93.028 E82.79667
G1 X137.057 Y93.479 E82.85573
G1 X137.341 Y93.880 E82.91470
G1 X137.700 Y94.215 E82.97362
G1 X138.121 Y94.471 E83.03275
G1 X138.585 Y94.634 E83.09176
G1 X139.071 Y94.700 E83.15062
G1 X139.563 Y94.666 E83.20980
G1 X140.035 Y94.532 E83.26868
G1 X140.472 Y94.304 E83.32783
G1 X140.852 Y93.993 E83.38675
G1 X141.088 Y93.700 E83.43190
G1 X141.749 Y93.700 E83.51122
G1 X141.749 Y102.300 E84.54322
G1 X141.088 Y102.300 E84.62254
G1 X140.852 Y102.008 E84.66759
G1 X140.472 Y101.697 E84.72652
G1 X140.035 Y101.469 E84.78567
G1 X139.563 Y101.335 E84.84454
G1 X139.071 Y101.301 E84.90372
G1 X138.585 Y101.367 E84.96258
G1 X138.121 Y101.530 E85.02160
G1 X137.700 Y101.786 E85.08072
G1 X137.341 Y102.121 E85.13965
G1 X137.057 Y102.522 E85.19861
G1 X136.860 Y102.973 E85.25767
G1 X136.760 Y103.454 E85.31662
G1 X136.760 Y103.947 E85.37578
G1 X136.860 Y104.428 E85.43474
G1 X137.057 Y104.879 E85.49380
G1 X137.341 Y105.280 E85.55276
G1 X137.700 Y105.615 E85.61168
G1 X138.121 Y105.871 E85.67081
G1 X138.585 Y106.034 E85.72983
G1 X139.071 Y106.100 E85.78868
G1 X139.563 Y106.066 E85.84786
G1 X140.035 Y105.932 E85.90674
G1 X140.472 Y105.704 E85.96589
G1 X140.852 Y105.393 E86.02482
G1 X141.088 Y105.101 E86.06987
G1 X141.749 Y105.101 E86.14919
G1 X141.749 Y110.617 E86.81111
G1 X141.747 Y111.000 E86.85707
G1 X141.720 Y111.205 E86.88188
G1 X141.640 Y111.399 E86.90706
G1 X141.512 Y111.565 E86.93222
G1 X141.347 Y111.692 E86.95720
G1 X141.154 Y111.770 E86.98218
G1 X140.937 Y111.800 E87.00847
G1 X127.763 Y111.800 E88.58935
G1 X127.344 Y111.841 E88.63987
G1 X126.930 Y111.966 E88.69177
G1 X126.549 Y112.170 E88.74363
G1 X126.201 Y112.462 E88.79814
G1 X125.943 Y112.776 E88.84691
G1 X125.739 Y113.157 E88.89877
G1 X125.614 Y113.570 E88.95055
G1 X125.573 Y113.990 E89.00119
G1 X125.573 Y136.800 E91.73839
G1 X113.973 Y136.800 E93.13039
G1 X113.973 Y132.599 E93.63451
G1 X117.786 Y132.599 E94.09207
G1 X118.084 Y132.560 E94.12813
G1 X118.374 Y132.441 E94.16575
G1 X118.623 Y132.249 E94.20348
G1 X118.814 Y132.000 E94.24114
G1 X118.934 Y131.710 E94.27880
G1 X118.973 Y131.412 E94.31487
G1 X118.973 Y113.990 E96.40551
G1 X118.931 Y113.570 E96.45616
G1 X118.807 Y113.157 E96.50790
G1 X118.603 Y112.775 E96.55987
G1 X118.310 Y112.427 E96.61446
G1 X117.995 Y112.170 E96.66325
G1 X117.615 Y111.966 E96.71500
G1 X117.202 Y111.841 E96.76678
G1 X116.783 Y111.800 E96.81730
G1 X89.062 Y111.800 E100.14382
G1 X88.844 Y111.771 E100.17021
G1 X88.641 Y111.684 E100.19672
G1 X88.484 Y111.563 E100.22050
G1 X88.357 Y111.398 E100.24549
G1 X88.278 Y111.205 E100.27051
G1 X88.250 Y110.989 E100.29665
G1 X88.250 Y105.101 E101.00321
G1 X88.910 Y105.101 E101.08241
G1 X89.146 Y105.393 E101.12746
G1 X89.526 Y105.704 E101.18639
G1 X89.963 Y105.932 E101.24554
G1 X90.435 Y106.066 E101.30441
G1 X90.927 Y106.100 E101.36360
G1 X91.413 Y106.034 E101.42245
G1 X91.877 Y105.871 E101.48147
G1 X92.298 Y105.615 E101.54059
G1 X92.657 Y105.280 E101.59952
G1 X92.941 Y104.879 E101.65848
G1 X93.138 Y104.428 E101.71754
G1 X93.238 Y103.947 E101.77649
G1 X93.238 Y103.454 E101.83565
G1 X93.138 Y102.973 E101.89461
G1 X92.941 Y102.522 E101.95367
G1 X92.657 Y102.121 E102.01263
G1 X92.298 Y101.786 E102.07156
G1 X91.877 Y101.530 E102.13068
G1 X91.413 Y101.367 E102.18970
G1 X90.927 Y101.301 E102.24855
G1 X90.435 Y101.335 E102.30773
G1 X89.963 Y101.469 E102.36661
G1 X89.526 Y101.697 E102.42576
G1 X89.146 Y102.008 E102.48469
G1 X88.910 Y102.300 E102.52974
G1 X88.250 Y102.300 E102.60894
G1 X88.250 Y93.700 E103.64094
G1 X88.910 Y93.700 E103.72014
G1 X89.146 Y93.993 E103.76529
G1 X89.526 Y94.304 E103.82421
G1 X89.963 Y94.532 E103.88336
G1 X90.435 Y94.666 E103.94224
G1 X90.927 Y94.700 E104.00142
G1 X91.413 Y94.634 E104.06027
G1 X91.877 Y94.471 E104.11929
G1 X92.298 Y94.215 E104.17842
G1 X92.657 Y93.880 E104.23734
G1 X92.941 Y93.479 E104.29631
G1 X93.138 Y93.028 E104.35536
G1 X93.238 Y92.547 E104.41432
G1 X93.238 Y92.054 E104.47348
G1 X93.138 Y91.573 E104.53243
G1 X92.941 Y91.122 E104.59149
G1 X92.657 Y90.721 E104.65046
G1 X92.298 Y90.386 E104.70938
G1 X91.877 Y90.130 E104.76851
G1 X91.413 Y89.967 E104.82752
G1 X90.927 Y89.901 E104.88638
G1 X90.435 Y89.935 E104.94556
G1 X89.963 Y90.069 E105.00444
G1 X89.526 Y90.297 E105.06358
G0 F9000 X89.388 Y90.032
G0 X90.939 Y89.501
G0 X92.540 Y90.066
G0 X93.519 Y91.452
G0 X93.519 Y93.149
G0 X92.540 Y94.535
G0 X90.939 Y95.100
G0 X89.305 Y94.637
G0 X93.636 Y103.414
G0 X93.290 Y105.075
G0 X92.048 Y106.232
G0 X90.367 Y106.461
G0 X89.087 Y111.401
G0 X117.768 Y111.597
G0 X119.177 Y113.004
G0 X120.078 Y130.164
G0 X120.300 Y130.364
G1 F1200 X119.992 Y130.706 E105.11881
G1 X119.762 Y131.104 E105.17397
G1 X119.619 Y131.542 E105.22926
G1 X119.572 Y132.000 E105.28451
G1 X119.619 Y132.457 E105.33964
G1 X119.762 Y132.895 E105.39493
G1 X119.992 Y133.293 E105.45009
G1 X120.300 Y133.635 E105.50532
G1 X120.672 Y133.906 E105.56055
G1 X121.093 Y134.093 E105.61583
G1 X121.543 Y134.189 E105.67105
G1 X122.003 Y134.189 E105.72625
G1 X122.453 Y134.093 E105.78146
G1 X122.874 Y133.906 E105.83674
G1 X123.246 Y133.635 E105.89197
G1 X123.554 Y133.293 E105.94720
G1 X123.784 Y132.895 E106.00236
G1 X123.926 Y132.457 E106.05762
G1 X123.974 Y132.000 E106.11276
G1 X123.926 Y131.542 E106.16802
G1 X123.784 Y131.104 E106.22327
G1 X123.554 Y130.706 E106.27843
G1 X123.246 Y130.364 E106.33366
G1 X122.874 Y130.093 E106.38889
G1 X122.453 Y129.906 E106.44417
G1 X122.003 Y129.810 E106.49939
G1 X121.543 Y129.810 E106.55459
G1 X121.093 Y129.906 E106.60980
G1 X120.672 Y130.093 E106.66508
G1 X120.300 Y130.364 E106.72031
G0 F9000 X120.007 Y129.906
;TYPE:SKIN
G1 F1200 X119.512 Y129.411 E106.80432
G0 F9000 X119.512 Y128.846
G1 F1200 X120.335 Y129.669 E106.94398
G0 F9000 X120.714 Y129.482
G1 F1200 X119.512 Y128.280 E107.14797
G0 F9000 X119.512 Y127.714
G1 F1200 X121.140 Y129.342 E107.42425
G0 F9000 X121.632 Y129.269
G1 F1200 X119.512 Y127.149 E107.78403
G0 F9000 X119.512 Y126.583
G1 F1200 X122.235 Y129.306 E108.24613
G0 F9000 X123.093 Y129.599
G1 F1200 X119.512 Y126.017 E108.85394
G0 F9000 X119.512 Y125.452
G1 F1200 X125.033 Y130.973 E109.79088
G0 F9000 X125.033 Y131.538
G1 F1200 X124.146 Y130.652 E109.94132
G0 F9000 X125.033 Y130.407
G1 F1200 X119.512 Y124.886 E110.87827
G0 F9000 X119.512 Y124.320
G1 F1200 X125.033 Y129.841 E111.81521
G0 F9000 X125.033 Y129.276
G1 F1200 X119.512 Y123.755 E112.75216
G0 F9000 X119.512 Y123.189
G1 F1200 X125.033 Y128.710 E113.68910
G0 F9000 X125.033 Y128.144
G1 F1200 X119.512 Y122.623 E114.62605
G0 F9000 X119.512 Y122.057
G1 F1200 X125.033 Y127.579 E115.56308
G0 F9000 X125.033 Y127.013
G1 F1200 X119.512 Y121.492 E116.50002
G0 F9000 X119.512 Y120.926
G1 F1200 X125.033 Y126.447 E117.43697
G0 F9000 X125.033 Y125.881
G1 F1200 X119.512 Y120.360 E118.37391
G0 F9000 X119.512 Y129.977
G1 F1200 X119.727 Y130.192 E118.41040
G0 F9000 X118.875 Y132.735
G1 F1200 X119.277 Y133.136 E118.47854
G0 F9000 X118.533 Y132.958
G1 F1200 X121.834 Y136.259 E119.03873
G0 F9000 X121.268 Y136.259
G1 F1200 X118.110 Y133.100 E119.57475
G0 F9000 X117.581 Y133.138
G1 F1200 X120.703 Y136.259 E120.10449
G0 F9000 X120.137 Y136.259
G1 F1200 X117.016 Y133.138 E120.63414
G0 F9000 X116.450 Y133.138
G1 F1200 X119.571 Y136.259 E121.16379
G0 F9000 X119.006 Y136.259
G1 F1200 X115.884 Y133.138 E121.69352
G0 F9000 X115.319 Y133.138
G1 F1200 X118.440 Y136.259 E122.22318
G0 F9000 X117.874 Y136.259
G1 F1200 X114.753 Y133.138 E122.75283
G0 F9000 X114.513 Y133.463
G1 F1200 X117.309 Y136.259 E123.22732
G0 F9000 X116.743 Y136.259
G1 F1200 X114.513 Y134.029 E123.60577
G0 F9000 X114.513 Y134.594
G1 F1200 X116.177 Y136.259 E123.88824
G0 F9000 X115.611 Y136.259
G1 F1200 X114.513 Y135.160 E124.07466
G0 F9000 X114.513 Y135.726
G1 F1200 X115.046 Y136.259 E124.16512
G0 F9000 X120.608 Y134.467
G1 F1200 X122.400 Y136.259 E124.46923
G0 F9000 X122.965 Y136.259
G1 F1200 X121.420 Y134.714 E124.73142
G0 F9000 X122.000 Y134.728
G1 F1200 X123.531 Y136.259 E124.99124
G0 F9000 X124.097 Y136.259
G1 F1200 X122.477 Y134.639 E125.26617
G0 F9000 X122.891 Y134.488
G1 F1200 X124.662 Y136.259 E125.56672
G0 F9000 X125.033 Y136.064
G1 F1200 X123.260 Y134.291 E125.86760
G0 F9000 X123.588 Y134.053
G1 F1200 X125.033 Y135.498 E126.11283
G0 F9000 X125.033 Y134.932
G1 F1200 X123.859 Y133.759 E126.31198
G0 F9000 X124.097 Y133.431
G1 F1200 X125.033 Y134.367 E126.47082
G0 F9000 X125.033 Y133.801
G1 F1200 X124.295 Y133.064 E126.59598
