;FLAVOR:UltiGCode
;TIME:3887
;MATERIAL:4745
;MATERIAL2:0
;NOZZLE_DIAMETER:0.400000
;NOZZLE_DIAMETER2:0.400000

;Layer count: 79
;LAYER:0
M107
G0 F9000 X86.068 Y33.992 Z0.300
;TYPE:SKIRT
G1 F1200 X98.968 Y33.992 E1.54800
G1 X98.968 Y54.291 E3.98388
G1 X133.468 Y54.291 E8.12388
G1 X133.468 Y33.992 E10.55976
G1 X146.368 Y33.992 E12.10776
G1 X146.368 Y60.379 E15.27420
G1 X146.279 Y61.138 E15.36590
G1 X145.970 Y62.021 E15.47816
G1 X145.468 Y62.821 E15.59150
G1 X144.797 Y63.492 E15.70537
G1 X143.997 Y63.994 E15.81871
G1 X143.114 Y64.303 E15.93097
G1 X142.355 Y64.392 E16.02267
G1 X130.191 Y64.392 E17.48235
G1 X130.191 Y93.603 E20.98767
G1 X111.791 Y93.603 E23.19567
G1 X111.791 Y82.603 E24.51567
G1 X116.791 Y82.603 E25.11567
G1 X116.791 Y64.392 E27.30099
G1 X90.082 Y64.392 E30.50607
G1 X89.321 Y64.303 E30.59801
G1 X88.438 Y63.994 E30.71028
G1 X87.638 Y63.492 E30.82361
G1 X86.967 Y62.821 E30.93748
G1 X86.465 Y62.021 E31.05082
G1 X86.154 Y61.132 E31.16384
G1 X86.068 Y60.372 E31.25562
G1 X86.068 Y33.992 E34.42122
G10
G0 F9000 X89.868 Y37.792
;TYPE:WALL-INNER
G11
G1 F1200 X95.168 Y37.792 E35.05722
G1 X95.168 Y58.091 E37.49310
G1 X137.268 Y58.091 E42.54510
G1 X137.268 Y37.792 E44.98098
G1 X142.568 Y37.792 E45.61698
G1 X142.568 Y39.691 E45.84486
G1 X142.506 Y39.691 E45.85230
G1 X142.433 Y39.597 E45.86658
G1 X142.091 Y39.282 E45.92238
G1 X141.704 Y39.029 E45.97786
G1 X141.281 Y38.843 E46.03331
G1 X140.832 Y38.728 E46.08893
G1 X140.371 Y38.690 E46.14444
G1 X139.910 Y38.727 E46.19994
G1 X139.460 Y38.840 E46.25561
G1 X139.036 Y39.026 E46.31117
G1 X138.647 Y39.280 E46.36692
G1 X138.308 Y39.593 E46.42229
G1 X138.022 Y39.957 E46.47784
G1 X137.802 Y40.365 E46.53346
G1 X137.651 Y40.803 E46.58906
G1 X137.575 Y41.260 E46.64465
G1 X137.575 Y41.723 E46.70021
G1 X137.652 Y42.182 E46.75606
G1 X137.813 Y42.640 E46.81432
G1 X138.024 Y43.029 E46.86742
G1 X138.328 Y43.410 E46.92591
G1 X138.671 Y43.719 E46.98131
G1 X139.061 Y43.969 E47.03690
G1 X139.485 Y44.148 E47.09213
G1 X139.910 Y44.256 E47.14475
G1 X140.373 Y44.293 E47.20049
G1 X140.860 Y44.249 E47.25917
G1 X141.307 Y44.129 E47.31471
G1 X141.728 Y43.939 E47.37013
G1 X142.112 Y43.682 E47.42558
G1 X142.447 Y43.367 E47.48076
G1 X142.505 Y43.292 E47.49214
G1 X142.568 Y43.292 E47.49970
G1 X142.568 Y51.092 E48.43570
G1 X142.506 Y51.092 E48.44314
G1 X142.433 Y50.997 E48.45752
G1 X142.091 Y50.682 E48.51331
G1 X141.704 Y50.429 E48.56880
G1 X141.281 Y50.243 E48.62425
G1 X140.832 Y50.128 E48.67987
G1 X140.371 Y50.090 E48.73537
G1 X139.910 Y50.127 E48.79087
G1 X139.460 Y50.240 E48.84655
G1 X139.036 Y50.426 E48.90211
G1 X138.647 Y50.680 E48.95786
G1 X138.308 Y50.993 E49.01323
G1 X138.022 Y51.357 E49.06878
G1 X137.802 Y51.765 E49.12440
G1 X137.651 Y52.203 E49.18000
G1 X137.575 Y52.660 E49.23559
G1 X137.575 Y53.123 E49.29115
G1 X137.652 Y53.582 E49.34700
G1 X137.813 Y54.040 E49.40526
G1 X138.024 Y54.429 E49.45836
G1 X138.328 Y54.810 E49.51685
G1 X138.671 Y55.119 E49.57225
G1 X139.061 Y55.369 E49.62784
G1 X139.485 Y55.548 E49.68307
G1 X139.910 Y55.656 E49.73569
G1 X140.373 Y55.693 E49.79143
G1 X140.860 Y55.649 E49.85010
G1 X141.307 Y55.529 E49.90564
G1 X141.728 Y55.339 E49.96107
G1 X142.110 Y55.084 E50.01618
G1 X142.433 Y54.786 E50.06892
G1 X142.506 Y54.691 E50.08330
G1 X142.568 Y54.691 E50.09074
G1 X142.568 Y60.156 E50.74654
G1 X142.554 Y60.279 E50.76139
G1 X142.523 Y60.366 E50.77248
G1 X142.478 Y60.438 E50.78266
G1 X142.414 Y60.502 E50.79353
G1 X142.342 Y60.547 E50.80371
G1 X142.255 Y60.578 E50.81480
G1 X126.391 Y60.592 E52.71848
G1 X126.391 Y89.803 E56.22380
G1 X115.591 Y89.803 E57.51980
G1 X115.591 Y86.403 E57.92780
G1 X119.027 Y86.403 E58.34012
G1 X119.359 Y86.363 E58.38025
G1 X119.726 Y86.229 E58.42713
G1 X120.020 Y86.032 E58.46960
G1 X120.262 Y85.780 E58.51152
G1 X120.402 Y85.550 E58.54384
G1 X120.428 Y85.854 E58.58045
G1 X120.545 Y86.293 E58.63497
G1 X120.738 Y86.705 E58.68956
G1 X120.997 Y87.075 E58.74376
G1 X121.317 Y87.396 E58.79815
G1 X121.690 Y87.657 E58.85278
G1 X122.101 Y87.848 E58.90717
G1 X122.538 Y87.965 E58.96145
G1 X122.991 Y88.005 E59.01602
G1 X123.443 Y87.965 E59.07048
G1 X123.881 Y87.848 E59.12488
G1 X124.292 Y87.657 E59.17926
G1 X124.663 Y87.396 E59.23370
G1 X124.984 Y87.075 E59.28817
G1 X125.245 Y86.704 E59.34261
G1 X125.436 Y86.293 E59.39699
G1 X125.553 Y85.855 E59.45140
G1 X125.593 Y85.403 E59.50585
G1 X125.553 Y84.950 E59.56042
G1 X125.436 Y84.513 E59.61471
G1 X125.245 Y84.102 E59.66909
G1 X124.984 Y83.729 E59.72372
G1 X124.663 Y83.409 E59.77811
G1 X124.293 Y83.150 E59.83231
G1 X123.881 Y82.957 E59.88690
G1 X123.442 Y82.840 E59.94142
G1 X122.991 Y82.801 E59.99575
G1 X122.539 Y82.840 E60.05019
G1 X122.101 Y82.957 E60.10459
G1 X121.690 Y83.150 E60.15908
G1 X121.318 Y83.409 E60.21347
G1 X120.997 Y83.730 E60.26795
G1 X120.738 Y84.102 E60.32234
G1 X120.591 Y84.415 E60.36384
G1 X120.591 Y60.592 E63.22260
G1 X90.303 Y60.592 E66.85716
G1 X90.181 Y60.578 E66.87189
G1 X90.093 Y60.547 E66.88309
G1 X90.021 Y60.502 E66.89328
G1 X89.957 Y60.438 E66.90414
G1 X89.912 Y60.366 E66.91433
G1 X89.881 Y60.279 E66.92541
G1 X89.868 Y54.691 E67.59597
G1 X89.929 Y54.691 E67.60329
G1 X90.002 Y54.786 E67.61767
G1 X90.344 Y55.101 E67.67346
G1 X90.731 Y55.354 E67.72895
G1 X91.154 Y55.540 E67.78440
G1 X91.603 Y55.655 E67.84002
G1 X92.064 Y55.693 E67.89552
G1 X92.525 Y55.656 E67.95102
G1 X92.975 Y55.543 E68.00670
G1 X93.399 Y55.357 E68.06226
G1 X93.788 Y55.103 E68.11801
G1 X94.127 Y54.790 E68.17338
G1 X94.413 Y54.426 E68.22893
G1 X94.633 Y54.018 E68.28455
G1 X94.784 Y53.580 E68.34015
G1 X94.860 Y53.123 E68.39574
G1 X94.860 Y52.660 E68.45130
G1 X94.783 Y52.201 E68.50715
G1 X94.622 Y51.743 E68.56541
G1 X94.411 Y51.354 E68.61851
G1 X94.107 Y50.973 E68.67700
G1 X93.764 Y50.664 E68.73240
G1 X93.374 Y50.414 E68.78799
G1 X92.950 Y50.235 E68.84322
G1 X92.525 Y50.127 E68.89584
G1 X92.062 Y50.090 E68.95158
G1 X91.575 Y50.134 E69.01026
G1 X91.128 Y50.254 E69.06580
G1 X90.707 Y50.444 E69.12122
G1 X90.325 Y50.699 E69.17634
G1 X90.002 Y50.997 E69.22907
G1 X89.929 Y51.092 E69.24345
G1 X89.868 Y51.092 E69.25077
G1 X89.868 Y43.292 E70.18677
G1 X89.929 Y43.292 E70.19409
G1 X90.002 Y43.386 E70.20837
G1 X90.344 Y43.701 E70.26417
G1 X90.731 Y43.954 E70.31965
G1 X91.154 Y44.140 E70.37510
G1 X91.603 Y44.255 E70.43072
G1 X92.064 Y44.293 E70.48623
G1 X92.525 Y44.256 E70.54173
G1 X92.975 Y44.143 E70.59740
G1 X93.399 Y43.957 E70.65296
G1 X93.788 Y43.703 E70.70871
G1 X94.127 Y43.390 E70.76408
G1 X94.413 Y43.026 E70.81963
G1 X94.633 Y42.618 E70.87525
G1 X94.784 Y42.180 E70.93085
G1 X94.860 Y41.723 E70.98644
G1 X94.860 Y41.260 E71.04200
G1 X94.783 Y40.801 E71.09785
G1 X94.622 Y40.343 E71.15611
G1 X94.411 Y39.954 E71.20922
G1 X94.107 Y39.573 E71.26771
G1 X93.764 Y39.264 E71.32310
G1 X93.374 Y39.014 E71.37869
G1 X92.950 Y38.835 E71.43392
G1 X92.525 Y38.727 E71.48654
G1 X92.062 Y38.690 E71.54228
G1 X91.575 Y38.734 E71.60096
G1 X91.128 Y38.854 E71.65650
G1 X90.707 Y39.044 E71.71192
G1 X90.323 Y39.301 E71.76737
G1 X89.988 Y39.616 E71.82255
G1 X89.930 Y39.691 E71.83393
G1 X89.868 Y39.691 E71.84137
G1 X89.868 Y37.792 E72.06925
G0 F9000 X90.778 Y39.121
G0 X90.902 Y39.395
;TYPE:WALL-OUTER
G1 F1200 X90.573 Y39.615 E72.11674
G1 X90.285 Y39.886 E72.16420
G1 X90.126 Y40.091 E72.19533
G1 X89.468 Y40.091 E72.27429
G1 X89.468 Y37.392 E72.59817
G1 X95.568 Y37.392 E73.33017
G1 X95.568 Y57.691 E75.76605
G1 X136.868 Y57.691 E80.72205
G1 X136.868 Y37.392 E83.15793
G1 X142.968 Y37.392 E83.88993
G1 X142.968 Y40.091 E84.21381
G1 X142.309 Y40.091 E84.29289
G1 X142.137 Y39.868 E84.32669
G1 X141.844 Y39.599 E84.37442
G1 X141.513 Y39.382 E84.42191
G1 X141.150 Y39.222 E84.46951
G1 X140.765 Y39.124 E84.51719
G1 X140.370 Y39.091 E84.56475
G1 X139.975 Y39.123 E84.61231
G1 X139.590 Y39.220 E84.65995
G1 X139.227 Y39.379 E84.70751
G1 X138.894 Y39.597 E84.75527
G1 X138.603 Y39.865 E84.80274
G1 X138.358 Y40.177 E84.85035
G1 X138.169 Y40.526 E84.89797
G1 X138.040 Y40.902 E84.94567
G1 X137.975 Y41.293 E84.99324
G1 X137.975 Y41.690 E85.04088
G1 X138.041 Y42.082 E85.08858
G1 X138.180 Y42.477 E85.13883
G1 X138.359 Y42.807 E85.18388
G1 X138.620 Y43.135 E85.23418
G1 X138.914 Y43.400 E85.28168
G1 X139.248 Y43.614 E85.32928
G1 X139.613 Y43.768 E85.37682
G1 X139.975 Y43.860 E85.42164
G1 X140.371 Y43.892 E85.46931
G1 X140.789 Y43.854 E85.51968
G1 X141.172 Y43.751 E85.56727
G1 X141.533 Y43.588 E85.61480
G1 X141.862 Y43.368 E85.66230
G1 X142.150 Y43.097 E85.70975
G1 X142.309 Y42.892 E85.74088
G1 X142.968 Y42.892 E85.81996
G1 X142.968 Y51.492 E86.85196
G1 X142.309 Y51.492 E86.93104
G1 X142.137 Y51.268 E86.96493
G1 X141.844 Y50.999 E87.01267
G1 X141.513 Y50.782 E87.06016
G1 X141.150 Y50.622 E87.10776
G1 X140.765 Y50.524 E87.15544
G1 X140.370 Y50.491 E87.20300
G1 X139.975 Y50.523 E87.25056
G1 X139.590 Y50.620 E87.29820
G1 X139.227 Y50.779 E87.34576
G1 X138.894 Y50.997 E87.39352
G1 X138.603 Y51.265 E87.44099
G1 X138.358 Y51.577 E87.48859
G1 X138.169 Y51.926 E87.53622
G1 X138.040 Y52.302 E87.58392
G1 X137.975 Y52.693 E87.63149
G1 X137.975 Y53.090 E87.67913
G1 X138.041 Y53.482 E87.72683
G1 X138.180 Y53.877 E87.77708
G1 X138.359 Y54.207 E87.82213
G1 X138.620 Y54.535 E87.87243
G1 X138.914 Y54.800 E87.91993
G1 X139.248 Y55.014 E87.96753
G1 X139.613 Y55.168 E88.01507
G1 X139.975 Y55.260 E88.05989
G1 X140.371 Y55.292 E88.10756
G1 X140.789 Y55.254 E88.15793
G1 X141.172 Y55.151 E88.20552
G1 X141.533 Y54.988 E88.25305
G1 X141.861 Y54.769 E88.30038
G1 X142.137 Y54.515 E88.34539
G1 X142.309 Y54.291 E88.37928
G1 X142.968 Y54.291 E88.45836
G1 X142.968 Y60.178 E89.16480
G1 X142.946 Y60.369 E89.18787
G1 X142.885 Y60.541 E89.20977
G1 X142.792 Y60.690 E89.23085
G1 X142.667 Y60.815 E89.25206
G1 X142.517 Y60.909 E89.27330
G1 X142.345 Y60.970 E89.29520
G1 X142.154 Y60.992 E89.31828
G1 X126.791 Y60.992 E91.16184
G1 X126.791 Y90.203 E94.66716
G1 X115.191 Y90.203 E96.05916
G1 X115.191 Y86.003 E96.56316
G1 X119.003 Y86.003 E97.02060
G1 X119.265 Y85.972 E97.05225
G1 X119.543 Y85.870 E97.08779
G1 X119.762 Y85.723 E97.11944
G1 X119.943 Y85.535 E97.15076
G1 X120.079 Y85.311 E97.18220
G1 X120.163 Y85.064 E97.21351
G1 X120.191 Y84.814 E97.24370
G1 X120.191 Y60.992 E100.10234
G1 X90.282 Y60.992 E103.69142
G1 X90.090 Y60.970 E103.71461
G1 X89.918 Y60.909 E103.73651
G1 X89.768 Y60.815 E103.75775
G1 X89.643 Y60.690 E103.77896
G1 X89.550 Y60.541 E103.80004
G1 X89.489 Y60.369 E103.82194
G1 X89.468 Y60.179 E103.84488
G1 X89.468 Y54.291 E104.55144
G1 X90.126 Y54.291 E104.63040
G1 X90.298 Y54.515 E104.66429
G1 X90.591 Y54.784 E104.71202
G1 X90.922 Y55.001 E104.75952
G1 X91.285 Y55.161 E104.80712
G1 X91.670 Y55.259 E104.85479
G1 X92.065 Y55.292 E104.90236
G1 X92.460 Y55.260 E104.94991
G1 X92.845 Y55.163 E104.99756
G1 X93.208 Y55.004 E105.04511
G1 X93.541 Y54.786 E105.09287
G1 X93.832 Y54.518 E105.14035
G1 X94.077 Y54.206 E105.18795
G1 X94.266 Y53.857 E105.23558
G1 X94.395 Y53.481 E105.28328
G1 X94.460 Y53.090 E105.33084
G1 X94.460 Y52.693 E105.37848
G1 X94.394 Y52.301 E105.42618
G1 X94.255 Y51.906 E105.47643
G1 X94.076 Y51.576 E105.52148
G1 X93.815 Y51.248 E105.57178
G1 X93.521 Y50.983 E105.61928
G1 X93.187 Y50.769 E105.66688
G1 X92.822 Y50.615 E105.71442
G1 X92.460 Y50.523 E105.75924
G1 X92.064 Y50.491 E105.80692
G1 X91.646 Y50.529 E105.85728
G1 X91.263 Y50.632 E105.90488
G1 X90.902 Y50.795 E105.95241
G1 X90.574 Y51.014 E105.99974
G1 X90.298 Y51.268 E106.04475
G1 X90.126 Y51.492 E106.07864
G1 X89.468 Y51.492 E106.15760
G1 X89.468 Y42.892 E107.18960
G1 X90.126 Y42.892 E107.26856
G1 X90.298 Y43.115 E107.30235
G1 X90.591 Y43.384 E107.35008
G1 X90.922 Y43.601 E107.39758
G1 X91.285 Y43.761 E107.44518
G1 X91.670 Y43.859 E107.49285
G1 X92.065 Y43.892 E107.54042
G1 X92.460 Y43.860 E107.58797
G1 X92.845 Y43.763 E107.63562
G1 X93.208 Y43.604 E107.68317
G1 X93.541 Y43.386 E107.73093
G1 X93.832 Y43.118 E107.77841
G1 X94.077 Y42.806 E107.82601
G1 X94.266 Y42.457 E107.87364
G1 X94.395 Y42.081 E107.92134
G1 X94.460 Y41.690 E107.96890
G1 X94.460 Y41.293 E108.01654
G1 X94.394 Y40.901 E108.06425
G1 X94.255 Y40.506 E108.11449
G1 X94.076 Y40.176 E108.15955
G1 X93.815 Y39.848 E108.20985
G1 X93.521 Y39.583 E108.25734
G1 X93.187 Y39.369 E108.30494
G1 X92.822 Y39.215 E108.35248
G1 X92.460 Y39.123 E108.39730
G1 X92.064 Y39.091 E108.44498
G1 X91.646 Y39.129 E108.49535
G1 X91.263 Y39.232 E108.54294
G1 X90.902 Y39.395 E108.59047
G0 F9000 X90.778 Y39.121
G0 X92.062 Y38.691
G0 X93.763 Y39.265
G0 X94.782 Y40.802
G0 X94.633 Y42.617
G0 X93.399 Y43.956
G0 X91.604 Y44.254
G0 X94.859 Y52.661
G0 X94.412 Y54.425
G0 X92.974 Y55.542
G0 X91.154 Y55.539
G0 X90.299 Y60.593
G0 X120.532 Y60.651
G0 X121.765 Y83.225
G0 X121.891 Y83.497
G1 F1200 X121.576 Y83.717 E108.63658
G1 X121.305 Y83.988 E108.68257
G1 X121.085 Y84.303 E108.72867
G1 X120.922 Y84.650 E108.77468
G1 X120.823 Y85.020 E108.82064
G1 X120.790 Y85.403 E108.86677
G1 X120.823 Y85.785 E108.91278
G1 X120.922 Y86.156 E108.95886
G1 X121.085 Y86.504 E109.00497
G1 X121.305 Y86.817 E109.05088
G1 X121.576 Y87.089 E109.09696
G1 X121.891 Y87.309 E109.14306
G1 X122.238 Y87.471 E109.18902
G1 X122.608 Y87.570 E109.23498
G1 X122.991 Y87.604 E109.28112
G1 X123.373 Y87.570 E109.32714
G1 X123.744 Y87.471 E109.37322
G1 X124.091 Y87.309 E109.41917
G1 X124.405 Y87.089 E109.46518
G1 X124.677 Y86.817 E109.51134
G1 X124.897 Y86.503 E109.55735
G1 X125.059 Y86.156 E109.60330
G1 X125.158 Y85.785 E109.64938
G1 X125.192 Y85.403 E109.69540
G1 X125.158 Y85.020 E109.74154
G1 X125.059 Y84.650 E109.78751
G1 X124.897 Y84.303 E109.83346
G1 X124.677 Y83.988 E109.87957
G1 X124.405 Y83.717 E109.92564
G1 X124.092 Y83.497 E109.97155
G1 X123.744 Y83.334 E110.01767
G1 X123.373 Y83.235 E110.06374
G1 X122.991 Y83.202 E110.10975
G1 X122.608 Y83.235 E110.15588
G1 X122.238 Y83.334 E110.20185
G1 X121.891 Y83.497 E110.24785
G0 F9000 X121.726 Y82.976
;TYPE:SKIN
G1 F1200 X120.729 Y81.980 E110.41696
G0 F9000 X120.729 Y82.546
G1 F1200 X121.378 Y83.194 E110.52702
G0 F9000 X121.072 Y83.454
G1 F1200 X120.729 Y83.394 E110.58520
G1 X120.791 Y83.739 E110.62727
G0 F9000 X122.120 Y82.805
G1 F1200 X120.729 Y81.414 E110.86333
G0 F9000 X120.729 Y80.849
G1 F1200 X122.576 Y82.695 E111.17669
G0 F9000 X123.117 Y82.671
G1 F1200 X120.729 Y80.283 E111.58195
G0 F9000 X120.729 Y79.717
G1 F1200 X123.803 Y82.790 E112.10354
G0 F9000 X126.250 Y82.975
G1 F1200 X120.729 Y77.455 E113.04040
G0 F9000 X120.729 Y78.020
G1 F1200 X126.250 Y83.541 E113.97734
G0 F9000 X126.250 Y84.106
G1 F1200 X120.729 Y78.586 E114.91420
G0 F9000 X120.729 Y79.152
G1 F1200 X126.250 Y84.672 E115.85106
G0 F9000 X126.250 Y85.238
G1 F1200 X125.600 Y84.588 E115.96137
G0 F9000 X125.721 Y85.274
G1 F1200 X125.973 Y85.809 E116.05114
G1 X126.250 Y86.369 E116.12611
G0 F9000 X126.250 Y86.935
G1 F1200 X125.584 Y86.269 E116.23914
G0 F9000 X125.415 Y86.666
G1 F1200 X126.250 Y87.500 E116.38076
G0 F9000 X126.250 Y88.066
G1 F1200 X125.197 Y87.013 E116.55946
G0 F9000 X124.937 Y87.319
G1 F1200 X126.250 Y88.632 E116.78228
G0 F9000 X126.250 Y89.197
G1 F1200 X124.638 Y87.585 E117.05584
G0 F9000 X124.296 Y87.809
G1 F1200 X126.149 Y89.663 E117.37039
G0 F9000 X125.584 Y89.663
G1 F1200 X123.907 Y87.986 E117.65499
G0 F9000 X123.459 Y88.104
G1 F1200 X125.018 Y89.663 E117.91956
G0 F9000 X124.452 Y89.663
G1 F1200 X122.930 Y88.140 E118.17794
G0 F9000 X122.260 Y88.036
G1 F1200 X123.887 Y89.663 E118.45405
G0 F9000 X123.321 Y89.663
G1 F1200 X119.923 Y86.264 E119.03079
G0 F9000 X119.539 Y86.446
G1 F1200 X122.755 Y89.663 E119.57665
G0 F9000 X122.190 Y89.663
G1 F1200 X119.066 Y86.539 E120.10681
G0 F9000 X118.504 Y86.542
G1 F1200 X121.624 Y89.663 E120.63638
G0 F9000 X121.058 Y89.663
G1 F1200 X117.938 Y86.542 E121.16594
G0 F9000 X117.372 Y86.542
G1 F1200 X120.493 Y89.663 E121.69560
G0 F9000 X120.356 Y86.132
G1 F1200 X120.233 Y86.009 E121.71647
G0 F9000 X120.998 Y83.731
G0 X122.540 Y82.841
G0 X124.292 Y83.151
G0 X126.250 Y82.409
G1 F1200 X120.729 Y76.889 E122.65333
G0 F9000 X120.729 Y76.323
G1 F1200 X126.250 Y81.844 E123.59027
G0 F9000 X126.250 Y81.278
G1 F1200 X120.729 Y75.758 E124.52713
G0 F9000 X120.729 Y75.192
G1 F1200 X126.250 Y80.712 E125.46399
G0 F9000 X126.250 Y80.147
G1 F1200 X120.729 Y74.626 E126.40094
G0 F9000 X120.729 Y74.060
