;FLAVOR:UltiGCode
;TIME:7409
;MATERIAL:9197
;MATERIAL2:0
;NOZZLE_DIAMETER:0.400000
;NOZZLE_DIAMETER2:0.400000

;Layer count: 278
;LAYER:0
M107
G0 F9000 X86.175 Y103.300 Z0.300
;TYPE:SKIRT
G1 F1200 X145.727 Y103.300 E7.14624
G1 X145.727 Y109.620 E7.90464
G1 X145.724 Y114.700 E8.51424
G1 X129.200 Y114.700 E10.49712
G1 X129.200 Y121.700 E11.33712
G1 X113.798 Y121.700 E13.18536
G1 X112.244 Y120.072 E13.45543
G1 X111.638 Y119.527 E13.55324
G1 X111.013 Y119.045 E13.64795
G1 X110.337 Y118.602 E13.74494
G1 X109.650 Y118.226 E13.83892
G1 X108.882 Y117.877 E13.94015
G1 X108.134 Y117.608 E14.03553
G1 X107.378 Y117.399 E14.12966
G1 X106.625 Y117.253 E14.22170
G1 X105.815 Y117.157 E14.31958
G1 X104.992 Y117.124 E14.41842
G1 X104.232 Y117.152 E14.50968
G1 X103.423 Y117.244 E14.60739
G1 X102.656 Y117.392 E14.70112
G1 X101.882 Y117.604 E14.79743
G1 X101.124 Y117.874 E14.89398
G1 X100.409 Y118.195 E14.98803
G1 X99.698 Y118.581 E15.08512
G1 X99.030 Y119.013 E15.18058
G1 X98.396 Y119.497 E15.27629
G1 X97.798 Y120.031 E15.37250
G1 X97.163 Y120.692 E15.48249
G1 X96.198 Y121.700 E15.64995
G1 X80.800 Y121.700 E17.49771
G1 X80.800 Y108.675 E19.06071
G1 X86.175 Y103.300 E19.97287
G10
G0 F9000 X87.748 Y107.100
;TYPE:WALL-INNER
G11
G1 F1200 X141.927 Y107.100 E26.47435
G1 X141.926 Y110.900 E26.93035
G1 X127.958 Y110.900 E28.60651
G1 X127.477 Y110.950 E28.66455
G1 X126.994 Y111.099 E28.72520
G1 X126.547 Y111.340 E28.78614
G1 X126.159 Y111.659 E28.84642
G1 X125.835 Y112.054 E28.90772
G1 X125.595 Y112.505 E28.96903
G1 X125.447 Y112.994 E29.03034
G1 X125.400 Y113.471 E29.08785
G1 X125.400 Y117.900 E29.61933
G1 X115.423 Y117.900 E30.81657
G1 X114.887 Y117.338 E30.90977
G1 X114.077 Y116.609 E31.04054
G1 X113.213 Y115.943 E31.17144
G1 X112.301 Y115.345 E31.30231
G1 X111.344 Y114.821 E31.43324
G1 X110.364 Y114.377 E31.56235
G1 X109.294 Y113.987 E31.69901
G1 X108.243 Y113.696 E31.82988
G1 X107.207 Y113.495 E31.95651
G1 X106.123 Y113.366 E32.08751
G1 X105.057 Y113.323 E32.21554
G1 X105.007 Y113.320 E32.22155
G1 X103.944 Y113.360 E32.34920
G1 X102.860 Y113.483 E32.48011
G1 X101.790 Y113.689 E32.61087
G1 X100.739 Y113.977 E32.74164
G1 X99.711 Y114.344 E32.87263
G1 X98.716 Y114.790 E33.00347
G1 X97.757 Y115.310 E33.13438
G1 X96.842 Y115.903 E33.26522
G1 X95.975 Y116.565 E33.39612
G1 X95.161 Y117.291 E33.52701
G1 X94.576 Y117.900 E33.62835
G1 X84.600 Y117.900 E34.82547
G1 X84.600 Y110.248 E35.74371
G1 X87.748 Y107.100 E36.27794
G0 F9000 X88.847 Y109.479
G1 F1200 X88.353 Y109.663 E36.34120
G1 X87.906 Y109.941 E36.40436
G1 X87.524 Y110.304 E36.46760
G1 X87.224 Y110.736 E36.53071
G1 X87.016 Y111.220 E36.59393
G1 X86.910 Y111.736 E36.65714
G1 X86.910 Y112.263 E36.72038
G1 X87.016 Y112.779 E36.78360
G1 X87.224 Y113.263 E36.84681
G1 X87.524 Y113.695 E36.90993
G1 X87.906 Y114.058 E36.97316
G1 X88.353 Y114.336 E37.03633
G1 X88.847 Y114.520 E37.09959
G1 X89.368 Y114.599 E37.16282
G1 X89.893 Y114.572 E37.22591
G1 X90.403 Y114.441 E37.28909
G1 X90.876 Y114.209 E37.35231
G1 X91.292 Y113.886 E37.41551
G1 X91.636 Y113.487 E37.47873
G1 X91.891 Y113.026 E37.54195
G1 X92.050 Y112.524 E37.60514
G1 X92.103 Y112.000 E37.66834
G1 X92.050 Y111.475 E37.73166
G1 X91.891 Y110.973 E37.79485
G1 X91.636 Y110.512 E37.85807
G1 X91.292 Y110.113 E37.92129
G1 X90.876 Y109.790 E37.98449
G1 X90.403 Y109.558 E38.04771
G1 X89.893 Y109.427 E38.11090
G1 X89.368 Y109.400 E38.17398
G1 X88.847 Y109.479 E38.23721
G0 F9000 X117.910 Y111.736
G1 F1200 X117.910 Y112.263 E38.30045
G1 X118.016 Y112.779 E38.36367
G1 X118.224 Y113.263 E38.42688
G1 X118.524 Y113.695 E38.49000
G1 X118.906 Y114.058 E38.55323
G1 X119.353 Y114.336 E38.61640
G1 X119.847 Y114.520 E38.67966
G1 X120.368 Y114.599 E38.74289
G1 X120.893 Y114.572 E38.80598
G1 X121.403 Y114.441 E38.86916
G1 X121.876 Y114.209 E38.93238
G1 X122.292 Y113.886 E38.99558
G1 X122.636 Y113.487 E39.05880
G1 X122.891 Y113.026 E39.12202
G1 X123.050 Y112.524 E39.18521
G1 X123.103 Y112.000 E39.24841
G1 X123.050 Y111.475 E39.31173
G1 X122.891 Y110.973 E39.37492
G1 X122.636 Y110.512 E39.43814
G1 X122.292 Y110.113 E39.50136
G1 X121.876 Y109.790 E39.56456
G1 X121.403 Y109.558 E39.62778
G1 X120.893 Y109.427 E39.69097
G1 X120.368 Y109.400 E39.75405
G1 X119.847 Y109.479 E39.81728
G1 X119.353 Y109.663 E39.88054
G1 X118.906 Y109.941 E39.94371
G1 X118.524 Y110.304 E40.00695
G1 X118.224 Y110.736 E40.07006
G1 X118.016 Y111.220 E40.13328
G1 X117.910 Y111.736 E40.19649
G0 F9000 X118.310 Y111.777
;TYPE:WALL-OUTER
G1 F1200 X118.310 Y112.222 E40.24989
G1 X118.399 Y112.658 E40.30329
G1 X118.575 Y113.068 E40.35683
G1 X118.829 Y113.433 E40.41019
G1 X119.152 Y113.740 E40.46367
G1 X119.530 Y113.975 E40.51708
G1 X119.948 Y114.131 E40.57062
G1 X120.388 Y114.198 E40.62403
G1 X120.832 Y114.175 E40.67738
G1 X121.264 Y114.064 E40.73090
G1 X121.663 Y113.868 E40.78425
G1 X122.015 Y113.595 E40.83770
G1 X122.306 Y113.257 E40.89122
G1 X122.522 Y112.867 E40.94472
G1 X122.656 Y112.443 E40.99808
G1 X122.701 Y112.000 E41.05152
G1 X122.656 Y111.556 E41.10507
G1 X122.522 Y111.132 E41.15843
G1 X122.306 Y110.742 E41.21193
G1 X122.015 Y110.404 E41.26545
G1 X121.663 Y110.131 E41.31890
G1 X121.264 Y109.935 E41.37225
G1 X120.832 Y109.824 E41.42577
G1 X120.388 Y109.801 E41.47912
G1 X119.948 Y109.868 E41.53253
G1 X119.530 Y110.024 E41.58607
G1 X119.152 Y110.259 E41.63948
G1 X118.829 Y110.566 E41.69296
G1 X118.575 Y110.931 E41.74632
G1 X118.399 Y111.341 E41.79986
G1 X118.310 Y111.777 E41.85326
G0 F9000 X118.016 Y111.718
G0 X114.023 Y116.696
G0 X113.821 Y116.916
G1 F1200 X112.981 Y116.269 E41.98049
G1 X112.095 Y115.688 E42.10763
G1 X111.165 Y115.179 E42.23486
G1 X110.205 Y114.744 E42.36133
G1 X109.173 Y114.368 E42.49313
G1 X108.152 Y114.086 E42.62024
G1 X107.145 Y113.890 E42.74335
G1 X106.092 Y113.765 E42.87060
G1 X105.045 Y113.723 E42.99634
G1 X105.002 Y113.721 E43.00150
G1 X103.974 Y113.759 E43.12495
G1 X102.921 Y113.879 E43.25213
G1 X101.881 Y114.079 E43.37921
G1 X100.859 Y114.359 E43.50637
G1 X99.860 Y114.715 E43.63364
G1 X98.893 Y115.149 E43.76083
G1 X97.962 Y115.654 E43.88792
G1 X97.073 Y116.230 E44.01504
G1 X96.230 Y116.874 E44.14234
G1 X95.439 Y117.579 E44.26949
G1 X94.747 Y118.300 E44.38941
G1 X84.200 Y118.300 E45.65505
G1 X84.200 Y110.082 E46.64121
G1 X87.582 Y106.700 E47.21516
G1 X142.327 Y106.700 E53.78456
G1 X142.326 Y111.300 E54.33656
G1 X127.979 Y111.300 E56.05820
G1 X127.558 Y111.344 E56.10899
G1 X127.149 Y111.470 E56.16035
G1 X126.771 Y111.674 E56.21189
G1 X126.443 Y111.943 E56.26280
G1 X126.170 Y112.277 E56.31456
G1 X125.966 Y112.658 E56.36642
G1 X125.841 Y113.072 E56.41832
G1 X125.800 Y113.490 E56.46872
G1 X125.800 Y118.300 E57.04592
G1 X115.253 Y118.300 E58.31156
G1 X114.608 Y117.625 E58.42359
G1 X113.821 Y116.916 E58.55071
G0 F9000 X114.023 Y116.696
G0 X111.344 Y114.822
G0 X107.206 Y113.496
G0 X102.861 Y113.484
G0 X91.953 Y112.475
G0 X91.656 Y112.443
G1 F1200 X91.701 Y112.000 E58.60414
G1 X91.656 Y111.556 E58.65769
G1 X91.522 Y111.132 E58.71105
G1 X91.306 Y110.742 E58.76455
G1 X91.015 Y110.404 E58.81807
G1 X90.663 Y110.131 E58.87153
G1 X90.264 Y109.935 E58.92487
G1 X89.832 Y109.824 E58.97840
G1 X89.388 Y109.801 E59.03175
G1 X88.948 Y109.868 E59.08516
G1 X88.530 Y110.024 E59.13870
G1 X88.152 Y110.259 E59.19211
G1 X87.829 Y110.566 E59.24558
G1 X87.575 Y110.931 E59.29894
G1 X87.399 Y111.341 E59.35248
G1 X87.310 Y111.777 E59.40588
G1 X87.310 Y112.222 E59.45928
G1 X87.399 Y112.658 E59.51268
G1 X87.575 Y113.068 E59.56622
G1 X87.829 Y113.433 E59.61959
G1 X88.152 Y113.740 E59.67306
G1 X88.530 Y113.975 E59.72647
G1 X88.948 Y114.131 E59.78001
G1 X89.388 Y114.198 E59.83342
G1 X89.832 Y114.175 E59.88677
G1 X90.264 Y114.064 E59.94029
G1 X90.663 Y113.868 E59.99364
G1 X91.015 Y113.595 E60.04709
G1 X91.306 Y113.257 E60.10062
G1 X91.522 Y112.867 E60.15411
G1 X91.656 Y112.443 E60.20747
G0 F9000 X92.119 Y112.766
;TYPE:SKIN
G1 F1200 X95.844 Y116.492 E60.83971
G0 F9000 X95.545 Y116.758
G1 F1200 X91.965 Y113.178 E61.44726
G0 F9000 X91.764 Y113.543
G1 F1200 X95.247 Y117.026 E62.03834
G0 F9000 X94.957 Y117.301
G1 F1200 X91.506 Y113.851 E62.62391
G0 F9000 X91.213 Y114.124
G1 F1200 X94.680 Y117.590 E63.21220
G0 F9000 X94.283 Y117.759
G1 F1200 X90.885 Y114.361 E63.78886
G0 F9000 X90.506 Y114.547
G1 F1200 X93.717 Y117.759 E64.33387
G0 F9000 X93.152 Y117.759
G1 F1200 X90.064 Y114.672 E64.85783
G0 F9000 X89.556 Y114.729
G1 F1200 X92.586 Y117.759 E65.37204
G0 F9000 X92.020 Y117.759
G1 F1200 X88.937 Y114.675 E65.89533
G0 F9000 X87.936 Y114.240
G1 F1200 X91.455 Y117.759 E66.49252
G0 F9000 X90.889 Y117.759
G1 F1200 X84.739 Y111.609 E67.53621
G0 F9000 X84.739 Y111.044
G1 F1200 X87.268 Y113.572 E67.96531
G0 F9000 X86.830 Y112.569
G1 F1200 X84.739 Y110.478 E68.32017
G0 F9000 X84.935 Y110.108
G1 F1200 X86.769 Y111.942 E68.63141
G0 F9000 X86.828 Y111.435
G1 F1200 X85.218 Y109.825 E68.90463
G0 F9000 X85.501 Y109.542
G1 F1200 X86.957 Y110.999 E69.15181
G0 F9000 X87.137 Y110.613
G1 F1200 X85.784 Y109.260 E69.38142
G0 F9000 X86.066 Y108.977
G1 F1200 X87.369 Y110.279 E69.60246
G0 F9000 X87.647 Y109.991
G1 F1200 X86.349 Y108.694 E69.82266
G0 F9000 X86.632 Y108.411
G1 F1200 X87.961 Y109.740 E70.04819
G0 F9000 X88.313 Y109.526
G1 F1200 X86.915 Y108.128 E70.28544
G0 F9000 X87.198 Y107.845
G1 F1200 X88.725 Y109.373 E70.54467
G0 F9000 X89.200 Y109.281
G1 F1200 X87.481 Y107.562 E70.83639
G0 F9000 X87.763 Y107.280
G1 F1200 X89.762 Y109.279 E71.17563
G0 F9000 X90.494 Y109.444
G1 F1200 X88.289 Y107.239 E71.54984
G0 F9000 X88.855 Y107.239
G1 F1200 X97.150 Y115.534 E72.95754
G0 F9000 X97.493 Y115.312
G1 F1200 X89.420 Y107.239 E74.32758
G0 F9000 X89.986 Y107.239
G1 F1200 X97.848 Y115.101 E75.66180
G0 F9000 X98.214 Y114.902
G1 F1200 X90.552 Y107.239 E76.96217
G0 F9000 X91.117 Y107.239
G1 F1200 X98.581 Y114.703 E78.22885
G0 F9000 X98.967 Y114.523
G1 F1200 X91.683 Y107.239 E79.46499
G0 F9000 X92.249 Y107.239
G1 F1200 X99.357 Y114.348 E80.67134
G0 F9000 X99.754 Y114.179
G1 F1200 X92.814 Y107.239 E81.84910
G0 F9000 X93.380 Y107.239
G1 F1200 X100.170 Y114.030 E83.00149
G0 F9000 X100.588 Y113.881
G1 F1200 X93.946 Y107.239 E84.12867
G0 F9000 X94.511 Y107.239
G1 F1200 X101.025 Y113.752 E85.23405
G0 F9000 X101.469 Y113.631
G1 F1200 X95.077 Y107.239 E86.31881
G0 F9000 X95.643 Y107.239
G1 F1200 X101.923 Y113.519 E87.38456
G0 F9000 X102.397 Y113.428
G1 F1200 X96.208 Y107.239 E88.43487
G0 F9000 X96.774 Y107.239
G1 F1200 X102.874 Y113.339 E89.47007
G0 F9000 X103.382 Y113.282
G1 F1200 X97.340 Y107.239 E90.49552
G0 F9000 X97.906 Y107.239
G1 F1200 X103.890 Y113.224 E91.51112
G0 F9000 X104.431 Y113.200
G1 F1200 X98.471 Y107.239 E92.52265
G0 F9000 X99.037 Y107.239
G1 F1200 X104.977 Y113.179 E93.53070
G0 F9000 X105.564 Y113.201
G1 F1200 X99.603 Y107.239 E94.54240
G0 F9000 X92.044 Y110.995
G1 F1200 X96.806 Y115.756 E95.35046
G0 F9000 X96.483 Y115.999
G1 F1200 X92.215 Y111.732 E96.07467
G0 F9000 X92.212 Y112.294
G1 F1200 X96.162 Y116.244 E96.74501
G0 F9000 X90.323 Y117.759
G1 F1200 X84.739 Y112.175 E97.69265
G0 F9000 X84.739 Y112.741
G1 F1200 X89.758 Y117.759 E98.54432
G0 F9000 X89.192 Y117.759
G1 F1200 X84.739 Y113.306 E99.30001
G0 F9000 X84.739 Y113.872
G1 F1200 X88.626 Y117.759 E99.95966
G0 F9000 X88.060 Y117.759
G1 F1200 X84.739 Y114.438 E100.52325
G0 F9000 X84.739 Y115.003
G1 F1200 X87.495 Y117.759 E100.99096
G0 F9000 X86.929 Y117.759
G1 F1200 X84.739 Y115.569 E101.36262
G0 F9000 X84.739 Y116.135
G1 F1200 X86.363 Y117.759 E101.63822
G0 F9000 X85.798 Y117.759
G1 F1200 X84.739 Y116.700 E101.81794
G0 F9000 X84.739 Y117.266
G1 F1200 X85.232 Y117.759 E101.90160
G0 F9000 X91.635 Y113.486
G0 X100.168 Y107.239
G1 F1200 X106.157 Y113.228 E102.91797
G0 F9000 X106.799 Y113.304
G1 F1200 X100.734 Y107.239 E103.94723
G0 F9000 X101.300 Y107.239
G1 F1200 X107.460 Y113.400 E104.99270
G0 F9000 X108.161 Y113.535
G1 F1200 X101.865 Y107.239 E106.06117
G0 F9000 X102.431 Y107.239
G1 F1200 X108.931 Y113.740 E107.16434
G0 F9000 X109.767 Y114.009
G1 F1200 X102.997 Y107.239 E108.31325
G0 F9000 X103.562 Y107.239
G1 F1200 X110.696 Y114.373 E109.52393
G0 F9000 X111.799 Y114.910
G1 F1200 X104.128 Y107.239 E110.82574
G0 F9000 X104.694 Y107.239
G1 F1200 X113.262 Y115.808 E112.27986
G0 F9000 X115.779 Y117.759
G1 F1200 X105.259 Y107.239 E114.06517
G0 F9000 X105.825 Y107.239
G1 F1200 X116.345 Y117.759 E115.85047
G0 F9000 X116.910 Y117.759
G1 F1200 X106.391 Y107.239 E117.63569
G0 F9000 X106.956 Y107.239
G1 F1200 X117.476 Y117.759 E119.42099
G0 F9000 X118.042 Y117.759
G1 F1200 X107.522 Y107.239 E121.20630
G0 F9000 X108.088 Y107.239
G1 F1200 X118.607 Y117.759 E122.99151
G0 F9000 X119.173 Y117.759
G1 F1200 X108.654 Y107.239 E124.77673
G0 F9000 X109.219 Y107.239
G1 F1200 X119.739 Y117.759 E126.56204
G0 F9000 X120.305 Y117.759
G1 F1200 X109.785 Y107.239 E128.34734
G0 F9000 X110.351 Y107.239
G1 F1200 X120.870 Y117.759 E130.13256
G0 F9000 X121.436 Y117.759
G1 F1200 X110.916 Y107.239 E131.91786
G0 F9000 X111.482 Y107.239
G1 F1200 X122.002 Y117.759 E133.70316
G0 F9000 X122.567 Y117.759
G1 F1200 X119.238 Y114.430 E134.26811
G0 F9000 X118.069 Y113.261
G1 F1200 X112.048 Y107.239 E135.29000
G0 F9000 X112.613 Y107.239
G1 F1200 X117.800 Y112.426 E136.17026
G0 F9000 X117.769 Y111.829
G1 F1200 X113.179 Y107.239 E136.94921
G0 F9000 X113.745 Y107.239
G1 F1200 X117.847 Y111.342 E137.64543
G0 F9000 X117.992 Y110.921
G1 F1200 X114.310 Y107.239 E138.27028
G0 F9000 X114.876 Y107.239
G1 F1200 X118.183 Y110.546 E138.83150
G0 F9000 X118.415 Y110.213
G1 F1200 X115.442 Y107.239 E139.33612
G0 F9000 X116.007 Y107.239
G1 F1200 X118.705 Y109.937 E139.79398
G0 F9000 X119.030 Y109.697
G1 F1200 X116.573 Y107.239 E140.21104
G0 F9000 X117.139 Y107.239
G1 F1200 X119.395 Y109.496 E140.59398
G0 F9000 X119.808 Y109.343
G1 F1200 X117.704 Y107.239 E140.95104
G0 F9000 X118.270 Y107.239
G1 F1200 X120.298 Y109.267 E141.29520
G0 F9000 X120.882 Y109.286
G1 F1200 X118.836 Y107.239 E141.64250
G0 F9000 X119.402 Y107.239
G1 F1200 X121.718 Y109.556 E142.03563
G0 F9000 X122.946 Y110.783
G1 F1200 X125.292 Y113.130 E142.43384
G0 F9000 X125.398 Y112.670
G1 F1200 X119.967 Y107.239 E143.35551
G0 F9000 X120.533 Y107.239
G1 F1200 X125.562 Y112.268 E144.20896
G0 F9000 X125.770 Y111.911
G1 F1200 X121.099 Y107.239 E145.00174
G0 F9000 X121.664 Y107.239
G1 F1200 X126.025 Y111.600 E145.74183
G0 F9000 X126.327 Y111.336
G1 F1200 X122.230 Y107.239 E146.43711
G0 F9000 X122.796 Y107.239
G1 F1200 X126.669 Y111.113 E147.09447
G0 F9000 X127.055 Y110.933
G1 F1200 X123.361 Y107.239 E147.72136
G0 F9000 X123.927 Y107.239
G1 F1200 X127.494 Y110.807 E148.32678
G0 F9000 X128.013 Y110.759
G1 F1200 X124.493 Y107.239 E148.92415
G0 F9000 X125.058 Y107.239
G1 F1200 X128.578 Y110.759 E149.52151
G0 F9000 X129.144 Y110.759
G1 F1200 X125.624 Y107.239 E150.11887
G0 F9000 X126.190 Y107.239
G1 F1200 X129.710 Y110.759 E150.71624
G0 F9000 X130.275 Y110.759
G1 F1200 X126.755 Y107.239 E151.31360
G0 F9000 X127.321 Y107.239
G1 F1200 X130.841 Y110.759 E151.91097
G0 F9000 X131.407 Y110.759
G1 F1200 X127.887 Y107.239 E152.50833
G0 F9000 X128.453 Y107.239
G1 F1200 X131.972 Y110.759 E153.10561
G0 F9000 X132.538 Y110.759
G1 F1200 X129.018 Y107.239 E153.70297
G0 F9000 X129.584 Y107.239
G1 F1200 X133.104 Y110.759 E154.30034
G0 F9000 X133.670 Y110.759
G1 F1200 X130.150 Y107.239 E154.89770
G0 F9000 X130.715 Y107.239
G1 F1200 X134.235 Y110.759 E155.49506
G0 F9000 X134.801 Y110.759
G1 F1200 X131.281 Y107.239 E156.09243
G0 F9000 X131.847 Y107.239
G1 F1200 X135.367 Y110.759 E156.68979
G0 F9000 X135.932 Y110.759
G1 F1200 X132.412 Y107.239 E157.28715
G0 F9000 X132.978 Y107.239
G1 F1200 X136.498 Y110.759 E157.88452
G0 F9000 X137.064 Y110.759
G1 F1200 X133.544 Y107.239 E158.48188
G0 F9000 X134.109 Y107.239
G1 F1200 X137.629 Y110.759 E159.07925
G0 F9000 X138.195 Y110.759
G1 F1200 X134.675 Y107.239 E159.67661
G0 F9000 X135.241 Y107.239
G1 F1200 X138.761 Y110.759 E160.27397
G0 F9000 X139.326 Y110.759
G1 F1200 X135.806 Y107.239 E160.87134
G0 F9000 X136.372 Y107.239
G1 F1200 X139.892 Y110.759 E161.46870
G0 F9000 X140.458 Y110.759
G1 F1200 X136.938 Y107.239 E162.06607
G0 F9000 X137.503 Y107.239
G1 F1200 X141.023 Y110.759 E162.66343
G0 F9000 X141.589 Y110.759
G1 F1200 X138.069 Y107.239 E163.26079
