;FLAVOR:UltiGCode
;TIME:2373
;MATERIAL:2690
;MATERIAL2:0
;NOZZLE_DIAMETER:0.400000
;NOZZLE_DIAMETER2:0.400000

;Layer count: 70
;LAYER:0
M107
G0 F9000 X95.825 Y45.817 Z0.300
G0 X95.825 Y47.610
;TYPE:SKIRT
G1 F1200 X95.825 Y45.817 E0.21516
G1 X109.224 Y45.817 E1.82304
G1 X109.224 Y71.148 E4.86276
G1 X134.683 Y71.148 E7.91784
G1 X134.683 Y95.106 E10.79280
G1 X123.854 Y95.106 E12.09228
G1 X123.854 Y81.978 E13.66764
G1 X106.654 Y81.978 E15.73164
G1 X106.654 Y95.106 E17.30700
G1 X95.825 Y95.106 E18.60648
G1 X95.825 Y64.217 E22.31316
G1 X94.555 Y64.217 E22.46556
G1 X94.555 Y50.868 E24.06744
G1 X94.628 Y50.085 E24.16181
G1 X94.853 Y49.244 E24.26628
G1 X95.217 Y48.454 E24.37066
G1 X95.717 Y47.721 E24.47713
G1 X95.825 Y47.610 E24.49572
G10
G0 F9000 X98.673 Y50.130
;TYPE:WALL-INNER
G11
G1 F1200 X98.835 Y49.964 E24.52355
G1 X99.032 Y49.821 E24.55276
G1 X99.441 Y49.617 E24.60761
G1 X105.424 Y49.617 E25.32557
G1 X105.424 Y74.948 E28.36529
G1 X130.883 Y74.948 E31.42037
G1 X130.883 Y83.809 E32.48369
G1 X130.606 Y83.606 E32.52490
G1 X130.203 Y83.427 E32.57781
G1 X129.768 Y83.335 E32.63117
G1 X129.304 Y83.342 E32.68685
G1 X128.899 Y83.428 E32.73654
G1 X128.477 Y83.623 E32.79232
G1 X128.142 Y83.868 E32.84213
G1 X127.837 Y84.217 E32.89775
G1 X127.654 Y84.534 E32.94167
G1 X127.654 Y78.178 E33.70439
G1 X102.854 Y78.178 E36.68039
G1 X102.854 Y84.533 E37.44299
G1 X102.653 Y84.187 E37.49101
G1 X102.337 Y83.847 E37.54671
G1 X102.006 Y83.606 E37.59584
G1 X101.604 Y83.427 E37.64865
G1 X101.169 Y83.335 E37.70200
G1 X100.705 Y83.342 E37.75769
G1 X100.301 Y83.428 E37.80725
G1 X99.877 Y83.623 E37.86326
G1 X99.625 Y83.808 E37.90077
G1 X99.625 Y61.976 E40.52061
G1 X99.572 Y61.589 E40.56748
G1 X99.413 Y61.209 E40.61692
G1 X99.159 Y60.879 E40.66689
G1 X98.815 Y60.621 E40.71849
G1 X98.435 Y60.466 E40.76773
G1 X98.355 Y60.455 E40.77743
G1 X98.355 Y51.041 E41.90711
G1 X98.381 Y50.763 E41.94061
G1 X98.441 Y50.538 E41.96855
G1 X98.536 Y50.333 E41.99567
G1 X98.673 Y50.130 E42.02506
G0 F9000 X99.952 Y51.870
G1 F1200 X99.607 Y52.216 E42.08369
G1 X99.328 Y52.616 E42.14221
G1 X99.121 Y53.058 E42.20078
G1 X98.995 Y53.530 E42.25940
G1 X98.951 Y54.023 E42.31880
G1 X99.011 Y54.571 E42.38495
G1 X99.147 Y55.033 E42.44274
G1 X99.328 Y55.419 E42.49390
G1 X99.608 Y55.818 E42.55240
G1 X99.958 Y56.168 E42.61179
G1 X100.410 Y56.469 E42.67696
G1 X100.796 Y56.650 E42.72812
G1 X101.267 Y56.776 E42.78663
G1 X101.761 Y56.820 E42.84614
G1 X102.302 Y56.760 E42.91146
G1 X102.713 Y56.650 E42.96252
G1 X103.155 Y56.444 E43.02103
G1 X103.556 Y56.164 E43.07972
G1 X103.906 Y55.813 E43.13921
G1 X104.207 Y55.361 E43.20437
G1 X104.388 Y54.975 E43.25553
G1 X104.513 Y54.503 E43.31412
G1 X104.557 Y54.011 E43.37340
G1 X104.497 Y53.471 E43.43860
G1 X104.388 Y53.059 E43.48974
G1 X104.181 Y52.616 E43.54842
G1 X103.902 Y52.216 E43.60694
G1 X103.556 Y51.870 E43.66566
G1 X103.155 Y51.589 E43.72442
G1 X102.713 Y51.383 E43.78293
G1 X102.241 Y51.257 E43.84156
G1 X101.749 Y51.214 E43.90082
G1 X101.200 Y51.273 E43.96708
G1 X100.738 Y51.409 E44.02487
G1 X100.352 Y51.590 E44.07603
G1 X99.952 Y51.870 E44.13462
G0 F9000 X98.997 Y53.531
G0 X99.328 Y55.418
G0 X103.010 Y84.991
G0 X102.854 Y86.321
G1 F1200 X102.854 Y91.306 E44.73282
G1 X99.625 Y91.306 E45.12030
G1 X99.625 Y87.046 E45.63150
G1 X99.902 Y87.249 E45.67271
G1 X100.305 Y87.428 E45.72563
G1 X100.740 Y87.520 E45.77899
G1 X101.204 Y87.513 E45.83467
G1 X101.609 Y87.427 E45.88436
G1 X102.031 Y87.232 E45.94014
G1 X102.366 Y86.987 E45.98994
G1 X102.671 Y86.638 E46.04556
G1 X102.854 Y86.321 E46.08949
G0 F9000 X102.913 Y78.237
G0 X127.595 Y78.237
G0 X127.653 Y86.664
G0 X127.855 Y86.668
G1 F1200 X128.171 Y87.008 E46.14519
G1 X128.502 Y87.249 E46.19432
G1 X128.904 Y87.428 E46.24713
G1 X129.339 Y87.520 E46.30048
G1 X129.803 Y87.513 E46.35617
G1 X130.207 Y87.427 E46.40573
G1 X130.631 Y87.232 E46.46174
G1 X130.883 Y87.047 E46.49925
G1 X130.883 Y91.306 E47.01033
G1 X127.654 Y91.306 E47.39781
G1 X127.654 Y86.322 E47.99589
G1 X127.855 Y86.668 E48.04391
G0 F9000 X128.178 Y86.429
;TYPE:WALL-OUTER
G1 F1200 X128.438 Y86.707 E48.08958
G1 X128.703 Y86.901 E48.12900
G1 X129.028 Y87.045 E48.17165
G1 X129.378 Y87.119 E48.21458
G1 X129.758 Y87.114 E48.26018
G1 X130.080 Y87.045 E48.29970
G1 X130.427 Y86.885 E48.34555
G1 X130.693 Y86.690 E48.38513
G1 X130.943 Y86.404 E48.43072
G1 X131.108 Y86.120 E48.47013
G1 X131.218 Y85.781 E48.51290
G1 X131.255 Y85.427 E48.55561
G1 X131.218 Y85.074 E48.59820
G1 X131.108 Y84.735 E48.64097
G1 X130.929 Y84.426 E48.68382
G1 X130.669 Y84.148 E48.72950
G1 X130.405 Y83.954 E48.76881
G1 X130.079 Y83.810 E48.81158
G1 X129.729 Y83.736 E48.85451
G1 X129.349 Y83.741 E48.90011
G1 X129.026 Y83.810 E48.93975
G1 X128.681 Y83.970 E48.98538
G1 X128.414 Y84.165 E49.02506
G1 X128.164 Y84.451 E49.07064
G1 X127.999 Y84.735 E49.11005
G1 X127.889 Y85.074 E49.15282
G1 X127.853 Y85.427 E49.19540
G1 X127.889 Y85.781 E49.23810
G1 X127.999 Y86.120 E49.28087
G1 X128.178 Y86.429 E49.32372
G0 F9000 X127.958 Y86.632
G0 X127.464 Y91.406
G0 X127.254 Y91.706
G1 F1200 X127.254 Y78.578 E50.89908
G1 X103.254 Y78.578 E53.77908
G1 X103.254 Y91.706 E55.35444
G1 X99.225 Y91.706 E55.83792
G1 X99.225 Y62.003 E59.40228
G1 X99.183 Y61.695 E59.43958
G1 X99.064 Y61.412 E59.47642
G1 X98.875 Y61.166 E59.51365
G1 X98.616 Y60.972 E59.55248
G1 X98.332 Y60.856 E59.58930
G1 X98.038 Y60.817 E59.62489
G1 X97.955 Y60.817 E59.63485
G1 X97.955 Y51.025 E60.80989
G1 X97.986 Y50.687 E60.85062
G1 X98.062 Y50.406 E60.88555
G1 X98.188 Y50.132 E60.92174
G1 X98.362 Y49.876 E60.95888
G1 X98.572 Y49.660 E60.99503
G1 X98.824 Y49.478 E61.03233
G1 X99.225 Y49.278 E61.08611
G1 X99.225 Y49.217 E61.09343
G1 X105.824 Y49.217 E61.88531
G1 X105.824 Y74.548 E64.92503
G1 X131.283 Y74.548 E67.98011
G1 X131.283 Y91.706 E70.03907
G1 X127.254 Y91.706 E70.52255
G0 F9000 X127.464 Y91.406
G0 X127.595 Y78.237
G0 X102.913 Y78.237
G0 X102.903 Y85.873
G0 X102.619 Y85.781
G1 F1200 X102.656 Y85.427 E70.56526
G1 X102.619 Y85.074 E70.60785
G1 X102.509 Y84.735 E70.65062
G1 X102.330 Y84.426 E70.69347
G1 X102.070 Y84.148 E70.73915
G1 X101.805 Y83.954 E70.77856
G1 X101.480 Y83.810 E70.82121
G1 X101.130 Y83.736 E70.86414
G1 X100.750 Y83.741 E70.90975
G1 X100.428 Y83.810 E70.94926
G1 X100.081 Y83.970 E70.99512
G1 X99.815 Y84.165 E71.03470
G1 X99.565 Y84.451 E71.08028
G1 X99.400 Y84.735 E71.11969
G1 X99.290 Y85.074 E71.16246
G1 X99.253 Y85.427 E71.20505
G1 X99.290 Y85.781 E71.24777
G1 X99.400 Y86.120 E71.29053
G1 X99.579 Y86.429 E71.33339
G1 X99.839 Y86.707 E71.37906
G1 X100.103 Y86.901 E71.41838
G1 X100.429 Y87.045 E71.46114
G1 X100.779 Y87.119 E71.50407
G1 X101.159 Y87.114 E71.54967
G1 X101.482 Y87.045 E71.58931
G1 X101.827 Y86.885 E71.63494
G1 X102.094 Y86.690 E71.67462
G1 X102.344 Y86.404 E71.72020
G1 X102.509 Y86.120 E71.75962
G1 X102.619 Y85.781 E71.80239
G0 F9000 X102.903 Y85.873
G0 X101.732 Y56.716
G0 X101.757 Y56.418
G1 F1200 X102.228 Y56.366 E71.85925
G1 X102.576 Y56.273 E71.90247
G1 X102.954 Y56.096 E71.95256
G1 X103.298 Y55.856 E72.00289
G1 X103.595 Y55.558 E72.05338
G1 X103.858 Y55.164 E72.11023
G1 X104.011 Y54.838 E72.15344
G1 X104.118 Y54.434 E72.20359
G1 X104.155 Y54.015 E72.25407
G1 X104.103 Y53.544 E72.31093
G1 X104.011 Y53.196 E72.35413
G1 X103.834 Y52.817 E72.40432
G1 X103.594 Y52.474 E72.45456
G1 X103.298 Y52.177 E72.50488
G1 X102.954 Y51.937 E72.55521
G1 X102.576 Y51.760 E72.60530
G1 X102.172 Y51.652 E72.65548
G1 X101.753 Y51.616 E72.70594
G1 X101.279 Y51.667 E72.76315
G1 X100.880 Y51.784 E72.81305
G1 X100.553 Y51.937 E72.85637
G1 X100.211 Y52.177 E72.90651
G1 X99.915 Y52.474 E72.95683
G1 X99.675 Y52.817 E73.00706
G1 X99.498 Y53.195 E73.05715
G1 X99.390 Y53.600 E73.10745
G1 X99.353 Y54.019 E73.15792
G1 X99.405 Y54.492 E73.21502
G1 X99.522 Y54.891 E73.26492
G1 X99.675 Y55.218 E73.30824
G1 X99.915 Y55.560 E73.35838
G1 X100.213 Y55.857 E73.40887
G1 X100.607 Y56.120 E73.46571
G1 X100.933 Y56.273 E73.50893
G1 X101.337 Y56.381 E73.55911
G1 X101.757 Y56.418 E73.60970
G0 F9000 X101.914 Y56.942
;TYPE:SKIN
G1 F1200 X105.283 Y60.311 E74.18144
G0 F9000 X105.283 Y60.876
G1 F1200 X101.328 Y56.922 E74.85254
G0 F9000 X100.514 Y56.673
G1 F1200 X105.283 Y61.442 E75.66187
G0 F9000 X105.283 Y62.008
G1 F1200 X98.494 Y55.219 E76.81400
G0 F9000 X98.494 Y55.785
G1 F1200 X105.283 Y62.574 E77.96613
G0 F9000 X105.283 Y63.139
G1 F1200 X98.494 Y56.350 E79.11826
G0 F9000 X98.494 Y56.916
G1 F1200 X105.283 Y63.705 E80.27040
G0 F9000 X105.283 Y64.271
G1 F1200 X98.494 Y57.482 E81.42253
G0 F9000 X98.494 Y58.047
G1 F1200 X105.283 Y64.836 E82.57466
G0 F9000 X105.283 Y65.402
G1 F1200 X98.494 Y58.613 E83.72679
G0 F9000 X98.494 Y59.179
G1 F1200 X105.283 Y65.968 E84.87892
G0 F9000 X105.283 Y66.533
G1 F1200 X98.494 Y59.744 E86.03105
G0 F9000 X99.094 Y55.254
G1 F1200 X98.494 Y54.653 E86.13296
G0 F9000 X98.857 Y54.450
G1 F1200 X98.659 Y53.970 E86.19433
G1 X98.694 Y53.440 E86.25042
G1 X98.760 Y52.940 E86.31851
G1 X98.494 Y52.390 E86.39182
G0 F9000 X98.494 Y51.825
G1 F1200 X99.209 Y52.540 E86.51316
G0 F9000 X99.441 Y52.207
G1 F1200 X98.494 Y51.259 E86.67396
G0 F9000 X98.532 Y50.732
G1 F1200 X99.711 Y51.911 E86.87404
G0 F9000 X100.017 Y51.651
G1 F1200 X98.701 Y50.335 E87.09738
G0 F9000 X98.970 Y50.039
G1 F1200 X100.361 Y51.429 E87.33335
G0 F9000 X100.754 Y51.257
G1 F1200 X99.327 Y49.830 E87.57552
G0 F9000 X99.820 Y49.756
G1 F1200 X101.195 Y51.132 E87.80895
G0 F9000 X101.706 Y51.077
G1 F1200 X100.385 Y49.756 E88.03313
G0 F9000 X100.951 Y49.756
G1 F1200 X102.329 Y51.135 E88.26707
G0 F9000 X103.232 Y51.472
G1 F1200 X101.517 Y49.756 E88.55820
G0 F9000 X102.082 Y49.756
G1 F1200 X105.283 Y52.957 E89.10143
G0 F9000 X105.283 Y53.523
G1 F1200 X104.293 Y52.533 E89.26944
G0 F9000 X104.631 Y53.436
G1 F1200 X105.283 Y54.088 E89.38009
G0 F9000 X105.283 Y54.654
G1 F1200 X104.691 Y54.062 E89.48055
G0 F9000 X104.637 Y54.574
G1 F1200 X105.283 Y55.220 E89.59018
G0 F9000 X105.283 Y55.785
G1 F1200 X104.520 Y55.022 E89.71967
G0 F9000 X104.339 Y55.407
G1 F1200 X105.283 Y56.351 E89.87987
G0 F9000 X105.283 Y56.917
G1 F1200 X104.115 Y55.749 E90.07808
G0 F9000 X103.859 Y56.058
G1 F1200 X105.283 Y57.482 E90.31975
G0 F9000 X105.283 Y58.048
G1 F1200 X103.564 Y56.329 E90.61147
G0 F9000 X103.231 Y56.562
G1 F1200 X105.283 Y58.614 E90.95971
G0 F9000 X105.283 Y59.179
G1 F1200 X102.847 Y56.743 E91.37311
G0 F9000 X102.413 Y56.875
G1 F1200 X105.283 Y59.745 E91.86016
G0 F9000 X105.283 Y52.391
G1 F1200 X102.648 Y49.756 E92.30734
G0 F9000 X103.214 Y49.756
G1 F1200 X105.283 Y51.825 E92.65846
G0 F9000 X105.283 Y51.260
G1 F1200 X103.779 Y49.756 E92.91370
G0 F9000 X104.345 Y49.756
G1 F1200 X105.283 Y50.694 E93.07288
G0 F9000 X105.283 Y50.128
G1 F1200 X104.911 Y49.756 E93.13601
G0 F9000 X104.207 Y55.360
G0 X102.713 Y56.649
G0 X99.688 Y61.504
G1 F1200 X105.283 Y67.099 E94.08551
G0 F9000 X105.283 Y67.665
G1 F1200 X99.764 Y62.146 E95.02212
G0 F9000 X99.764 Y62.711
G1 F1200 X105.283 Y68.230 E95.95872
G0 F9000 X105.283 Y68.796
G1 F1200 X99.764 Y63.277 E96.89533
G0 F9000 X99.764 Y63.843
G1 F1200 X105.283 Y69.362 E97.83193
G0 F9000 X105.283 Y69.927
G1 F1200 X99.764 Y64.408 E98.76854
G0 F9000 X99.764 Y64.974
G1 F1200 X105.283 Y70.493 E99.70515
G0 F9000 X105.283 Y71.059
G1 F1200 X99.764 Y65.540 E100.64175
G0 F9000 X99.764 Y66.105
G1 F1200 X105.283 Y71.624 E101.57836
G0 F9000 X105.283 Y72.190
G1 F1200 X99.764 Y66.671 E102.51496
G0 F9000 X99.764 Y67.237
G1 F1200 X105.283 Y72.756 E103.45157
G0 F9000 X105.283 Y73.322
G1 F1200 X99.764 Y67.803 E104.38817
G0 F9000 X99.764 Y68.368
G1 F1200 X105.283 Y73.887 E105.32478
G0 F9000 X105.283 Y74.453
G1 F1200 X99.764 Y68.934 E106.26138
G0 F9000 X99.764 Y69.500
G1 F1200 X105.283 Y75.019 E107.19799
G0 F9000 X105.352 Y75.088
G1 F1200 X108.301 Y78.037 E107.69845
G0 F9000 X107.736 Y78.037
G1 F1200 X99.764 Y70.065 E109.05134
G0 F9000 X99.764 Y70.631
G1 F1200 X107.170 Y78.037 E110.30818
G0 F9000 X106.604 Y78.037
G1 F1200 X99.764 Y71.197 E111.46897
G0 F9000 X99.764 Y71.762
G1 F1200 X106.039 Y78.037 E112.53387
G0 F9000 X105.473 Y78.037
G1 F1200 X99.764 Y72.328 E113.50272
G0 F9000 X99.764 Y72.894
G1 F1200 X104.907 Y78.037 E114.37552
G0 F9000 X104.342 Y78.037
G1 F1200 X99.764 Y73.459 E115.15243
G0 F9000 X99.764 Y74.025
G1 F1200 X103.776 Y78.037 E115.83329
G0 F9000 X103.210 Y78.037
G1 F1200 X99.764 Y74.591 E116.41810
G0 F9000 X99.764 Y75.156
G1 F1200 X102.712 Y78.105 E116.91847
G0 F9000 X102.712 Y78.671
G1 F1200 X99.764 Y75.722 E117.41885
G0 F9000 X99.764 Y76.288
G1 F1200 X102.712 Y79.236 E117.91914
G0 F9000 X102.712 Y79.802
G1 F1200 X99.764 Y76.854 E118.41943
G0 F9000 X99.764 Y77.419
G1 F1200 X102.712 Y80.368 E118.91981
G0 F9000 X102.712 Y80.934
G1 F1200 X99.764 Y77.985 E119.42019
G0 F9000 X99.764 Y78.551
G1 F1200 X102.712 Y81.499 E119.92048
G0 F9000 X102.712 Y82.065
G1 F1200 X99.764 Y79.116 E120.42086
G0 F9000 X99.764 Y79.682
G1 F1200 X102.712 Y82.631 E120.92123
G0 F9000 X102.712 Y83.196
G1 F1200 X99.764 Y80.248 E121.42153
G0 F9000 X99.764 Y80.813
G1 F1200 X102.712 Y83.762 E121.92190
G0 F9000 X101.703 Y83.318
G1 F1200 X99.764 Y81.379 E122.25096
G0 F9000 X99.764 Y81.945
G1 F1200 X101.015 Y83.196 E122.46326
G0 F9000 X100.496 Y83.242
G1 F1200 X99.764 Y82.510 E122.58749
G0 F9000 X99.764 Y83.076
G1 F1200 X100.068 Y83.380 E122.63908
G0 F9000 X102.005 Y83.607
G0 X103.010 Y84.991
G0 X102.670 Y86.637
G0 X101.203 Y87.511
G0 X100.296 Y87.568
G1 F1200 X102.712 Y89.984 E123.04909
G0 F9000 X102.712 Y89.419
G1 F1200 X100.950 Y87.657 E123.34811
G0 F9000 X101.460 Y87.601
G1 F1200 X102.712 Y88.853 E123.56058
G0 F9000 X102.712 Y88.287
G1 F1200 X101.881 Y87.456 E123.70161
G0 F9000 X102.241 Y87.251
G1 F1200 X102.712 Y87.439 E123.78148
G1 X102.547 Y86.991 E123.83877
G0 F9000 X101.203 Y87.511
G0 X99.764 Y87.602
G1 F1200 X102.712 Y90.550 E124.33906
G0 F9000 X102.712 Y91.116
G1 F1200 X99.764 Y88.167 E124.83944
G0 F9000 X99.764 Y88.733
G1 F1200 X102.196 Y91.165 E125.25216
G0 F9000 X101.631 Y91.165
G1 F1200 X99.764 Y89.299 E125.56892
G0 F9000 X99.764 Y89.864
G1 F1200 X101.065 Y91.165 E125.78971
G0 F9000 X100.499 Y91.165
G1 F1200 X99.764 Y90.430 E125.91444
G0 F9000 X99.764 Y90.996
G1 F1200 X99.933 Y91.165 E125.94312
G0 F9000 X102.942 Y86.742
G0 X102.913 Y78.237
G0 X108.867 Y78.037
G1 F1200 X105.918 Y75.088 E126.44358
G0 F9000 X106.483 Y75.088
G1 F1200 X109.433 Y78.037 E126.94413
G0 F9000 X109.998 Y78.037
G1 F1200 X107.049 Y75.088 E127.44459
G0 F9000 X107.615 Y75.088
G1 F1200 X110.564 Y78.037 E127.94505
G0 F9000 X111.130 Y78.037
G1 F1200 X108.180 Y75.088 E128.44560
G0 F9000 X108.746 Y75.088
G1 F1200 X111.696 Y78.037 E128.94615
G0 F9000 X112.261 Y78.037
G1 F1200 X109.312 Y75.088 E129.44661
G0 F9000 X109.878 Y75.088
G1 F1200 X112.827 Y78.037 E129.94707
G0 F9000 X113.393 Y78.037
G1 F1200 X110.443 Y75.088 E130.44762
G0 F9000 X111.009 Y75.088
G1 F1200 X113.958 Y78.037 E130.94808
G0 F9000 X114.524 Y78.037
G1 F1200 X111.575 Y75.088 E131.44854
G0 F9000 X112.140 Y75.088
G1 F1200 X115.090 Y78.037 E131.94909
G0 F9000 X115.655 Y78.037
G1 F1200 X112.706 Y75.088 E132.44955
G0 F9000 X113.272 Y75.088
G1 F1200 X116.221 Y78.037 E132.95001
G0 F9000 X116.787 Y78.037
G1 F1200 X113.837 Y75.088 E133.45056
G0 F9000 X114.403 Y75.088
G1 F1200 X117.352 Y78.037 E133.95102
G0 F9000 X117.918 Y78.037
G1 F1200 X114.969 Y75.088 E134.45148
G0 F9000 X115.534 Y75.088
G1 F1200 X118.484 Y78.037 E134.95203
G0 F9000 X119.049 Y78.037
G1 F1200 X116.100 Y75.088 E135.45249
G0 F9000 X116.666 Y75.088
G1 F1200 X119.615 Y78.037 E135.95295
G0 F9000 X120.181 Y78.037
G1 F1200 X117.231 Y75.088 E136.45350
G0 F9000 X117.797 Y75.088
G1 F1200 X120.746 Y78.037 E136.95396
G0 F9000 X121.312 Y78.037
G1 F1200 X118.363 Y75.088 E137.45442
G0 F9000 X118.928 Y75.088
G1 F1200 X121.878 Y78.037 E137.95497
G0 F9000 X122.444 Y78.037
G1 F1200 X119.494 Y75.088 E138.45552
G0 F9000 X120.060 Y75.088
G1 F1200 X123.009 Y78.037 E138.95598
G0 F9000 X123.575 Y78.037
G1 F1200 X120.626 Y75.088 E139.45644
G0 F9000 X121.191 Y75.088
G1 F1200 X124.141 Y78.037 E139.95699
G0 F9000 X124.706 Y78.037
G1 F1200 X121.757 Y75.088 E140.45745
G0 F9000 X122.323 Y75.088
G1 F1200 X125.272 Y78.037 E140.95791
G0 F9000 X125.838 Y78.037
G1 F1200 X122.888 Y75.088 E141.45846
G0 F9000 X123.454 Y75.088
