;FLAVOR:UltiGCode
;TIME:10548
;MATERIAL:14434
;MATERIAL2:0
;NOZZLE_DIAMETER:0.400000
;NOZZLE_DIAMETER2:0.400000

;Layer count: 118
;LAYER:0
M107
G0 F9000 X78.402 Y79.356 Z0.300
;TYPE:SKIRT
G1 F1200 X118.151 Y79.356 E4.76988
G1 X118.151 Y32.356 E10.40988
G1 X143.551 Y32.356 E13.45788
G1 X143.551 Y85.669 E19.85544
G1 X143.492 Y86.509 E19.95649
G1 X143.466 Y86.765 E19.98737
G1 X143.237 Y87.827 E20.11774
G1 X142.902 Y88.741 E20.23455
G1 X142.805 Y88.988 E20.26639
G1 X142.277 Y89.957 E20.39882
G1 X141.714 Y90.718 E20.51241
G1 X141.554 Y90.932 E20.54447
G1 X140.754 Y91.731 E20.68015
G1 X140.004 Y92.299 E20.79305
G1 X139.790 Y92.460 E20.82519
G1 X138.795 Y93.003 E20.96121
G1 X137.923 Y93.334 E21.07314
G1 X137.691 Y93.425 E21.10304
G1 X136.558 Y93.672 E21.24219
G1 X135.508 Y93.753 E21.36857
G1 X134.133 Y93.756 E21.53357
G1 X78.402 Y93.756 E28.22129
G1 X78.402 Y79.356 E29.94929
G0 F9000 X78.279 Y111.787
G1 F1200 X135.338 Y111.787 E36.79637
G1 X136.179 Y111.845 E36.89753
G1 X136.441 Y111.871 E36.92912
G1 X137.501 Y112.102 E37.05931
G1 X138.412 Y112.435 E37.17570
G1 X138.662 Y112.533 E37.20792
G1 X139.630 Y113.061 E37.34024
G1 X140.390 Y113.623 E37.45367
G1 X140.605 Y113.784 E37.48590
G1 X141.404 Y114.584 E37.62158
G1 X141.972 Y115.333 E37.73438
G1 X142.132 Y115.547 E37.76645
G1 X142.674 Y116.540 E37.90220
G1 X142.993 Y117.380 E38.01002
G1 X143.099 Y117.649 E38.04472
G1 X143.344 Y118.782 E38.18382
G1 X143.425 Y119.833 E38.31032
G1 X143.428 Y173.187 E44.71280
G1 X118.028 Y173.187 E47.76080
G1 X118.028 Y126.187 E53.40080
G1 X78.279 Y126.187 E58.17068
G1 X78.279 Y111.787 E59.89868
G10
G0 F9000 X82.202 Y89.956
;TYPE:WALL-INNER
G11
G1 F1200 X82.202 Y83.156 E60.71468
G1 X121.951 Y83.156 E65.48456
G1 X121.951 Y36.156 E71.12456
G1 X139.751 Y36.156 E73.26056
G1 X139.751 Y85.528 E79.18520
G1 X139.705 Y86.182 E79.26387
G1 X139.579 Y86.765 E79.33545
G1 X139.354 Y87.379 E79.41392
G1 X139.065 Y87.910 E79.48646
G1 X138.675 Y88.437 E79.56514
G1 X138.252 Y88.860 E79.63692
G1 X137.731 Y89.255 E79.71538
G1 X137.204 Y89.543 E79.78745
G1 X136.583 Y89.778 E79.86712
G1 X136.007 Y89.903 E79.93785
G1 X135.360 Y89.953 E80.01572
G1 X134.128 Y89.956 E80.16356
G1 X82.202 Y89.956 E86.39468
G0 F9000 X81.802 Y90.356
;TYPE:WALL-OUTER
G1 F1200 X81.802 Y82.756 E87.30668
G1 X121.551 Y82.756 E92.07656
G1 X121.551 Y35.756 E97.71656
G1 X140.151 Y35.756 E99.94856
G1 X140.151 Y85.542 E105.92288
G1 X140.103 Y86.223 E106.00481
G1 X140.102 Y86.237 E106.00649
G1 X139.965 Y86.873 E106.08456
G1 X139.722 Y87.536 E106.16930
G1 X139.403 Y88.126 E106.24978
G1 X138.988 Y88.686 E106.33342
G1 X138.976 Y88.702 E106.33582
G1 X138.518 Y89.160 E106.41355
G1 X137.949 Y89.591 E106.49921
G1 X137.368 Y89.908 E106.57863
G1 X136.716 Y90.155 E106.66230
G1 X136.065 Y90.300 E106.74233
G1 X135.379 Y90.353 E106.82489
G1 X81.802 Y90.356 E113.25413
G0 F9000 X82.743 Y89.814
;TYPE:SKIN
G1 F1200 X82.341 Y89.412 E113.32236
G0 F9000 X82.341 Y88.847
G1 F1200 X83.309 Y89.814 E113.48655
G0 F9000 X83.874 Y89.814
G1 F1200 X82.341 Y88.281 E113.74671
G0 F9000 X82.341 Y87.715
G1 F1200 X84.440 Y89.814 E114.10292
G0 F9000 X85.006 Y89.814
G1 F1200 X82.341 Y87.150 E114.55510
G0 F9000 X82.341 Y86.584
G1 F1200 X85.571 Y89.814 E115.10325
G0 F9000 X86.137 Y89.814
G1 F1200 X82.341 Y86.018 E115.74745
G0 F9000 X82.341 Y85.453
G1 F1200 X86.703 Y89.814 E116.48762
G0 F9000 X87.268 Y89.814
G1 F1200 X82.341 Y84.887 E117.32376
G0 F9000 X82.341 Y84.321
G1 F1200 X87.834 Y89.814 E118.25595
G0 F9000 X88.400 Y89.814
G1 F1200 X82.341 Y83.756 E119.28412
G0 F9000 X82.447 Y83.295
G1 F1200 X88.966 Y89.814 E120.39043
G0 F9000 X89.531 Y89.814
G1 F1200 X83.012 Y83.295 E121.49674
G0 F9000 X83.578 Y83.295
G1 F1200 X90.097 Y89.814 E122.60305
G0 F9000 X90.663 Y89.814
G1 F1200 X84.144 Y83.295 E123.70936
G0 F9000 X84.709 Y83.295
G1 F1200 X91.228 Y89.814 E124.81567
G0 F9000 X91.794 Y89.814
G1 F1200 X85.275 Y83.295 E125.92198
G0 F9000 X85.841 Y83.295
G1 F1200 X92.360 Y89.814 E127.02829
G0 F9000 X92.925 Y89.814
G1 F1200 X86.407 Y83.295 E128.13452
G0 F9000 X86.972 Y83.295
G1 F1200 X93.491 Y89.814 E129.24083
G0 F9000 X94.057 Y89.814
G1 F1200 X87.538 Y83.295 E130.34714
G0 F9000 X88.104 Y83.295
G1 F1200 X94.622 Y89.814 E131.45337
G0 F9000 X95.188 Y89.814
G1 F1200 X88.669 Y83.295 E132.55968
G0 F9000 X89.235 Y83.295
G1 F1200 X95.754 Y89.814 E133.66599
G0 F9000 X96.319 Y89.814
G1 F1200 X89.801 Y83.295 E134.77221
G0 F9000 X90.366 Y83.295
G1 F1200 X96.885 Y89.814 E135.87853
G0 F9000 X97.451 Y89.814
G1 F1200 X90.932 Y83.295 E136.98484
G0 F9000 X91.498 Y83.295
G1 F1200 X98.017 Y89.814 E138.09115
G0 F9000 X98.582 Y89.814
G1 F1200 X92.063 Y83.295 E139.19746
G0 F9000 X92.629 Y83.295
G1 F1200 X99.148 Y89.814 E140.30377
G0 F9000 X99.714 Y89.814
G1 F1200 X93.195 Y83.295 E141.41008
G0 F9000 X93.760 Y83.295
G1 F1200 X100.279 Y89.813 E142.51631
G0 F9000 X100.844 Y89.813
G1 F1200 X94.326 Y83.295 E143.62245
G0 F9000 X94.892 Y83.295
G1 F1200 X101.410 Y89.813 E144.72859
G0 F9000 X101.976 Y89.813
G1 F1200 X95.458 Y83.295 E145.83473
G0 F9000 X96.023 Y83.295
G1 F1200 X102.541 Y89.813 E146.94087
G0 F9000 X103.107 Y89.813
G1 F1200 X96.589 Y83.295 E148.04701
G0 F9000 X97.155 Y83.295
G1 F1200 X103.673 Y89.813 E149.15315
G0 F9000 X104.238 Y89.813
G1 F1200 X97.720 Y83.295 E150.25930
G0 F9000 X98.286 Y83.295
G1 F1200 X104.804 Y89.813 E151.36544
G0 F9000 X105.370 Y89.813
G1 F1200 X98.852 Y83.295 E152.47158
G0 F9000 X99.417 Y83.295
G1 F1200 X105.935 Y89.813 E153.57772
G0 F9000 X106.501 Y89.813
G1 F1200 X99.983 Y83.295 E154.68386
G0 F9000 X100.549 Y83.295
G1 F1200 X107.067 Y89.813 E155.79000
G0 F9000 X107.632 Y89.813
G1 F1200 X101.114 Y83.295 E156.89614
G0 F9000 X101.680 Y83.295
G1 F1200 X108.198 Y89.813 E158.00228
G0 F9000 X108.764 Y89.813
G1 F1200 X102.246 Y83.295 E159.10843
G0 F9000 X102.811 Y83.295
G1 F1200 X109.330 Y89.813 E160.21465
G0 F9000 X109.895 Y89.813
G1 F1200 X103.377 Y83.295 E161.32079
G0 F9000 X103.943 Y83.295
G1 F1200 X110.461 Y89.813 E162.42693
G0 F9000 X111.027 Y89.813
G1 F1200 X104.508 Y83.295 E163.53316
G0 F9000 X105.074 Y83.295
G1 F1200 X111.592 Y89.813 E164.63930
G0 F9000 X112.158 Y89.813
G1 F1200 X105.640 Y83.295 E165.74544
G0 F9000 X106.206 Y83.295
G1 F1200 X112.724 Y89.813 E166.85158
G0 F9000 X113.289 Y89.813
G1 F1200 X106.771 Y83.295 E167.95773
G0 F9000 X107.337 Y83.295
G1 F1200 X113.855 Y89.813 E169.06387
G0 F9000 X114.421 Y89.813
G1 F1200 X107.903 Y83.295 E170.17001
G0 F9000 X108.468 Y83.295
G1 F1200 X114.986 Y89.813 E171.27615
G0 F9000 X115.552 Y89.813
G1 F1200 X109.034 Y83.295 E172.38229
G0 F9000 X109.600 Y83.295
G1 F1200 X116.118 Y89.813 E173.48843
G0 F9000 X116.683 Y89.813
G1 F1200 X110.165 Y83.295 E174.59457
G0 F9000 X110.731 Y83.295
G1 F1200 X117.249 Y89.813 E175.70071
G0 F9000 X117.814 Y89.813
G1 F1200 X111.297 Y83.295 E176.80677
G0 F9000 X111.862 Y83.295
G1 F1200 X118.380 Y89.813 E177.91291
G0 F9000 X118.945 Y89.813
G1 F1200 X112.428 Y83.295 E179.01897
G0 F9000 X112.994 Y83.295
G1 F1200 X119.511 Y89.813 E180.12503
G0 F9000 X120.077 Y89.813
G1 F1200 X113.559 Y83.295 E181.23117
G0 F9000 X114.125 Y83.295
G1 F1200 X120.643 Y89.813 E182.33731
G0 F9000 X121.208 Y89.813
G1 F1200 X114.691 Y83.295 E183.44336
G0 F9000 X115.256 Y83.295
G1 F1200 X121.774 Y89.813 E184.54951
G0 F9000 X122.340 Y89.813
G1 F1200 X115.822 Y83.295 E185.65565
G0 F9000 X116.388 Y83.295
G1 F1200 X122.905 Y89.813 E186.76170
G0 F9000 X123.471 Y89.813
G1 F1200 X116.954 Y83.295 E187.86776
G0 F9000 X117.519 Y83.295
G1 F1200 X124.037 Y89.813 E188.97390
G0 F9000 X124.602 Y89.813
G1 F1200 X118.085 Y83.295 E190.07996
G0 F9000 X118.651 Y83.295
G1 F1200 X125.168 Y89.813 E191.18601
G0 F9000 X125.734 Y89.813
G1 F1200 X119.216 Y83.295 E192.29216
G0 F9000 X119.782 Y83.295
G1 F1200 X126.299 Y89.813 E193.39821
G0 F9000 X126.865 Y89.813
G1 F1200 X120.348 Y83.295 E194.50427
G0 F9000 X120.913 Y83.295
G1 F1200 X127.431 Y89.813 E195.61041
G0 F9000 X127.996 Y89.813
G1 F1200 X121.479 Y83.295 E196.71647
G0 F9000 X122.045 Y83.295
G1 F1200 X128.562 Y89.813 E197.82252
G0 F9000 X129.128 Y89.813
G1 F1200 X122.090 Y82.775 E199.01691
G0 F9000 X122.090 Y82.209
G1 F1200 X129.693 Y89.813 E200.30727
G0 F9000 X130.259 Y89.813
G1 F1200 X122.090 Y81.643 E201.69368
G0 F9000 X122.090 Y81.078
G1 F1200 X130.825 Y89.813 E203.17606
G0 F9000 X131.391 Y89.813
G1 F1200 X122.090 Y80.512 E204.75449
G0 F9000 X122.090 Y79.946
G1 F1200 X131.956 Y89.813 E206.42889
G0 F9000 X132.522 Y89.813
G1 F1200 X122.090 Y79.381 E208.19926
G0 F9000 X122.090 Y78.815
G1 F1200 X133.088 Y89.813 E210.06568
G0 F9000 X133.653 Y89.813
G1 F1200 X122.090 Y78.249 E212.02807
G0 F9000 X122.090 Y77.684
G1 F1200 X134.219 Y89.813 E214.08643
G0 F9000 X134.785 Y89.813
G1 F1200 X122.090 Y77.118 E216.24084
G0 F9000 X122.090 Y76.552
G1 F1200 X135.350 Y89.813 E218.49122
G0 F9000 X135.876 Y89.772
G1 F1200 X122.090 Y75.987 E220.83070
G0 F9000 X122.090 Y75.421
G1 F1200 X136.353 Y89.684 E223.25121
G0 F9000 X136.785 Y89.550
G1 F1200 X122.090 Y74.855 E225.74504
G0 F9000 X122.090 Y74.290
G1 F1200 X137.190 Y89.389 E228.30751
G0 F9000 X137.556 Y89.190
G1 F1200 X122.090 Y73.724 E230.93217
G0 F9000 X122.090 Y73.158
G1 F1200 X137.890 Y88.958 E233.61352
G0 F9000 X138.206 Y88.708
G1 F1200 X122.090 Y72.592 E236.34850
G0 F9000 X122.090 Y72.027
G1 F1200 X138.488 Y88.425 E239.13133
G0 F9000 X138.741 Y88.112
G1 F1200 X122.090 Y71.461 E241.95710
G0 F9000 X122.090 Y70.895
G1 F1200 X138.976 Y87.781 E244.82275
G0 F9000 X139.174 Y87.414
G1 F1200 X122.090 Y70.330 E247.72200
G0 F9000 X122.090 Y69.764
G1 F1200 X139.338 Y87.013 E250.64917
G0 F9000 X139.475 Y86.583
G1 F1200 X122.090 Y69.198 E253.59950
G0 F9000 X122.090 Y68.633
G1 F1200 X139.569 Y86.112 E256.56579
G0 F9000 X139.605 Y85.582
G1 F1200 X122.090 Y68.067 E259.53818
G0 F9000 X122.090 Y67.501
G1 F1200 X139.610 Y85.021 E262.51142
G0 F9000 X139.610 Y84.456
G1 F1200 X122.090 Y66.936 E265.48466
G0 F9000 X122.090 Y66.370
G1 F1200 X139.610 Y83.890 E268.45791
G0 F9000 X139.610 Y83.324
G1 F1200 X122.090 Y65.804 E271.43115
G0 F9000 X122.090 Y65.239
G1 F1200 X139.610 Y82.759 E274.40439
G0 F9000 X139.610 Y82.193
G1 F1200 X122.090 Y64.673 E277.37764
G0 F9000 X122.090 Y64.107
G1 F1200 X139.610 Y81.627 E280.35088
G0 F9000 X139.610 Y81.062
G1 F1200 X122.090 Y63.542 E283.32412
G0 F9000 X122.090 Y62.976
G1 F1200 X139.610 Y80.496 E286.29736
G0 F9000 X139.610 Y79.930
G1 F1200 X122.090 Y62.410 E289.27061
G0 F9000 X122.090 Y61.844
G1 F1200 X139.610 Y79.364 E292.24385
G0 F9000 X139.610 Y78.799
G1 F1200 X122.090 Y61.279 E295.21709
G0 F9000 X122.090 Y60.713
G1 F1200 X139.610 Y78.233 E298.19033
G0 F9000 X139.610 Y77.667
G1 F1200 X122.090 Y60.147 E301.16358
G0 F9000 X122.090 Y59.582
G1 F1200 X139.610 Y77.102 E304.13682
G0 F9000 X139.610 Y76.536
G1 F1200 X122.090 Y59.016 E307.11006
G0 F9000 X122.090 Y58.450
G1 F1200 X139.610 Y75.970 E310.08330
G0 F9000 X139.610 Y75.405
G1 F1200 X122.090 Y57.885 E313.05655
G0 F9000 X122.090 Y57.319
G1 F1200 X139.610 Y74.839 E316.02979
G0 F9000 X139.610 Y74.273
G1 F1200 X122.090 Y56.753 E319.00303
G0 F9000 X122.090 Y56.188
G1 F1200 X139.610 Y73.708 E321.97627
G0 F9000 X139.610 Y73.142
G1 F1200 X122.090 Y55.622 E324.94952
G0 F9000 X122.090 Y55.056
G1 F1200 X139.610 Y72.576 E327.92276
G0 F9000 X139.610 Y72.011
G1 F1200 X122.090 Y54.491 E330.89600
G0 F9000 X122.090 Y53.925
G1 F1200 X139.610 Y71.445 E333.86924
G0 F9000 X139.610 Y70.879
G1 F1200 X122.090 Y53.359 E336.84249
G0 F9000 X122.090 Y52.794
G1 F1200 X139.610 Y70.313 E339.81564
G0 F9000 X139.610 Y69.748
G1 F1200 X122.090 Y52.228 E342.78889
G0 F9000 X122.090 Y51.662
G1 F1200 X139.610 Y69.182 E345.76213
G0 F9000 X139.610 Y68.616
G1 F1200 X122.090 Y51.096 E348.73537
G0 F9000 X122.090 Y50.531
G1 F1200 X139.610 Y68.051 E351.70862
G0 F9000 X139.610 Y67.485
G1 F1200 X122.090 Y49.965 E354.68186
G0 F9000 X122.090 Y49.399
G1 F1200 X139.610 Y66.919 E357.65510
G0 F9000 X139.610 Y66.354
G1 F1200 X122.090 Y48.834 E360.62834
G0 F9000 X122.090 Y48.268
G1 F1200 X139.610 Y65.788 E363.60159
G0 F9000 X139.610 Y65.222
G1 F1200 X122.090 Y47.702 E366.57483
G0 F9000 X122.090 Y47.137
G1 F1200 X139.610 Y64.657 E369.54807
G0 F9000 X139.610 Y64.091
G1 F1200 X122.090 Y46.571 E372.52131
G0 F9000 X122.090 Y46.005
G1 F1200 X139.610 Y63.525 E375.49456
G0 F9000 X139.610 Y62.960
G1 F1200 X122.090 Y45.440 E378.46780
G0 F9000 X122.090 Y44.874
G1 F1200 X139.610 Y62.394 E381.44104
G0 F9000 X139.610 Y61.828
G1 F1200 X122.090 Y44.308 E384.41428
G0 F9000 X122.090 Y43.743
G1 F1200 X139.610 Y61.263 E387.38753
G0 F9000 X139.610 Y60.697
G1 F1200 X122.090 Y43.177 E390.36077
G0 F9000 X122.090 Y42.611
G1 F1200 X139.610 Y60.131 E393.33401
G0 F9000 X139.610 Y59.565
G1 F1200 X122.090 Y42.045 E396.30725
G0 F9000 X122.090 Y41.480
G1 F1200 X139.610 Y59.000 E399.28050
G0 F9000 X139.610 Y58.434
G1 F1200 X122.090 Y40.914 E402.25374
G0 F9000 X122.090 Y40.348
G1 F1200 X139.610 Y57.868 E405.22698
G0 F9000 X139.610 Y57.303
G1 F1200 X122.090 Y39.783 E408.20022
G0 F9000 X122.090 Y39.217
G1 F1200 X139.610 Y56.737 E411.17347
G0 F9000 X139.610 Y56.171
G1 F1200 X122.090 Y38.651 E414.14671
G0 F9000 X122.090 Y38.086
G1 F1200 X139.610 Y55.606 E417.11995
G0 F9000 X139.610 Y55.040
G1 F1200 X122.090 Y37.520 E420.09319
G0 F9000 X122.090 Y36.954
G1 F1200 X139.610 Y54.474 E423.06644
G0 F9000 X139.610 Y53.909
G1 F1200 X122.090 Y36.389 E426.03968
G0 F9000 X122.563 Y36.296
G1 F1200 X139.610 Y53.343 E428.93265
G0 F9000 X139.610 Y52.777
G1 F1200 X123.129 Y36.296 E431.72957
G0 F9000 X123.694 Y36.296
G1 F1200 X139.610 Y52.212 E434.43061
G0 F9000 X139.610 Y51.646
G1 F1200 X124.260 Y36.296 E437.03559
G0 F9000 X124.826 Y36.296
G1 F1200 X139.610 Y51.080 E439.54451
G0 F9000 X139.610 Y50.515
G1 F1200 X125.391 Y36.296 E441.95756
G0 F9000 X125.957 Y36.296
G1 F1200 X139.610 Y49.949 E444.27455
G0 F9000 X139.610 Y49.383
G1 F1200 X126.523 Y36.296 E446.49549
G0 F9000 X127.089 Y36.296
G1 F1200 X139.610 Y48.817 E448.62037
G0 F9000 X139.610 Y48.252
G1 F1200 X127.654 Y36.296 E450.64937
G0 F9000 X128.220 Y36.296
G1 F1200 X139.610 Y47.686 E452.58232
G0 F9000 X139.610 Y47.120
G1 F1200 X128.786 Y36.296 E454.41921
G0 F9000 X129.351 Y36.296
G1 F1200 X139.610 Y46.555 E456.16022
G0 F9000 X139.610 Y45.989
G1 F1200 X129.917 Y36.296 E457.80518
G0 F9000 X130.483 Y36.296
G1 F1200 X139.610 Y45.423 E459.35408
G0 F9000 X139.610 Y44.858
G1 F1200 X131.048 Y36.296 E460.80710
G0 F9000 X131.614 Y36.296
G1 F1200 X139.610 Y44.292 E462.16407
G0 F9000 X139.610 Y43.726
G1 F1200 X132.180 Y36.296 E463.42498
G0 F9000 X132.745 Y36.296
G1 F1200 X139.610 Y43.161 E464.59001
G0 F9000 X139.610 Y42.595
G1 F1200 X133.311 Y36.296 E465.65899
G0 F9000 X133.877 Y36.296
G1 F1200 X139.610 Y42.029 E466.63191
G0 F9000 X139.610 Y41.464
G1 F1200 X134.442 Y36.296 E467.50895
G0 F9000 X135.008 Y36.296
G1 F1200 X139.610 Y40.898 E468.28993
G0 F9000 X139.610 Y40.332
G1 F1200 X135.574 Y36.296 E468.97486
G0 F9000 X136.139 Y36.296
G1 F1200 X139.610 Y39.766 E469.56383
G0 F9000 X139.610 Y39.201
G1 F1200 X136.705 Y36.296 E470.05682
G0 F9000 X137.271 Y36.296
G1 F1200 X139.610 Y38.635 E470.45376
G0 F9000 X139.610 Y38.069
G1 F1200 X137.837 Y36.296 E470.75465
G0 F9000 X138.402 Y36.296
G1 F1200 X139.610 Y37.504 E470.95966
G0 F9000 X139.610 Y36.938
G1 F1200 X138.968 Y36.296 E471.06861
G0 F9000 X139.534 Y36.296
G1 F1200 X139.610 Y36.372 E471.08151
G10
G0 F9000 X135.202 Y115.587
;TYPE:WALL-INNER
G11
G1 F1200 X135.854 Y115.632 E471.15993
G1 X136.434 Y115.758 E471.23115
G1 X137.055 Y115.985 E471.31050
G1 X137.577 Y116.270 E471.38187
G1 X138.114 Y116.667 E471.46200
G1 X138.533 Y117.086 E471.53311
G1 X138.927 Y117.606 E471.61140
G1 X139.215 Y118.134 E471.68357
G1 X139.451 Y118.755 E471.76329
G1 X139.575 Y119.331 E471.83399
G1 X139.625 Y119.977 E471.91175
G1 X139.628 Y169.387 E477.84095
G1 X121.828 Y169.387 E479.97695
G1 X121.828 Y122.387 E485.61695
G1 X82.079 Y122.387 E490.38683
G1 X82.079 Y115.587 E491.20283
G1 X135.202 Y115.587 E497.57759
G0 F9000 X135.214 Y115.187
;TYPE:WALL-OUTER
G1 F1200 X135.896 Y115.234 E497.65962
G1 X135.913 Y115.235 E497.66166
G1 X136.546 Y115.373 E497.73941
G1 X137.208 Y115.615 E497.82399
G1 X137.798 Y115.935 E497.90453
G1 X138.359 Y116.350 E497.98827
G1 X138.375 Y116.362 E497.99067
