;FLAVOR:UltiGCode
;TIME:4906
;MATERIAL:5936
;MATERIAL2:0
;NOZZLE_DIAMETER:0.400000
;NOZZLE_DIAMETER2:0.400000

;Layer count: 98
;LAYER:0
M107
G0 F9000 X108.637 Y121.238 Z0.300
;TYPE:SKIRT
G1 F1200 X109.625 Y120.617 E0.14003
G1 X110.724 Y120.232 E0.27977
G1 X111.707 Y120.119 E0.39851
G1 X123.073 Y120.119 E1.76243
G1 X124.056 Y120.232 E1.88117
G1 X125.155 Y120.617 E2.02090
G1 X126.143 Y121.238 E2.16094
G1 X126.971 Y122.066 E2.30146
G1 X127.592 Y123.054 E2.44149
G1 X127.977 Y124.153 E2.58123
G1 X128.090 Y125.136 E2.69997
G1 X128.090 Y128.323 E3.08241
G1 X129.124 Y128.661 E3.21295
G1 X130.979 Y129.390 E3.45212
G1 X132.790 Y130.222 E3.69128
G1 X134.549 Y131.157 E3.93032
G1 X136.252 Y132.192 E4.16946
G1 X137.893 Y133.323 E4.40862
G1 X139.465 Y134.546 E4.64763
G1 X140.967 Y135.857 E4.88687
G1 X142.389 Y137.253 E5.12600
G1 X143.729 Y138.726 E5.36495
G1 X144.983 Y140.277 E5.60430
G1 X146.145 Y141.895 E5.84334
G1 X147.212 Y143.577 E6.08237
G1 X148.182 Y145.319 E6.32163
G1 X149.048 Y147.112 E6.56057
G1 X149.813 Y148.953 E6.79980
G1 X150.469 Y150.836 E7.03908
G1 X150.835 Y152.119 E7.19919
G1 X159.513 Y152.119 E8.24055
G1 X159.513 Y163.519 E9.60855
G1 X140.887 Y163.519 E11.84367
G1 X140.574 Y159.042 E12.38222
G1 X140.379 Y157.557 E12.56195
G1 X140.091 Y156.092 E12.74111
G1 X139.713 Y154.659 E12.91895
G1 X139.241 Y153.244 E13.09795
G1 X138.679 Y151.861 E13.27709
G1 X138.038 Y150.535 E13.45383
G1 X137.264 Y149.161 E13.64307
G1 X136.498 Y147.994 E13.81058
G1 X135.552 Y146.727 E14.00033
G1 X134.642 Y145.665 E14.16815
G1 X133.599 Y144.588 E14.34806
G1 X132.503 Y143.591 E14.52586
G1 X131.338 Y142.661 E14.70474
G1 X130.116 Y141.807 E14.88364
G1 X128.860 Y141.043 E15.06005
G1 X127.532 Y140.348 E15.23992
G1 X126.160 Y139.738 E15.42010
G1 X124.776 Y139.227 E15.59714
G1 X123.350 Y138.799 E15.77580
G1 X121.825 Y138.448 E15.96358
G1 X120.356 Y138.211 E16.14214
G1 X118.952 Y138.077 E16.31139
G1 X117.380 Y138.021 E16.50015
G1 X115.917 Y138.068 E16.67580
G1 X114.503 Y138.202 E16.84624
G1 X113.029 Y138.436 E17.02533
G1 X111.490 Y138.781 E17.21460
G1 X110.159 Y139.175 E17.38117
G1 X108.748 Y139.685 E17.56121
G1 X107.387 Y140.281 E17.73950
G1 X106.062 Y140.964 E17.91838
G1 X104.785 Y141.728 E18.09695
G1 X103.564 Y142.571 E18.27500
G1 X102.392 Y143.494 E18.45402
G1 X101.283 Y144.489 E18.63281
G1 X100.245 Y145.549 E18.81084
G1 X99.268 Y146.681 E18.99028
G1 X98.333 Y147.916 E19.17616
G1 X97.511 Y149.169 E19.35599
G1 X96.776 Y150.463 E19.53457
G1 X96.166 Y151.717 E19.70191
G1 X95.590 Y153.112 E19.88302
G1 X95.114 Y154.508 E20.06001
G1 X94.721 Y155.955 E20.23994
G1 X94.426 Y157.409 E20.41797
G1 X94.222 Y158.888 E20.59714
G1 X94.106 Y160.469 E20.78737
G1 X93.891 Y163.519 E21.15427
G1 X75.267 Y163.519 E23.38915
G1 X75.267 Y152.119 E24.75715
G1 X83.946 Y152.119 E25.79863
G1 X84.283 Y150.930 E25.94693
G1 X84.932 Y149.048 E26.18582
G1 X85.692 Y147.205 E26.42505
G1 X86.553 Y145.409 E26.66406
G1 X87.518 Y143.664 E26.90334
G1 X88.538 Y142.047 E27.13276
G1 X88.637 Y141.892 E27.15483
G1 X89.740 Y140.354 E27.38195
G1 X90.988 Y138.804 E27.62075
G1 X92.323 Y137.326 E27.85975
G1 X93.741 Y135.928 E28.09870
G1 X95.238 Y134.611 E28.33796
G1 X96.808 Y133.384 E28.57707
G1 X98.446 Y132.248 E28.81628
G1 X100.146 Y131.210 E29.05530
G1 X101.901 Y130.270 E29.29420
G1 X103.710 Y129.431 E29.53350
G1 X105.564 Y128.698 E29.77273
G1 X106.690 Y128.326 E29.91504
G1 X106.690 Y125.136 E30.29784
G1 X106.803 Y124.153 E30.41657
G1 X107.188 Y123.054 E30.55631
G1 X107.809 Y122.066 E30.69635
G1 X108.637 Y121.238 E30.83686
G10
G0 F9000 X111.019 Y124.229
;TYPE:WALL-INNER
G11
G1 F1200 X111.285 Y124.062 E30.87455
G1 X111.581 Y123.958 E30.91220
G1 X111.923 Y123.919 E30.95351
G1 X122.857 Y123.919 E32.26559
G1 X123.199 Y123.958 E32.30689
G1 X123.495 Y124.062 E32.34454
G1 X123.761 Y124.229 E32.38223
G1 X123.980 Y124.448 E32.41939
G1 X124.147 Y124.714 E32.45708
G1 X124.251 Y125.010 E32.49473
G1 X124.290 Y125.352 E32.53604
G1 X124.290 Y129.227 E33.00104
G1 X124.345 Y129.747 E33.06379
G1 X124.521 Y130.274 E33.13046
G1 X124.803 Y130.753 E33.19716
G1 X125.182 Y131.161 E33.26399
G1 X125.642 Y131.481 E33.33123
G1 X126.202 Y131.704 E33.40356
G1 X127.825 Y132.234 E33.60844
G1 X129.495 Y132.890 E33.82375
G1 X131.097 Y133.627 E34.03536
G1 X132.676 Y134.466 E34.24992
G1 X134.189 Y135.385 E34.46235
G1 X135.641 Y136.385 E34.67392
G1 X137.044 Y137.477 E34.88726
G1 X138.392 Y138.654 E35.10201
G1 X139.638 Y139.877 E35.31152
G1 X140.845 Y141.203 E35.52669
G1 X141.965 Y142.588 E35.74043
G1 X142.991 Y144.018 E35.95163
G1 X143.947 Y145.524 E36.16569
G1 X144.809 Y147.073 E36.37841
G1 X145.580 Y148.667 E36.59089
G1 X146.259 Y150.302 E36.80334
G1 X146.845 Y151.986 E37.01730
G1 X147.334 Y153.697 E37.23084
G1 X147.718 Y155.403 E37.44068
G1 X147.828 Y155.919 E37.50400
G1 X155.713 Y155.919 E38.45020
G1 X155.713 Y159.719 E38.90620
G1 X144.431 Y159.719 E40.26004
G1 X144.356 Y158.656 E40.38791
G1 X144.131 Y156.941 E40.59548
G1 X143.797 Y155.242 E40.80326
G1 X143.355 Y153.569 E41.01091
G1 X142.808 Y151.928 E41.21848
G1 X142.157 Y150.324 E41.42621
G1 X141.404 Y148.767 E41.63375
G1 X140.563 Y147.275 E41.83928
G1 X139.609 Y145.808 E42.04926
G1 X138.584 Y144.436 E42.25478
G1 X138.521 Y144.352 E42.26738
G1 X137.452 Y143.104 E42.46457
G1 X136.249 Y141.861 E42.67214
G1 X134.967 Y140.696 E42.88002
G1 X133.615 Y139.617 E43.08759
G1 X132.197 Y138.625 E43.29526
G1 X130.718 Y137.726 E43.50295
G1 X129.185 Y136.923 E43.71062
G1 X127.603 Y136.221 E43.91831
G1 X125.980 Y135.621 E44.12595
G1 X124.323 Y135.124 E44.33355
G1 X122.552 Y134.716 E44.55163
G1 X120.949 Y134.457 E44.74649
G1 X119.205 Y134.284 E44.95679
G1 X117.391 Y134.219 E45.17461
G1 X115.764 Y134.271 E45.36995
G1 X115.660 Y134.275 E45.38244
G1 X114.024 Y134.430 E45.57964
G1 X112.314 Y134.701 E45.78740
G1 X110.643 Y135.076 E45.99291
G1 X108.965 Y135.566 E46.20268
G1 X107.338 Y136.154 E46.41028
G1 X105.752 Y136.848 E46.61802
G1 X104.214 Y137.641 E46.82567
G1 X102.729 Y138.530 E47.03336
G1 X101.305 Y139.513 E47.24100
G1 X99.946 Y140.584 E47.44864
G1 X98.657 Y141.740 E47.65641
G1 X97.446 Y142.976 E47.86406
G1 X96.316 Y144.286 E48.07166
G1 X95.282 Y145.652 E48.27725
G1 X95.219 Y145.736 E48.28985
G1 X94.326 Y147.096 E48.48508
G1 X94.269 Y147.182 E48.49746
G1 X93.414 Y148.688 E48.70528
G1 X92.694 Y150.166 E48.90256
G1 X92.034 Y151.764 E49.11003
G1 X91.476 Y153.403 E49.31780
G1 X91.023 Y155.074 E49.52556
G1 X90.678 Y156.770 E49.73325
G1 X90.442 Y158.484 E49.94087
G1 X90.352 Y159.719 E50.08946
G1 X79.067 Y159.719 E51.44366
G1 X79.067 Y155.919 E51.89966
G1 X86.948 Y155.919 E52.84538
G1 X87.439 Y153.726 E53.11505
G1 X87.909 Y152.071 E53.32151
G1 X88.488 Y150.394 E53.53440
G1 X89.163 Y148.755 E53.74711
G1 X89.935 Y147.145 E53.96137
G1 X90.792 Y145.595 E54.17391
G1 X91.744 Y144.086 E54.38802
G1 X92.777 Y142.641 E54.60117
G1 X93.878 Y141.273 E54.81189
G1 X95.070 Y139.954 E55.02523
G1 X96.325 Y138.716 E55.23677
G1 X97.661 Y137.541 E55.45027
G1 X99.070 Y136.439 E55.66493
G1 X100.519 Y135.434 E55.87654
G1 X102.037 Y134.508 E56.08991
G1 X103.605 Y133.668 E56.30337
G1 X105.204 Y132.926 E56.51490
G1 X106.853 Y132.275 E56.72765
G1 X108.578 Y131.705 E56.94565
G1 X109.139 Y131.481 E57.01814
G1 X109.598 Y131.161 E57.08529
G1 X109.977 Y130.753 E57.15211
G1 X110.259 Y130.274 E57.21881
G1 X110.435 Y129.747 E57.28549
G1 X110.490 Y129.227 E57.34823
G1 X110.490 Y125.352 E57.81323
G1 X110.529 Y125.010 E57.85454
G1 X110.633 Y124.714 E57.89219
G1 X110.800 Y124.448 E57.92988
G1 X111.019 Y124.229 E57.96704
G0 F9000 X112.790 Y126.719
G1 F1200 X112.790 Y130.419 E58.41104
G1 X121.990 Y130.419 E59.51504
G1 X121.990 Y126.719 E59.95904
G1 X112.790 Y126.719 E61.06304
G0 F9000 X113.190 Y127.119
;TYPE:WALL-OUTER
G1 F1200 X113.190 Y130.019 E61.41104
G1 X121.590 Y130.019 E62.41904
G1 X121.590 Y127.119 E62.76704
G1 X113.190 Y127.119 E63.77504
G0 F9000 X113.190 Y126.819
G0 X110.390 Y125.349
G0 X110.090 Y125.333
G1 F1200 X110.138 Y124.919 E63.82506
G1 X110.272 Y124.536 E63.87375
G1 X110.484 Y124.198 E63.92163
G1 X110.769 Y123.913 E63.96999
G1 X111.107 Y123.701 E64.01787
G1 X111.490 Y123.567 E64.06656
G1 X111.904 Y123.519 E64.11658
G1 X122.876 Y123.519 E65.43322
G1 X123.290 Y123.567 E65.48323
G1 X123.673 Y123.701 E65.53192
G1 X124.011 Y123.913 E65.57980
G1 X124.296 Y124.198 E65.62816
G1 X124.508 Y124.536 E65.67604
G1 X124.642 Y124.919 E65.72473
G1 X124.690 Y125.333 E65.77475
G1 X124.690 Y129.206 E66.23951
G1 X124.738 Y129.662 E66.29453
G1 X124.887 Y130.107 E66.35084
G1 X125.126 Y130.512 E66.40727
G1 X125.446 Y130.857 E66.46374
G1 X125.833 Y131.126 E66.52030
G1 X126.339 Y131.328 E66.58568
G1 X127.974 Y131.862 E66.79208
G1 X129.641 Y132.517 E67.00700
G1 X131.281 Y133.271 E67.22361
G1 X132.872 Y134.117 E67.43984
G1 X134.408 Y135.050 E67.65550
G1 X135.878 Y136.063 E67.86973
G1 X137.297 Y137.167 E68.08547
G1 X138.660 Y138.357 E68.30260
G1 X139.934 Y139.608 E68.51686
G1 X141.143 Y140.937 E68.73246
G1 X142.281 Y142.344 E68.94961
G1 X143.323 Y143.794 E69.16388
G1 X144.286 Y145.311 E69.37950
G1 X145.166 Y146.892 E69.59663
G1 X145.943 Y148.500 E69.81094
G1 X146.637 Y150.171 E70.02807
G1 X147.228 Y151.869 E70.24381
G1 X147.719 Y153.586 E70.45811
G1 X148.109 Y155.319 E70.67127
G1 X148.151 Y155.519 E70.69580
G1 X156.113 Y155.519 E71.65124
G1 X156.113 Y160.119 E72.20324
G1 X144.058 Y160.119 E73.64984
G1 X143.958 Y158.696 E73.82102
G1 X143.736 Y157.006 E74.02556
G1 X143.407 Y155.332 E74.23028
G1 X142.972 Y153.684 E74.43482
G1 X142.433 Y152.067 E74.63935
G1 X141.791 Y150.487 E74.84401
G1 X141.049 Y148.952 E75.04860
G1 X140.170 Y147.392 E75.26347
G1 X139.281 Y146.037 E75.45794
G1 X138.209 Y144.603 E75.67279
G1 X137.156 Y143.373 E75.86709
G1 X135.970 Y142.148 E76.07170
G1 X134.708 Y141.001 E76.27634
G1 X133.376 Y139.938 E76.48084
G1 X131.978 Y138.960 E76.68558
G1 X130.521 Y138.075 E76.89014
G1 X129.011 Y137.284 E77.09470
G1 X127.452 Y136.592 E77.29938
G1 X125.853 Y136.000 E77.50399
G1 X124.220 Y135.511 E77.70855
G1 X122.475 Y135.109 E77.92343
G1 X120.883 Y134.852 E78.11695
G1 X119.179 Y134.683 E78.32243
G1 X117.390 Y134.619 E78.53725
G1 X115.686 Y134.674 E78.74183
G1 X114.074 Y134.827 E78.93614
G1 X112.389 Y135.094 E79.14087
G1 X110.643 Y135.486 E79.35560
G1 X109.090 Y135.946 E79.54996
G1 X107.487 Y136.526 E79.75453
G1 X105.924 Y137.209 E79.95921
G1 X104.409 Y137.991 E80.16380
G1 X102.946 Y138.867 E80.36843
G1 X101.542 Y139.835 E80.57307
G1 X100.203 Y140.890 E80.77763
G1 X98.934 Y142.029 E80.98226
G1 X97.741 Y143.247 E81.18685
G1 X96.627 Y144.537 E81.39138
G1 X95.546 Y145.966 E81.60640
G1 X94.610 Y147.392 E81.81109
G1 X93.768 Y148.875 E82.01573
G1 X93.059 Y150.330 E82.20996
G1 X92.409 Y151.905 E82.41442
G1 X91.859 Y153.520 E82.61915
G1 X91.412 Y155.166 E82.82382
G1 X91.073 Y156.837 E83.02843
G1 X90.840 Y158.526 E83.23303
G1 X90.724 Y160.119 E83.42469
G1 X78.667 Y160.119 E84.87153
G1 X78.667 Y155.519 E85.42353
G1 X86.627 Y155.519 E86.37873
G1 X87.048 Y153.639 E86.60992
G1 X87.526 Y151.955 E86.81999
G1 X88.112 Y150.256 E87.03565
G1 X88.796 Y148.594 E87.25132
G1 X89.573 Y146.974 E87.46693
G1 X90.443 Y145.400 E87.68274
G1 X91.407 Y143.871 E87.89964
G1 X91.449 Y143.805 E87.90903
G1 X92.452 Y142.408 E88.11540
G1 X93.579 Y141.007 E88.33116
G1 X94.784 Y139.674 E88.54679
G1 X96.055 Y138.420 E88.76105
G1 X97.405 Y137.233 E88.97677
G1 X98.830 Y136.119 E89.19382
G1 X100.297 Y135.101 E89.40809
G1 X101.840 Y134.159 E89.62503
G1 X103.420 Y133.313 E89.84010
G1 X105.045 Y132.559 E90.05507
G1 X106.718 Y131.898 E90.27093
G1 X108.441 Y131.329 E90.48867
G1 X108.948 Y131.126 E90.55421
G1 X109.334 Y130.857 E90.61067
G1 X109.654 Y130.512 E90.66713
G1 X109.893 Y130.107 E90.72357
G1 X110.042 Y129.662 E90.77988
G1 X110.090 Y129.206 E90.83490
G1 X110.090 Y125.333 E91.29966
G0 F9000 X110.630 Y125.621
;TYPE:SKIN
G1 F1200 X112.649 Y127.640 E91.64230
G0 F9000 X112.649 Y127.074
G1 F1200 X110.661 Y125.086 E91.97967
G0 F9000 X110.819 Y124.678
G1 F1200 X112.718 Y126.577 E92.30194
G0 F9000 X113.284 Y126.577
G1 F1200 X111.075 Y124.368 E92.67682
G0 F9000 X111.431 Y124.159
G1 F1200 X113.849 Y126.577 E93.08717
G0 F9000 X114.415 Y126.577
G1 F1200 X111.900 Y124.062 E93.51398
G0 F9000 X112.461 Y124.058
G1 F1200 X114.981 Y126.577 E93.94155
G0 F9000 X115.546 Y126.577
G1 F1200 X113.027 Y124.058 E94.36904
G0 F9000 X113.593 Y124.058
G1 F1200 X116.112 Y126.577 E94.79653
G0 F9000 X116.678 Y126.577
G1 F1200 X114.158 Y124.058 E95.22410
G0 F9000 X114.724 Y124.058
G1 F1200 X117.243 Y126.577 E95.65159
G0 F9000 X117.809 Y126.577
G1 F1200 X115.290 Y124.058 E96.07908
G0 F9000 X115.855 Y124.058
G1 F1200 X118.375 Y126.577 E96.50666
G0 F9000 X118.941 Y126.577
G1 F1200 X116.421 Y124.058 E96.93423
G0 F9000 X116.987 Y124.058
G1 F1200 X119.506 Y126.577 E97.36172
G0 F9000 X120.072 Y126.577
G1 F1200 X117.552 Y124.058 E97.78929
G0 F9000 X118.118 Y124.058
G1 F1200 X120.638 Y126.577 E98.21686
G0 F9000 X121.203 Y126.577
G1 F1200 X118.684 Y124.058 E98.64435
G0 F9000 X119.250 Y124.058
G1 F1200 X121.769 Y126.577 E99.07184
G0 F9000 X122.130 Y126.938
G1 F1200 X124.150 Y128.958 E99.41465
G0 F9000 X124.150 Y128.392
G1 F1200 X119.815 Y124.058 E100.15024
G0 F9000 X121.931 Y126.778
G0 X121.931 Y130.360
G0 X119.527 Y130.558
G1 F1200 X123.836 Y134.867 E100.88150
G0 F9000 X123.101 Y134.698
G1 F1200 X118.962 Y130.558 E101.58399
G0 F9000 X118.396 Y130.558
G1 F1200 X122.383 Y134.546 E102.26069
G0 F9000 X121.709 Y134.437
G1 F1200 X117.830 Y130.558 E102.91898
G0 F9000 X117.265 Y130.558
G1 F1200 X121.034 Y134.328 E103.55869
G0 F9000 X120.401 Y134.261
G1 F1200 X116.699 Y130.558 E104.18702
G0 F9000 X116.133 Y130.558
G1 F1200 X119.773 Y134.198 E104.80475
G0 F9000 X119.149 Y134.140
G1 F1200 X115.568 Y130.558 E105.41255
G0 F9000 X115.002 Y130.558
G1 F1200 X118.563 Y134.119 E106.01687
G0 F9000 X117.977 Y134.099
G1 F1200 X114.436 Y130.558 E106.61780
G0 F9000 X113.871 Y130.558
G1 F1200 X117.391 Y134.078 E107.21517
G0 F9000 X116.842 Y134.095
G1 F1200 X113.305 Y130.558 E107.81541
G0 F9000 X112.739 Y130.558
G1 F1200 X116.294 Y134.113 E108.41872
G0 F9000 X115.745 Y134.130
G1 F1200 X110.630 Y129.015 E109.28676
G0 F9000 X110.597 Y129.547
G1 F1200 X115.223 Y134.174 E110.07190
G0 F9000 X114.706 Y134.223
G1 F1200 X110.494 Y130.010 E110.78679
G0 F9000 X110.336 Y130.418
G1 F1200 X114.190 Y134.272 E111.44084
G0 F9000 X113.691 Y134.338
G1 F1200 X110.126 Y130.773 E112.04584
G0 F9000 X109.864 Y131.077
G1 F1200 X113.202 Y134.416 E112.61240
G0 F9000 X112.714 Y134.493
G1 F1200 X109.571 Y131.350 E113.14578
G0 F9000 X109.238 Y131.582
G1 F1200 X112.230 Y134.575 E113.65363
G0 F9000 X111.768 Y134.679
G1 F1200 X108.839 Y131.750 E114.15069
G0 F9000 X108.426 Y131.902
G1 F1200 X111.306 Y134.782 E114.63945
G0 F9000 X110.844 Y134.886
G1 F1200 X108.001 Y132.042 E115.12200
G0 F9000 X107.576 Y132.183
G1 F1200 X110.394 Y135.002 E115.60032
G0 F9000 X109.957 Y135.130
G1 F1200 X107.151 Y132.324 E116.07651
G0 F9000 X106.734 Y132.472
G1 F1200 X109.519 Y135.258 E116.54923
G0 F9000 X109.081 Y135.386
G1 F1200 X106.328 Y132.632 E117.01651
G0 F9000 X105.922 Y132.792
G1 F1200 X108.656 Y135.526 E117.48049
G0 F9000 X108.241 Y135.676
G1 F1200 X105.516 Y132.952 E117.94285
G0 F9000 X105.117 Y133.119
G1 F1200 X107.826 Y135.827 E118.40250
G0 F9000 X107.410 Y135.977
G1 F1200 X104.731 Y133.298 E118.85714
G0 F9000 X104.344 Y133.477
G1 F1200 X107.010 Y136.142 E119.30949
G0 F9000 X106.616 Y136.315
G1 F1200 X103.958 Y133.657 E119.76057
G0 F9000 X103.577 Y133.841
G1 F1200 X106.222 Y136.487 E120.20953
G0 F9000 X105.829 Y136.659
G1 F1200 X103.208 Y134.038 E120.65432
G0 F9000 X102.840 Y134.236
G1 F1200 X105.449 Y136.844 E121.09700
G0 F9000 X105.076 Y137.037
G1 F1200 X102.472 Y134.433 E121.53891
G0 F9000 X102.104 Y134.631
G1 F1200 X104.703 Y137.230 E121.97998
G0 F9000 X104.330 Y137.422
G1 F1200 X101.753 Y134.845 E122.41731
G0 F9000 X101.401 Y135.059
G1 F1200 X103.966 Y137.624 E122.85261
G0 F9000 X103.612 Y137.836
G1 F1200 X101.049 Y135.273 E123.28756
G0 F9000 X100.698 Y135.488
G1 F1200 X103.258 Y138.048 E123.72201
G0 F9000 X102.904 Y138.259
G1 F1200 X100.358 Y135.714 E124.15399
G0 F9000 X100.025 Y135.946
G1 F1200 X102.556 Y138.477 E124.58352
G0 F9000 X102.221 Y138.708
