;FLAVOR:UltiGCode
;TIME:4587
;MATERIAL:5189
;MATERIAL2:0
;NOZZLE_DIAMETER:0.400000
;NOZZLE_DIAMETER2:0.400000

;Layer count: 98
;LAYER:0
M107
G0 F9000 X97.382 Y79.266 Z0.300
;TYPE:SKIRT
G1 F1200 X97.950 Y78.694 E0.09673
G1 X98.598 Y78.211 E0.19372
G1 X99.299 Y77.830 E0.28946
G1 X100.043 Y77.552 E0.38477
G1 X100.942 Y77.353 E0.49526
G1 X126.596 Y77.333 E3.57374
G1 X128.508 Y77.333 E3.80318
G1 X129.204 Y77.385 E3.88693
G1 X129.995 Y77.563 E3.98423
G1 X130.725 Y77.842 E4.07801
G1 X131.416 Y78.216 E4.17229
G1 X132.069 Y78.714 E4.27084
G1 X132.618 Y79.263 E4.36401
G1 X133.094 Y79.902 E4.45963
G1 X133.480 Y80.605 E4.55587
G1 X133.758 Y81.357 E4.65207
G1 X133.954 Y82.254 E4.76225
G1 X133.975 Y88.326 E5.49090
G1 X133.933 Y89.168 E5.59206
G1 X133.746 Y89.991 E5.69334
G1 X133.468 Y90.729 E5.78798
G1 X133.094 Y91.410 E5.88121
G1 X132.615 Y92.053 E5.97743
G1 X132.046 Y92.618 E6.07365
G1 X131.409 Y93.096 E6.16922
G1 X130.705 Y93.480 E6.26545
G1 X129.957 Y93.759 E6.36125
G1 X129.072 Y93.953 E6.46997
G1 X127.207 Y93.978 E6.69379
G1 X96.026 Y93.978 E10.43551
G1 X96.026 Y82.889 E11.76619
G1 X96.072 Y82.127 E11.85780
G1 X96.256 Y81.313 E11.95794
G1 X96.538 Y80.575 E12.05275
G1 X96.908 Y79.901 E12.14501
G1 X97.382 Y79.266 E12.24010
G0 F9000 X97.686 Y79.528
G1 F1200 X98.213 Y78.997 E12.32987
G1 X98.814 Y78.549 E12.41983
G1 X99.465 Y78.195 E12.50875
G1 X100.157 Y77.937 E12.59737
G1 X100.986 Y77.753 E12.69927
G1 X126.596 Y77.733 E15.77248
G1 X128.493 Y77.733 E16.00012
G1 X129.145 Y77.781 E16.07857
G1 X129.879 Y77.947 E16.16887
G1 X130.557 Y78.206 E16.25597
G1 X131.198 Y78.553 E16.34343
G1 X131.805 Y79.016 E16.43504
G1 X132.315 Y79.525 E16.52151
G1 X132.757 Y80.118 E16.61026
G1 X133.115 Y80.771 E16.69963
G1 X133.373 Y81.470 E16.78904
G1 X133.554 Y82.298 E16.89074
G1 X133.575 Y88.316 E17.61291
G1 X133.535 Y89.113 E17.70867
G1 X133.362 Y89.875 E17.80243
G1 X133.104 Y90.561 E17.89038
G1 X132.757 Y91.193 E17.97690
G1 X132.312 Y91.790 E18.06626
G1 X131.784 Y92.315 E18.15561
G1 X131.193 Y92.758 E18.24424
G1 X130.539 Y93.115 E18.33365
G1 X129.844 Y93.375 E18.42269
G1 X129.026 Y93.553 E18.52315
G1 X127.205 Y93.578 E18.74169
G1 X96.426 Y93.578 E22.43517
G1 X96.426 Y82.901 E23.71641
G1 X96.470 Y82.184 E23.80261
G1 X96.640 Y81.429 E23.89548
G1 X96.902 Y80.743 E23.98360
G1 X97.245 Y80.118 E24.06915
G1 X97.686 Y79.528 E24.15755
G10
G0 F9000 X100.572 Y82.014
;TYPE:WALL-INNER
G11
G1 F1200 X100.707 Y81.878 E24.18054
G1 X100.870 Y81.756 E24.20497
G1 X101.045 Y81.661 E24.22887
G1 X101.234 Y81.590 E24.25310
G1 X101.404 Y81.553 E24.27397
G1 X128.358 Y81.533 E27.50845
G1 X128.583 Y81.550 E27.53553
G1 X128.779 Y81.594 E27.55964
G1 X128.966 Y81.666 E27.58368
G1 X129.127 Y81.753 E27.60564
G1 X129.302 Y81.886 E27.63202
G1 X129.430 Y82.014 E27.65374
G1 X129.554 Y82.180 E27.67861
G1 X129.646 Y82.348 E27.70159
G1 X129.718 Y82.541 E27.72631
G1 X129.755 Y82.714 E27.74754
G1 X129.775 Y88.232 E28.40970
G1 X129.757 Y88.592 E28.45296
G1 X129.714 Y88.782 E28.47633
G1 X129.644 Y88.967 E28.50007
G1 X129.553 Y89.132 E28.52268
G1 X129.431 Y89.296 E28.54721
G1 X129.294 Y89.433 E28.57046
G1 X129.132 Y89.554 E28.59472
G1 X128.955 Y89.650 E28.61889
G1 X128.767 Y89.720 E28.64296
G1 X128.591 Y89.759 E28.66459
G1 X127.175 Y89.778 E28.83453
G1 X100.226 Y89.778 E32.06841
G1 X100.226 Y88.478 E32.22441
G1 X125.355 Y88.478 E35.23989
G1 X125.464 Y88.612 E35.26062
G1 X125.658 Y88.760 E35.28990
G1 X125.903 Y88.864 E35.32184
G1 X126.169 Y88.898 E35.35402
G1 X126.443 Y88.862 E35.38718
G1 X126.704 Y88.744 E35.42155
G1 X126.903 Y88.582 E35.45234
G1 X127.053 Y88.386 E35.48196
G1 X127.154 Y88.140 E35.51387
G1 X127.188 Y87.878 E35.54557
G1 X127.153 Y87.607 E35.57836
G1 X127.036 Y87.345 E35.61280
G1 X126.873 Y87.144 E35.64385
G1 X126.769 Y87.065 E35.65952
G1 X126.769 Y85.619 E35.83304
G1 X120.512 Y85.619 E36.58388
G1 X120.304 Y85.607 E36.60889
G1 X120.270 Y85.595 E36.61321
G1 X120.192 Y85.537 E36.62488
G1 X120.156 Y85.478 E36.63317
G1 X120.142 Y85.438 E36.63826
G1 X120.133 Y82.633 E36.97486
G1 X106.491 Y82.633 E38.61190
G1 X106.491 Y84.899 E38.88382
G1 X100.226 Y84.899 E39.63562
G1 X100.226 Y83.018 E39.86134
G1 X100.244 Y82.719 E39.89728
G1 X100.287 Y82.529 E39.92066
G1 X100.357 Y82.347 E39.94406
G1 X100.449 Y82.179 E39.96704
G1 X100.572 Y82.014 E39.99174
G0 F9000 X100.265 Y81.756
;TYPE:WALL-OUTER
G1 F1200 X100.448 Y81.572 E40.02288
G1 X100.650 Y81.421 E40.05314
G1 X100.883 Y81.294 E40.08499
G1 X101.123 Y81.205 E40.11570
G1 X101.357 Y81.153 E40.14447
G1 X128.374 Y81.133 E43.38651
G1 X128.640 Y81.153 E43.41852
G1 X128.892 Y81.210 E43.44952
G1 X129.134 Y81.302 E43.48059
G1 X129.348 Y81.418 E43.50980
G1 X129.566 Y81.584 E43.54268
G1 X129.734 Y81.752 E43.57119
G1 X129.891 Y81.963 E43.60275
G1 X130.011 Y82.181 E43.63262
G1 X130.102 Y82.428 E43.66420
G1 X130.155 Y82.669 E43.69381
G1 X130.175 Y88.231 E44.36126
G1 X130.154 Y88.650 E44.41160
G1 X130.098 Y88.895 E44.44176
G1 X130.006 Y89.140 E44.47316
G1 X129.892 Y89.347 E44.50152
G1 X129.737 Y89.555 E44.53265
G1 X129.553 Y89.738 E44.56379
G1 X129.351 Y89.889 E44.59406
G1 X129.118 Y90.017 E44.62596
G1 X128.882 Y90.105 E44.65618
G1 X128.638 Y90.158 E44.68614
G1 X127.180 Y90.178 E44.86112
G1 X99.826 Y90.178 E48.14360
G1 X99.826 Y88.078 E48.39560
G1 X125.590 Y88.078 E51.48728
G1 X125.645 Y88.200 E51.50334
G1 X125.745 Y88.323 E51.52236
G1 X125.860 Y88.411 E51.53974
G1 X126.008 Y88.474 E51.55904
G1 X126.169 Y88.495 E51.57852
G1 X126.332 Y88.473 E51.59826
G1 X126.492 Y88.401 E51.61932
G1 X126.614 Y88.301 E51.63825
G1 X126.703 Y88.185 E51.65579
G1 X126.764 Y88.037 E51.67500
G1 X126.785 Y87.878 E51.69425
G1 X126.764 Y87.716 E51.71385
G1 X126.692 Y87.556 E51.73490
G1 X126.592 Y87.433 E51.75393
G1 X126.477 Y87.345 E51.77130
G1 X126.369 Y87.299 E51.78539
G1 X126.369 Y86.019 E51.93899
G1 X120.509 Y86.019 E52.64219
G1 X120.360 Y86.018 E52.66007
G1 X120.214 Y85.999 E52.67774
G1 X120.092 Y85.956 E52.69326
G1 X119.959 Y85.870 E52.71227
G1 X119.873 Y85.784 E52.72686
G1 X119.794 Y85.653 E52.74522
G1 X119.751 Y85.529 E52.76097
G1 X119.733 Y85.376 E52.77945
G1 X119.733 Y83.033 E53.06061
G1 X106.891 Y83.033 E54.60165
G1 X106.891 Y85.299 E54.87357
G1 X99.826 Y85.299 E55.72137
G1 X99.826 Y83.010 E55.99605
G1 X99.847 Y82.661 E56.03801
G1 X99.903 Y82.416 E56.06817
G1 X99.996 Y82.171 E56.09961
G1 X100.110 Y81.964 E56.12797
G1 X100.265 Y81.756 E56.15910
G0 F9000 X100.596 Y82.211
;TYPE:SKIN
G1 F1200 X103.144 Y84.759 E56.59151
G0 F9000 X103.709 Y84.759
G1 F1200 X100.876 Y81.926 E57.07229
G0 F9000 X101.249 Y81.733
G1 F1200 X104.275 Y84.759 E57.58582
G0 F9000 X104.841 Y84.759
G1 F1200 X101.775 Y81.693 E58.10613
G0 F9000 X102.340 Y81.693
G1 F1200 X105.406 Y84.759 E58.62645
G0 F9000 X105.972 Y84.759
G1 F1200 X102.905 Y81.692 E59.14694
G0 F9000 X103.470 Y81.692
G1 F1200 X106.350 Y84.571 E59.63561
G0 F9000 X106.350 Y84.005
G1 F1200 X104.036 Y81.692 E60.02822
G0 F9000 X104.601 Y81.691
G1 F1200 X106.350 Y83.440 E60.32503
G0 F9000 X106.350 Y82.874
G1 F1200 X105.166 Y81.690 E60.52597
G0 F9000 X105.732 Y81.690
G1 F1200 X106.534 Y82.492 E60.66207
G0 F9000 X107.099 Y82.492
G1 F1200 X106.297 Y81.689 E60.79826
G0 F9000 X106.862 Y81.689
G1 F1200 X107.665 Y82.492 E60.93453
G0 F9000 X108.231 Y82.492
G1 F1200 X107.427 Y81.689 E61.07089
G0 F9000 X107.992 Y81.688
G1 F1200 X108.796 Y82.492 E61.20733
G0 F9000 X109.362 Y82.492
G1 F1200 X108.558 Y81.688 E61.34378
G0 F9000 X109.123 Y81.687
G1 F1200 X109.928 Y82.492 E61.48039
G0 F9000 X110.493 Y82.492
G1 F1200 X109.689 Y81.687 E61.61692
G0 F9000 X110.254 Y81.687
G1 F1200 X111.059 Y82.492 E61.75353
G0 F9000 X111.625 Y82.492
G1 F1200 X110.819 Y81.686 E61.89031
G0 F9000 X111.384 Y81.686
G1 F1200 X112.190 Y82.492 E62.02710
G0 F9000 X112.756 Y82.492
G1 F1200 X111.949 Y81.685 E62.16405
G0 F9000 X112.515 Y81.685
G1 F1200 X113.322 Y82.492 E62.30100
G0 F9000 X113.888 Y82.492
G1 F1200 X113.080 Y81.684 E62.43812
G0 F9000 X113.645 Y81.684
G1 F1200 X114.453 Y82.492 E62.57525
G0 F9000 X115.019 Y82.492
G1 F1200 X114.211 Y81.684 E62.71237
G0 F9000 X114.776 Y81.683
G1 F1200 X115.585 Y82.492 E62.84966
G0 F9000 X116.150 Y82.492
G1 F1200 X115.341 Y81.683 E62.98695
G0 F9000 X115.906 Y81.682
G1 F1200 X116.716 Y82.492 E63.12441
G0 F9000 X117.282 Y82.492
G1 F1200 X116.471 Y81.682 E63.26196
G0 F9000 X117.037 Y81.682
G1 F1200 X117.847 Y82.492 E63.39942
G0 F9000 X118.413 Y82.492
G1 F1200 X117.602 Y81.681 E63.53705
G0 F9000 X118.167 Y81.680
G1 F1200 X118.979 Y82.492 E63.67485
G0 F9000 X119.544 Y82.492
G1 F1200 X118.733 Y81.680 E63.81257
G0 F9000 X119.298 Y81.680
G1 F1200 X120.110 Y82.492 E63.95037
G0 F9000 X120.271 Y82.653
G1 F1200 X123.096 Y85.478 E64.42979
G0 F9000 X122.530 Y85.478
G1 F1200 X120.273 Y83.220 E64.81290
G0 F9000 X120.275 Y83.788
G1 F1200 X121.965 Y85.478 E65.09970
G0 F9000 X121.399 Y85.478
G1 F1200 X120.276 Y84.355 E65.29028
G0 F9000 X120.278 Y84.923
G1 F1200 X120.833 Y85.478 E65.38447
G0 F9000 X123.662 Y85.478
G1 F1200 X119.863 Y81.680 E66.02910
G0 F9000 X126.710 Y85.678
G0 X127.051 Y88.385
G0 X126.169 Y88.896
G0 X119.448 Y88.618
G1 F1200 X120.454 Y89.624 E66.19982
G0 F9000 X121.019 Y89.624
G1 F1200 X120.013 Y88.618 E66.37054
G0 F9000 X120.579 Y88.618
G1 F1200 X121.584 Y89.623 E66.54110
G0 F9000 X122.150 Y89.623
G1 F1200 X121.145 Y88.618 E66.71165
G0 F9000 X121.710 Y88.618
G1 F1200 X122.715 Y89.622 E66.88212
G0 F9000 X123.281 Y89.622
G1 F1200 X122.276 Y88.618 E67.05259
G0 F9000 X122.842 Y88.618
G1 F1200 X123.846 Y89.622 E67.22297
G0 F9000 X124.411 Y89.621
G1 F1200 X123.407 Y88.618 E67.39327
G0 F9000 X123.973 Y88.618
G1 F1200 X124.976 Y89.621 E67.56349
G0 F9000 X125.541 Y89.620
G1 F1200 X124.539 Y88.618 E67.73353
G0 F9000 X125.104 Y88.618
G1 F1200 X126.107 Y89.620 E67.90366
G0 F9000 X126.672 Y89.620
G1 F1200 X126.079 Y89.027 E68.00430
G0 F9000 X126.574 Y88.956
G1 F1200 X127.238 Y89.620 E68.11698
G0 F9000 X127.803 Y89.619
G1 F1200 X126.926 Y88.742 E68.26582
G0 F9000 X127.183 Y88.434
G1 F1200 X128.368 Y89.619 E68.46692
G0 F9000 X128.853 Y89.538
G1 F1200 X127.313 Y87.998 E68.72826
G0 F9000 X127.158 Y87.277
G1 F1200 X129.204 Y89.323 E69.07548
G0 F9000 X129.459 Y89.012
G1 F1200 X126.907 Y86.461 E69.50849
G0 F9000 X126.907 Y85.895
G1 F1200 X129.611 Y88.599 E69.96737
G0 F9000 X129.633 Y88.056
G1 F1200 X123.255 Y81.677 E71.04984
G0 F9000 X122.690 Y81.677
G1 F1200 X126.490 Y85.478 E71.69480
G0 F9000 X125.925 Y85.478
G1 F1200 X122.124 Y81.677 E72.33985
G0 F9000 X121.559 Y81.678
G1 F1200 X125.359 Y85.478 E72.98474
G0 F9000 X124.793 Y85.478
G1 F1200 X120.993 Y81.678 E73.62962
G0 F9000 X120.428 Y81.679
G1 F1200 X124.228 Y85.478 E74.27441
G0 F9000 X124.385 Y81.676
G1 F1200 X129.629 Y86.920 E75.16435
G0 F9000 X129.631 Y87.488
G1 F1200 X123.820 Y81.676 E76.15059
G0 F9000 X124.950 Y81.675
G1 F1200 X129.627 Y86.352 E76.94431
G0 F9000 X129.626 Y85.785
G1 F1200 X125.516 Y81.675 E77.64180
G0 F9000 X126.081 Y81.675
G1 F1200 X129.623 Y85.217 E78.24289
G0 F9000 X129.621 Y84.649
G1 F1200 X126.646 Y81.674 E78.74777
G0 F9000 X127.212 Y81.674
G1 F1200 X129.619 Y84.082 E79.15633
G0 F9000 X129.617 Y83.514
G1 F1200 X127.777 Y81.673 E79.46868
G0 F9000 X128.342 Y81.673
G1 F1200 X129.616 Y82.947 E79.68488
G0 F9000 X126.703 Y88.742
G0 X125.659 Y88.759
G0 X119.889 Y89.625
G1 F1200 X118.882 Y88.618 E79.85578
G0 F9000 X118.316 Y88.618
G1 F1200 X119.323 Y89.625 E80.02667
G0 F9000 X118.758 Y89.625
G1 F1200 X117.750 Y88.618 E80.19765
G0 F9000 X117.185 Y88.618
G1 F1200 X118.192 Y89.625 E80.36854
G0 F9000 X117.627 Y89.626
G1 F1200 X116.619 Y88.618 E80.53961
G0 F9000 X116.053 Y88.618
G1 F1200 X117.062 Y89.627 E80.71084
G0 F9000 X116.497 Y89.627
G1 F1200 X115.488 Y88.618 E80.88207
G0 F9000 X114.922 Y88.618
G1 F1200 X115.932 Y89.627 E81.05339
G0 F9000 X115.366 Y89.627
G1 F1200 X114.356 Y88.618 E81.22471
G0 F9000 X113.791 Y88.618
G1 F1200 X114.801 Y89.628 E81.39611
G0 F9000 X114.235 Y89.628
G1 F1200 X113.225 Y88.618 E81.56751
G0 F9000 X112.659 Y88.618
G1 F1200 X113.670 Y89.629 E81.73908
G0 F9000 X113.105 Y89.629
G1 F1200 X112.094 Y88.618 E81.91066
G0 F9000 X111.528 Y88.618
G1 F1200 X112.540 Y89.630 E82.08240
G0 F9000 X111.974 Y89.630
G1 F1200 X110.962 Y88.618 E82.25414
G0 F9000 X110.397 Y88.618
G1 F1200 X111.409 Y89.630 E82.42588
G0 F9000 X110.843 Y89.630
G1 F1200 X109.831 Y88.618 E82.59763
G0 F9000 X109.265 Y88.618
G1 F1200 X110.278 Y89.631 E82.76954
G0 F9000 X109.713 Y89.632
G1 F1200 X108.699 Y88.618 E82.94162
G0 F9000 X108.134 Y88.618
G1 F1200 X109.148 Y89.632 E83.11370
G0 F9000 X108.583 Y89.632
G1 F1200 X107.568 Y88.618 E83.28587
G0 F9000 X107.002 Y88.618
G1 F1200 X108.017 Y89.632 E83.45803
G0 F9000 X107.452 Y89.633
G1 F1200 X106.437 Y88.618 E83.63028
G0 F9000 X105.871 Y88.618
G1 F1200 X106.886 Y89.633 E83.80254
G0 F9000 X106.321 Y89.634
G1 F1200 X105.305 Y88.618 E83.97496
G0 F9000 X104.740 Y88.618
G1 F1200 X105.756 Y89.634 E84.14738
G0 F9000 X105.191 Y89.634
G1 F1200 X104.174 Y88.618 E84.31988
G0 F9000 X103.608 Y88.618
G1 F1200 X104.625 Y89.634 E84.49239
G0 F9000 X104.060 Y89.635
G1 F1200 X103.043 Y88.618 E84.66498
G0 F9000 X102.477 Y88.618
G1 F1200 X103.495 Y89.636 E84.83774
G0 F9000 X102.929 Y89.636
G1 F1200 X101.911 Y88.618 E85.01050
G0 F9000 X101.346 Y88.618
G1 F1200 X102.365 Y89.637 E85.18343
G0 F9000 X101.799 Y89.637
G1 F1200 X100.780 Y88.618 E85.35636
G0 F9000 X100.365 Y88.768
G1 F1200 X101.234 Y89.637 E85.50383
G0 F9000 X100.668 Y89.637
G1 F1200 X100.365 Y89.334 E85.55526
G0 F9000 X126.703 Y88.742
G0 X127.150 Y87.607
G0 X126.710 Y85.678
G0 X120.074 Y82.692
G0 X106.550 Y82.692
G0 X100.881 Y84.759
G1 F1200 X100.365 Y84.243 E85.64282
G0 F9000 X100.365 Y83.677
G1 F1200 X101.447 Y84.759 E85.82645
G0 F9000 X102.012 Y84.759
G1 F1200 X100.365 Y83.111 E86.10604
G0 F9000 X100.413 Y82.594
G1 F1200 X102.578 Y84.759 E86.47345
;LAYER:1
M106 S5
G0 F9000 X100.226 Y83.041 Z0.400
;TYPE:WALL-INNER
G1 F1500 X100.245 Y82.717 E86.48643
G1 X100.288 Y82.531 E86.49407
G1 X100.363 Y82.336 E86.50242
G1 X100.449 Y82.179 E86.50958
G1 X100.572 Y82.014 E86.51782
G1 X100.707 Y81.878 E86.52548
G1 X100.868 Y81.758 E86.53351
G1 X101.050 Y81.659 E86.54180
G1 X101.235 Y81.591 E86.54968
G1 X101.406 Y81.553 E86.55669
G1 X128.355 Y81.533 E87.63465
G1 X128.584 Y81.550 E87.64384
G1 X128.777 Y81.595 E87.65176
G1 X128.978 Y81.673 E87.66039
G1 X129.129 Y81.754 E87.66724
G1 X129.292 Y81.876 E87.67539
G1 X129.430 Y82.014 E87.68319
G1 X129.552 Y82.177 E87.69134
G1 X129.646 Y82.350 E87.69921
G1 X129.718 Y82.544 E87.70749
G1 X129.755 Y82.715 E87.71449
G1 X129.775 Y88.189 E87.93345
G1 X129.756 Y88.594 E87.94967
G1 X129.711 Y88.789 E87.95767
G1 X129.642 Y88.969 E87.96538
G1 X129.553 Y89.132 E87.97281
G1 X129.431 Y89.296 E87.98099
G1 X129.294 Y89.433 E87.98874
G1 X129.132 Y89.553 E87.99680
G1 X128.954 Y89.650 E88.00491
G1 X128.767 Y89.720 E88.01290
G1 X128.591 Y89.759 E88.02011
G1 X126.700 Y89.778 E88.09575
G1 X100.226 Y89.778 E89.15471
G1 X100.226 Y88.478 E89.20671
G1 X125.353 Y88.478 E90.21179
G1 X125.474 Y88.619 E90.21922
G1 X125.656 Y88.760 E90.22843
G1 X125.903 Y88.864 E90.23915
G1 X126.169 Y88.898 E90.24988
G1 X126.444 Y88.862 E90.26097
G1 X126.717 Y88.736 E90.27300
G1 X126.910 Y88.572 E90.28313
G1 X127.052 Y88.388 E90.29243
G1 X127.154 Y88.140 E90.30315
G1 X127.188 Y87.878 E90.31372
G1 X127.152 Y87.605 E90.32474
G1 X127.029 Y87.331 E90.33675
G1 X126.863 Y87.137 E90.34696
G1 X126.769 Y87.064 E90.35172
G1 X126.769 Y85.619 E90.40952
G1 X120.571 Y85.619 E90.65744
G1 X120.311 Y85.608 E90.66785
G1 X120.226 Y85.569 E90.67159
G1 X120.185 Y85.526 E90.67397
G1 X120.155 Y85.475 E90.67634
G1 X120.142 Y85.440 E90.67783
G1 X120.133 Y82.633 E90.79011
G1 X106.491 Y82.633 E91.33579
G1 X106.491 Y84.899 E91.42643
G1 X100.226 Y84.899 E91.67703
G1 X100.226 Y83.041 E91.75135
G0 F9000 X99.826 Y83.035
;TYPE:WALL-OUTER
G1 F1500 X99.848 Y82.658 E91.76646
G1 X99.904 Y82.413 E91.77651
G1 X99.998 Y82.171 E91.78689
G1 X100.114 Y81.959 E91.79656
G1 X100.265 Y81.756 E91.80668
G1 X100.448 Y81.572 E91.81706
G1 X100.653 Y81.419 E91.82729
G1 X100.881 Y81.295 E91.83767
G1 X101.124 Y81.205 E91.84804
G1 X101.360 Y81.153 E91.85771
G1 X128.373 Y81.133 E92.93823
G1 X128.643 Y81.154 E92.94906
G1 X128.895 Y81.211 E92.95939
G1 X129.141 Y81.306 E92.96994
