;FLAVOR:UltiGCode
;TIME:1548
;MATERIAL:1834
;MATERIAL2:0
;NOZZLE_DIAMETER:0.400000
;NOZZLE_DIAMETER2:0.400000

;Layer count: 98
;LAYER:0
M107
G0 F9000 X97.950 Y105.539 Z0.300
;TYPE:SKIRT
G1 F1200 X98.598 Y105.056 E0.09698
G1 X99.299 Y104.675 E0.19273
G1 X100.043 Y104.397 E0.28804
G1 X100.942 Y104.198 E0.39853
G1 X126.596 Y104.178 E3.47701
G1 X128.508 Y104.178 E3.70645
G1 X129.204 Y104.230 E3.79020
G1 X129.995 Y104.408 E3.88749
G1 X130.725 Y104.687 E3.98127
G1 X131.416 Y105.061 E4.07556
G1 X132.069 Y105.559 E4.17411
G1 X132.618 Y106.108 E4.26728
G1 X133.094 Y106.747 E4.36289
G1 X133.480 Y107.450 E4.45913
G1 X133.758 Y108.202 E4.55534
G1 X133.954 Y109.099 E4.66552
G1 X133.975 Y115.171 E5.39417
G1 X133.933 Y116.013 E5.49533
G1 X133.746 Y116.836 E5.59661
G1 X133.468 Y117.574 E5.69124
G1 X133.094 Y118.255 E5.78448
G1 X132.615 Y118.898 E5.88069
G1 X132.046 Y119.463 E5.97692
G1 X131.409 Y119.941 E6.07248
G1 X130.705 Y120.325 E6.16871
G1 X129.957 Y120.604 E6.26452
G1 X129.072 Y120.798 E6.37324
G1 X127.207 Y120.823 E6.59706
G1 X96.026 Y120.823 E10.33878
G1 X96.026 Y109.734 E11.66946
G1 X96.072 Y108.972 E11.76106
G1 X96.256 Y108.158 E11.86121
G1 X96.538 Y107.420 E11.95601
G1 X96.908 Y106.746 E12.04828
G1 X97.382 Y106.111 E12.14337
G1 X97.950 Y105.539 E12.24010
G0 F9000 X98.213 Y105.842
G1 F1200 X98.814 Y105.394 E12.33005
G1 X99.465 Y105.040 E12.41897
G1 X100.157 Y104.782 E12.50760
G1 X100.986 Y104.598 E12.60950
G1 X126.596 Y104.578 E15.68270
G1 X128.493 Y104.578 E15.91034
G1 X129.145 Y104.626 E15.98879
G1 X129.879 Y104.792 E16.07910
G1 X130.557 Y105.051 E16.16619
G1 X131.198 Y105.398 E16.25366
G1 X131.805 Y105.861 E16.34527
G1 X132.315 Y106.370 E16.43173
G1 X132.757 Y106.963 E16.52049
G1 X133.115 Y107.616 E16.60985
G1 X133.373 Y108.315 E16.69926
G1 X133.554 Y109.143 E16.80097
G1 X133.575 Y115.161 E17.52313
G1 X133.535 Y115.958 E17.61889
G1 X133.362 Y116.720 E17.71266
G1 X133.104 Y117.406 E17.80061
G1 X132.757 Y118.038 E17.88713
G1 X132.312 Y118.635 E17.97648
G1 X131.784 Y119.160 E18.06583
G1 X131.193 Y119.603 E18.15446
G1 X130.539 Y119.960 E18.24387
G1 X129.844 Y120.220 E18.33292
G1 X129.026 Y120.398 E18.43338
G1 X127.205 Y120.423 E18.65192
G1 X96.426 Y120.423 E22.34540
G1 X96.426 Y109.746 E23.62664
G1 X96.470 Y109.029 E23.71284
G1 X96.640 Y108.274 E23.80571
G1 X96.902 Y107.588 E23.89383
G1 X97.245 Y106.963 E23.97938
G1 X97.686 Y106.373 E24.06777
G1 X98.213 Y105.842 E24.15755
G10
G0 F9000 X100.707 Y108.723
;TYPE:WALL-INNER
G11
G1 F1200 X100.870 Y108.601 E24.18198
G1 X101.045 Y108.506 E24.20587
G1 X101.234 Y108.435 E24.23010
G1 X101.404 Y108.398 E24.25098
G1 X128.358 Y108.378 E27.48546
G1 X128.583 Y108.395 E27.51254
G1 X128.779 Y108.439 E27.53664
G1 X128.966 Y108.511 E27.56069
G1 X129.127 Y108.598 E27.58265
G1 X129.302 Y108.731 E27.60902
G1 X129.430 Y108.859 E27.63075
G1 X129.554 Y109.025 E27.65561
G1 X129.646 Y109.193 E27.67860
G1 X129.718 Y109.386 E27.70331
G1 X129.755 Y109.559 E27.72454
G1 X129.775 Y115.077 E28.38671
G1 X129.757 Y115.437 E28.42996
G1 X129.714 Y115.627 E28.45334
G1 X129.644 Y115.812 E28.47707
G1 X129.553 Y115.977 E28.49969
G1 X129.431 Y116.141 E28.52421
G1 X129.294 Y116.278 E28.54746
G1 X129.132 Y116.399 E28.57173
G1 X128.955 Y116.495 E28.59589
G1 X128.767 Y116.565 E28.61996
G1 X128.591 Y116.604 E28.64160
G1 X127.175 Y116.623 E28.81153
G1 X100.226 Y116.623 E32.04541
G1 X100.226 Y115.323 E32.20141
G1 X125.355 Y115.323 E35.21689
G1 X125.464 Y115.457 E35.23762
G1 X125.658 Y115.605 E35.26690
G1 X125.903 Y115.709 E35.29884
G1 X126.169 Y115.743 E35.33102
G1 X126.443 Y115.707 E35.36418
G1 X126.704 Y115.589 E35.39855
G1 X126.903 Y115.427 E35.42935
G1 X127.053 Y115.231 E35.45896
G1 X127.154 Y114.985 E35.49088
G1 X127.188 Y114.723 E35.52258
G1 X127.153 Y114.452 E35.55537
G1 X127.036 Y114.190 E35.58980
G1 X126.873 Y113.989 E35.62086
G1 X126.769 Y113.910 E35.63653
G1 X126.769 Y112.464 E35.81005
G1 X120.512 Y112.464 E36.56089
G1 X120.304 Y112.452 E36.58589
G1 X120.270 Y112.440 E36.59022
G1 X120.192 Y112.382 E36.60188
G1 X120.156 Y112.323 E36.61017
G1 X120.142 Y112.283 E36.61526
G1 X120.133 Y110.878 E36.78386
G1 X106.491 Y110.878 E38.42090
G1 X106.491 Y111.744 E38.52482
G1 X100.226 Y111.744 E39.27662
G1 X100.226 Y109.863 E39.50234
G1 X100.244 Y109.564 E39.53829
G1 X100.287 Y109.374 E39.56167
G1 X100.357 Y109.192 E39.58506
G1 X100.449 Y109.024 E39.60805
G1 X100.572 Y108.859 E39.63275
G1 X100.707 Y108.723 E39.65574
G0 F9000 X100.448 Y108.417
;TYPE:WALL-OUTER
G1 F1200 X100.650 Y108.266 E39.68601
G1 X100.883 Y108.139 E39.71785
G1 X101.123 Y108.050 E39.74857
G1 X101.357 Y107.998 E39.77733
G1 X128.374 Y107.978 E43.01937
G1 X128.640 Y107.998 E43.05138
G1 X128.892 Y108.055 E43.08239
G1 X129.134 Y108.147 E43.11345
G1 X129.348 Y108.263 E43.14266
G1 X129.566 Y108.429 E43.17554
G1 X129.734 Y108.597 E43.20405
G1 X129.891 Y108.808 E43.23561
G1 X130.011 Y109.026 E43.26548
G1 X130.102 Y109.273 E43.29706
G1 X130.155 Y109.514 E43.32667
G1 X130.175 Y115.076 E43.99412
G1 X130.154 Y115.495 E44.04446
G1 X130.098 Y115.740 E44.07462
G1 X130.006 Y115.985 E44.10602
G1 X129.892 Y116.192 E44.13438
G1 X129.737 Y116.400 E44.16551
G1 X129.553 Y116.583 E44.19665
G1 X129.351 Y116.734 E44.22692
G1 X129.118 Y116.862 E44.25882
G1 X128.882 Y116.950 E44.28904
G1 X128.638 Y117.003 E44.31900
G1 X127.180 Y117.023 E44.49398
G1 X99.826 Y117.023 E47.77646
G1 X99.826 Y114.923 E48.02846
G1 X125.590 Y114.923 E51.12014
G1 X125.645 Y115.045 E51.13620
G1 X125.745 Y115.168 E51.15522
G1 X125.860 Y115.256 E51.17260
G1 X126.008 Y115.319 E51.19190
G1 X126.169 Y115.340 E51.21139
G1 X126.332 Y115.318 E51.23112
G1 X126.492 Y115.246 E51.25218
G1 X126.614 Y115.146 E51.27111
G1 X126.703 Y115.030 E51.28865
G1 X126.764 Y114.882 E51.30786
G1 X126.785 Y114.723 E51.32711
G1 X126.764 Y114.561 E51.34671
G1 X126.692 Y114.401 E51.36776
G1 X126.592 Y114.278 E51.38679
G1 X126.477 Y114.190 E51.40416
G1 X126.369 Y114.144 E51.41825
G1 X126.369 Y112.864 E51.57185
G1 X120.509 Y112.864 E52.27505
G1 X120.360 Y112.863 E52.29293
G1 X120.214 Y112.844 E52.31060
G1 X120.092 Y112.801 E52.32612
G1 X119.959 Y112.715 E52.34513
G1 X119.873 Y112.629 E52.35972
G1 X119.794 Y112.498 E52.37808
G1 X119.751 Y112.374 E52.39383
G1 X119.733 Y112.221 E52.41231
G1 X119.733 Y111.278 E52.52547
G1 X106.891 Y111.278 E54.06651
G1 X106.891 Y112.144 E54.17043
G1 X99.826 Y112.144 E55.01823
G1 X99.826 Y109.855 E55.29291
G1 X99.847 Y109.506 E55.33487
G1 X99.903 Y109.261 E55.36503
G1 X99.996 Y109.016 E55.39648
G1 X100.110 Y108.809 E55.42483
G1 X100.265 Y108.601 E55.45596
G1 X100.448 Y108.417 E55.48710
G0 F9000 X100.713 Y108.915
;TYPE:SKIN
G1 F1200 X103.400 Y111.603 E55.94319
G0 F9000 X102.835 Y111.603
G1 F1200 X100.482 Y109.250 E56.34250
G0 F9000 X100.375 Y109.709
G1 F1200 X102.269 Y111.603 E56.66393
G0 F9000 X101.703 Y111.603
G1 F1200 X100.366 Y110.265 E56.89091
G0 F9000 X100.366 Y110.831
G1 F1200 X101.138 Y111.603 E57.02192
G0 F9000 X100.572 Y111.603
G1 F1200 X100.366 Y111.396 E57.05696
G0 F9000 X101.033 Y108.670
G1 F1200 X103.966 Y111.603 E57.55471
G0 F9000 X104.532 Y111.603
G1 F1200 X101.466 Y108.537 E58.07503
G0 F9000 X102.031 Y108.537
G1 F1200 X105.097 Y111.603 E58.59535
G0 F9000 X105.663 Y111.603
G1 F1200 X102.596 Y108.536 E59.11583
G0 F9000 X103.162 Y108.536
G1 F1200 X106.229 Y111.603 E59.63632
G0 F9000 X106.350 Y111.159
G1 F1200 X103.727 Y108.535 E60.08154
G0 F9000 X104.293 Y108.535
G1 F1200 X106.495 Y110.737 E60.45523
G0 F9000 X107.060 Y110.737
G1 F1200 X104.858 Y108.535 E60.82893
G0 F9000 X105.423 Y108.534
G1 F1200 X107.626 Y110.737 E61.20279
G0 F9000 X108.192 Y110.737
G1 F1200 X105.988 Y108.534 E61.57673
G0 F9000 X106.553 Y108.533
G1 F1200 X108.757 Y110.737 E61.95077
G0 F9000 X109.323 Y110.737
G1 F1200 X107.119 Y108.533 E62.32480
G0 F9000 X107.684 Y108.533
G1 F1200 X109.889 Y110.737 E62.69891
G0 F9000 X110.455 Y110.737
G1 F1200 X108.250 Y108.533 E63.07303
G0 F9000 X108.815 Y108.532
G1 F1200 X111.020 Y110.737 E63.44723
G0 F9000 X111.586 Y110.737
G1 F1200 X109.380 Y108.532 E63.82152
G0 F9000 X109.945 Y108.531
G1 F1200 X112.152 Y110.737 E64.19597
G0 F9000 X112.717 Y110.737
G1 F1200 X110.510 Y108.530 E64.57051
G0 F9000 X111.076 Y108.530
G1 F1200 X113.283 Y110.737 E64.94505
G0 F9000 X113.849 Y110.737
G1 F1200 X111.641 Y108.530 E65.31968
G0 F9000 X112.207 Y108.530
G1 F1200 X114.414 Y110.737 E65.69422
G0 F9000 X114.980 Y110.737
G1 F1200 X112.772 Y108.529 E66.06893
G0 F9000 X113.337 Y108.529
G1 F1200 X115.546 Y110.737 E66.44372
G0 F9000 X116.111 Y110.737
G1 F1200 X113.902 Y108.528 E66.81860
G0 F9000 X114.467 Y108.528
G1 F1200 X116.677 Y110.737 E67.19357
G0 F9000 X117.243 Y110.737
G1 F1200 X115.033 Y108.528 E67.56853
G0 F9000 X115.598 Y108.527
G1 F1200 X117.808 Y110.737 E67.94358
G0 F9000 X118.374 Y110.737
G1 F1200 X116.164 Y108.527 E68.31863
G0 F9000 X116.729 Y108.526
G1 F1200 X118.940 Y110.737 E68.69385
G0 F9000 X119.505 Y110.737
G1 F1200 X117.294 Y108.526 E69.06907
G0 F9000 X117.859 Y108.526
G1 F1200 X120.071 Y110.737 E69.44437
G0 F9000 X120.271 Y110.937
G1 F1200 X121.657 Y112.323 E69.67958
G0 F9000 X121.092 Y112.323
G1 F1200 X120.276 Y111.507 E69.81806
G0 F9000 X120.279 Y112.077
G1 F1200 X120.526 Y112.323 E69.85990
G0 F9000 X122.223 Y112.323
G1 F1200 X118.424 Y108.525 E70.50452
G0 F9000 X118.990 Y108.525
G1 F1200 X122.789 Y112.323 E71.14915
G0 F9000 X123.354 Y112.323
G1 F1200 X119.555 Y108.524 E71.79386
G0 F9000 X126.710 Y112.523
G0 X127.051 Y115.230
G0 X126.169 Y115.741
G0 X119.705 Y115.462
G1 F1200 X120.711 Y116.468 E71.96459
G0 F9000 X120.146 Y116.469
G1 F1200 X119.139 Y115.462 E72.13548
G0 F9000 X118.574 Y115.462
G1 F1200 X119.580 Y116.469 E72.30629
G0 F9000 X119.015 Y116.470
G1 F1200 X118.008 Y115.462 E72.47727
G0 F9000 X117.442 Y115.462
G1 F1200 X118.450 Y116.471 E72.64841
G0 F9000 X117.885 Y116.471
G1 F1200 X116.876 Y115.462 E72.81965
G0 F9000 X116.311 Y115.462
G1 F1200 X117.320 Y116.471 E72.99088
G0 F9000 X116.754 Y116.471
G1 F1200 X115.745 Y115.462 E73.16211
G0 F9000 X115.179 Y115.462
G1 F1200 X116.189 Y116.472 E73.33352
G0 F9000 X115.623 Y116.472
G1 F1200 X114.614 Y115.462 E73.50483
G0 F9000 X114.048 Y115.462
G1 F1200 X115.059 Y116.473 E73.67641
G0 F9000 X114.493 Y116.473
G1 F1200 X113.482 Y115.462 E73.84798
G0 F9000 X112.917 Y115.462
G1 F1200 X113.928 Y116.473 E74.01955
G0 F9000 X113.363 Y116.474
G1 F1200 X112.351 Y115.462 E74.19129
G0 F9000 X111.785 Y115.462
G1 F1200 X112.797 Y116.474 E74.36304
G0 F9000 X112.232 Y116.475
G1 F1200 X111.220 Y115.462 E74.53486
G0 F9000 X110.654 Y115.462
G1 F1200 X111.667 Y116.475 E74.70677
G0 F9000 X111.102 Y116.476
G1 F1200 X110.088 Y115.462 E74.87886
G0 F9000 X109.523 Y115.462
G1 F1200 X110.536 Y116.476 E75.05085
G0 F9000 X109.971 Y116.476
G1 F1200 X108.957 Y115.462 E75.22293
G0 F9000 X108.391 Y115.462
G1 F1200 X109.406 Y116.477 E75.39519
G0 F9000 X108.840 Y116.477
G1 F1200 X107.826 Y115.462 E75.56735
G0 F9000 X107.260 Y115.462
G1 F1200 X108.275 Y116.478 E75.73969
G0 F9000 X107.710 Y116.478
G1 F1200 X106.694 Y115.462 E75.91211
G0 F9000 X106.128 Y115.462
G1 F1200 X107.145 Y116.478 E76.08461
G0 F9000 X106.579 Y116.478
G1 F1200 X105.563 Y115.462 E76.25704
G0 F9000 X104.997 Y115.462
G1 F1200 X106.014 Y116.479 E76.42963
G0 F9000 X105.448 Y116.479
G1 F1200 X104.431 Y115.462 E76.60222
G0 F9000 X103.866 Y115.462
G1 F1200 X104.883 Y116.480 E76.77489
G0 F9000 X104.318 Y116.480
G1 F1200 X103.300 Y115.462 E76.94765
G0 F9000 X102.734 Y115.462
G1 F1200 X103.753 Y116.480 E77.12050
G0 F9000 X103.188 Y116.481
G1 F1200 X102.169 Y115.462 E77.29343
G0 F9000 X101.603 Y115.462
G1 F1200 X102.622 Y116.481 E77.46636
G0 F9000 X102.057 Y116.482
G1 F1200 X101.037 Y115.462 E77.63946
G0 F9000 X100.472 Y115.462
G1 F1200 X101.491 Y116.482 E77.81247
G0 F9000 X100.926 Y116.483
G1 F1200 X100.366 Y115.922 E77.90759
G0 F9000 X120.271 Y115.462
G1 F1200 X121.277 Y116.468 E78.07832
G0 F9000 X121.842 Y116.468
G1 F1200 X120.836 Y115.462 E78.24904
G0 F9000 X121.402 Y115.462
G1 F1200 X122.407 Y116.468 E78.41968
G0 F9000 X122.972 Y116.467
G1 F1200 X121.968 Y115.462 E78.59015
G0 F9000 X122.533 Y115.462
G1 F1200 X123.537 Y116.466 E78.76053
G0 F9000 X124.103 Y116.466
G1 F1200 X123.099 Y115.462 E78.93092
G0 F9000 X123.665 Y115.462
G1 F1200 X124.668 Y116.466 E79.10122
G0 F9000 X125.234 Y116.466
G1 F1200 X124.230 Y115.462 E79.27160
G0 F9000 X124.796 Y115.462
G1 F1200 X125.799 Y116.465 E79.44182
G0 F9000 X126.364 Y116.465
G1 F1200 X125.655 Y115.756 E79.56214
G0 F9000 X126.328 Y115.863
G1 F1200 X126.929 Y116.464 E79.66413
G0 F9000 X127.495 Y116.464
G1 F1200 X126.752 Y115.721 E79.79022
G0 F9000 X127.054 Y115.457
G1 F1200 X128.060 Y116.464 E79.96103
G0 F9000 X128.616 Y116.454
G1 F1200 X127.258 Y115.096 E80.19149
G0 F9000 X127.309 Y114.581
G1 F1200 X129.025 Y116.297 E80.48271
G0 F9000 X129.333 Y116.039
G1 F1200 X126.907 Y113.614 E80.89433
G0 F9000 X126.907 Y113.048
G1 F1200 X129.542 Y115.683 E81.34150
G0 F9000 X129.628 Y115.203
G1 F1200 X126.907 Y112.483 E81.80319
G0 F9000 X126.748 Y112.323
G1 F1200 X122.947 Y108.522 E82.44824
G0 F9000 X123.512 Y108.521
G1 F1200 X129.633 Y114.642 E83.48700
G0 F9000 X129.631 Y114.074
G1 F1200 X124.078 Y108.521 E84.42938
G0 F9000 X124.643 Y108.521
G1 F1200 X129.629 Y113.507 E85.27553
G0 F9000 X129.627 Y112.939
G1 F1200 X125.208 Y108.521 E86.02538
G0 F9000 X125.773 Y108.520
G1 F1200 X129.625 Y112.371 E86.67900
G0 F9000 X129.623 Y111.804
G1 F1200 X126.339 Y108.520 E87.23631
G0 F9000 X126.904 Y108.519
G1 F1200 X129.621 Y111.236 E87.69740
G0 F9000 X129.619 Y110.668
G1 F1200 X127.469 Y108.518 E88.06227
G0 F9000 X128.035 Y108.518
G1 F1200 X129.616 Y110.100 E88.33066
G0 F9000 X129.602 Y109.520
G1 F1200 X128.631 Y108.550 E88.49536
G0 F9000 X126.183 Y112.323
G1 F1200 X122.381 Y108.522 E89.14049
G0 F9000 X121.816 Y108.523
G1 F1200 X125.617 Y112.323 E89.78546
G0 F9000 X125.051 Y112.323
G1 F1200 X121.251 Y108.523 E90.43034
G0 F9000 X120.686 Y108.523
G1 F1200 X124.486 Y112.323 E91.07522
G0 F9000 X123.920 Y112.323
G1 F1200 X120.121 Y108.524 E91.71993
;LAYER:1
M106 S5
G0 F9000 X120.133 Y110.878 Z0.400
;TYPE:WALL-INNER
G1 F1500 X106.491 Y110.878 E92.26561
G1 X106.491 Y111.744 E92.30025
G1 X100.226 Y111.744 E92.55085
G1 X100.226 Y109.886 E92.62517
G1 X100.245 Y109.562 E92.63816
G1 X100.288 Y109.376 E92.64579
G1 X100.363 Y109.181 E92.65415
G1 X100.449 Y109.024 E92.66131
G1 X100.572 Y108.859 E92.66954
G1 X100.707 Y108.723 E92.67721
G1 X100.868 Y108.603 E92.68524
G1 X101.050 Y108.504 E92.69353
G1 X101.235 Y108.436 E92.70141
G1 X101.406 Y108.398 E92.70842
G1 X128.355 Y108.378 E93.78638
G1 X128.584 Y108.395 E93.79556
G1 X128.777 Y108.440 E93.80349
G1 X128.978 Y108.518 E93.81211
G1 X129.129 Y108.599 E93.81897
G1 X129.292 Y108.721 E93.82711
G1 X129.430 Y108.859 E93.83492
G1 X129.552 Y109.022 E93.84306
G1 X129.646 Y109.195 E93.85094
G1 X129.718 Y109.389 E93.85922
G1 X129.755 Y109.560 E93.86621
G1 X129.775 Y115.034 E94.08517
G1 X129.756 Y115.439 E94.10139
G1 X129.711 Y115.634 E94.10940
G1 X129.642 Y115.814 E94.11711
G1 X129.553 Y115.977 E94.12454
G1 X129.431 Y116.141 E94.13271
G1 X129.294 Y116.278 E94.14046
G1 X129.132 Y116.398 E94.14853
G1 X128.954 Y116.495 E94.15664
G1 X128.767 Y116.565 E94.16462
G1 X128.591 Y116.604 E94.17183
G1 X126.700 Y116.623 E94.24748
G1 X100.226 Y116.623 E95.30644
G1 X100.226 Y115.323 E95.35844
G1 X125.353 Y115.323 E96.36352
G1 X125.474 Y115.464 E96.37095
G1 X125.656 Y115.605 E96.38016
G1 X125.903 Y115.709 E96.39088
G1 X126.169 Y115.743 E96.40160
G1 X126.444 Y115.707 E96.41270
G1 X126.717 Y115.581 E96.42473
G1 X126.910 Y115.417 E96.43486
G1 X127.052 Y115.233 E96.44415
G1 X127.154 Y114.985 E96.45488
G1 X127.188 Y114.723 E96.46545
G1 X127.152 Y114.450 E96.47646
G1 X127.029 Y114.176 E96.48848
G1 X126.863 Y113.982 E96.49869
G1 X126.769 Y113.909 E96.50345
G1 X126.769 Y112.464 E96.56125
G1 X120.571 Y112.464 E96.80917
G1 X120.311 Y112.453 E96.81958
G1 X120.226 Y112.414 E96.82332
G1 X120.185 Y112.371 E96.82570
G1 X120.155 Y112.320 E96.82806
G1 X120.142 Y112.285 E96.82956
G1 X120.133 Y110.878 E96.88584
G0 F9000 X119.733 Y111.278
;TYPE:WALL-OUTER
G1 F1500 X106.891 Y111.278 E97.39952
G1 X106.891 Y112.144 E97.43416
G1 X99.826 Y112.144 E97.71676
G1 X99.826 Y109.880 E97.80732
