;FLAVOR:UltiGCode
;TIME:1199
;MATERIAL:1408
;MATERIAL2:0
;NOZZLE_DIAMETER:0.400000
;NOZZLE_DIAMETER2:0.400000

;Layer count: 68
;LAYER:0
M107
G0 F9000 X107.200 Y109.409 Z0.300
G0 X107.562 Y109.269
;TYPE:SKIRT
G1 F1200 X107.200 Y109.409 E0.04658
G1 X107.200 Y115.281 E0.75122
G1 X122.783 Y115.300 E2.62118
G1 X122.798 Y109.718 E3.29102
G1 X111.513 Y109.700 E4.64522
G1 X110.738 Y109.700 E4.73822
G1 X110.083 Y109.650 E4.81705
G1 X109.326 Y109.478 E4.91020
G1 X108.598 Y109.191 E5.00411
G1 X108.159 Y108.938 E5.06491
G1 X107.562 Y109.269 E5.14683
G0 F9000 X108.117 Y100.085
G1 F1200 X108.598 Y99.808 E5.21343
G1 X109.326 Y99.521 E5.30734
G1 X110.203 Y99.322 E5.41525
G1 X127.141 Y99.300 E7.44781
G1 X128.113 Y99.300 E7.56445
G1 X128.741 Y99.344 E7.64000
G1 X129.465 Y99.503 E7.72895
G1 X130.160 Y99.760 E7.81787
G1 X130.817 Y100.119 E7.90771
G1 X131.411 Y100.564 E7.99677
G1 X131.935 Y101.088 E8.08570
G1 X132.380 Y101.682 E8.17476
G1 X132.739 Y102.339 E8.26461
G1 X132.996 Y103.034 E8.35353
G1 X133.179 Y103.867 E8.45587
G1 X133.200 Y119.698 E10.35559
G1 X133.200 Y120.618 E10.46599
G1 X133.154 Y121.246 E10.54155
G1 X132.996 Y121.965 E10.62989
G1 X132.739 Y122.660 E10.71881
G1 X132.380 Y123.317 E10.80865
G1 X131.935 Y123.911 E10.89772
G1 X131.411 Y124.435 E10.98664
G1 X130.817 Y124.880 E11.07571
G1 X130.160 Y125.239 E11.16555
G1 X129.465 Y125.496 E11.25447
G1 X128.631 Y125.679 E11.35693
G1 X103.301 Y125.700 E14.39653
G1 X101.882 Y125.700 E14.56681
G1 X101.253 Y125.654 E14.64249
G1 X100.534 Y125.496 E14.73083
G1 X99.839 Y125.239 E14.81975
G1 X99.182 Y124.880 E14.90959
G1 X98.588 Y124.435 E14.99866
G1 X98.064 Y123.911 E15.08758
G1 X97.619 Y123.317 E15.17665
G1 X97.260 Y122.660 E15.26649
G1 X97.003 Y121.965 E15.35541
G1 X96.828 Y121.167 E15.45344
G1 X96.800 Y119.974 E15.59664
G1 X96.800 Y104.388 E17.46696
G1 X96.844 Y103.759 E17.54263
G1 X97.003 Y103.034 E17.63169
G1 X97.260 Y102.339 E17.72061
G1 X97.619 Y101.682 E17.81046
G1 X98.064 Y101.088 E17.89952
G1 X98.588 Y100.564 E17.98845
G1 X99.182 Y100.119 E18.07751
G1 X99.839 Y99.760 E18.16735
G1 X100.534 Y99.503 E18.25627
G1 X101.360 Y99.322 E18.35774
G1 X105.253 Y99.300 E18.82491
G1 X106.061 Y99.335 E18.92196
G1 X106.827 Y99.503 E19.01607
G1 X107.522 Y99.760 E19.10499
G1 X108.117 Y100.085 E19.18634
G10
G0 F9000 X110.072 Y103.346
;TYPE:WALL-INNER
G11
G1 F1200 X110.258 Y103.238 E19.21215
G1 X110.449 Y103.163 E19.23678
G1 X110.630 Y103.122 E19.25905
G1 X127.973 Y103.100 E21.34021
G1 X128.203 Y103.116 E21.36788
G1 X128.389 Y103.157 E21.39073
G1 X128.583 Y103.229 E21.41556
G1 X128.756 Y103.323 E21.43919
G1 X128.917 Y103.444 E21.46336
G1 X129.055 Y103.582 E21.48678
G1 X129.176 Y103.743 E21.51094
G1 X129.270 Y103.916 E21.53457
G1 X129.342 Y104.110 E21.55940
G1 X129.379 Y104.279 E21.58016
G1 X129.400 Y120.483 E23.52465
G1 X129.384 Y120.696 E23.55028
G1 X129.342 Y120.889 E23.57398
G1 X129.270 Y121.083 E23.59881
G1 X129.176 Y121.256 E23.62244
G1 X129.055 Y121.417 E23.64661
G1 X128.917 Y121.555 E23.67002
G1 X128.756 Y121.676 E23.69419
G1 X128.583 Y121.770 E23.71782
G1 X128.389 Y121.842 E23.74265
G1 X128.220 Y121.879 E23.76341
G1 X102.017 Y121.900 E26.90777
G1 X101.803 Y121.884 E26.93352
G1 X101.610 Y121.842 E26.95723
G1 X101.416 Y121.770 E26.98206
G1 X101.243 Y121.676 E27.00568
G1 X101.082 Y121.555 E27.02985
G1 X100.944 Y121.417 E27.05327
G1 X100.823 Y121.256 E27.07744
G1 X100.729 Y121.083 E27.10107
G1 X100.657 Y120.889 E27.12590
G1 X100.619 Y120.714 E27.14739
G1 X100.600 Y119.936 E27.24078
G1 X100.600 Y104.528 E29.08974
G1 X100.616 Y104.296 E29.11764
G1 X100.657 Y104.110 E29.14050
G1 X100.729 Y103.916 E29.16533
G1 X100.823 Y103.743 E29.18896
G1 X100.944 Y103.582 E29.21312
G1 X101.082 Y103.444 E29.23654
G1 X101.243 Y103.323 E29.26071
G1 X101.416 Y103.229 E29.28434
G1 X101.610 Y103.157 E29.30917
G1 X101.781 Y103.120 E29.33016
G1 X105.189 Y103.100 E29.73913
G1 X105.567 Y103.117 E29.78454
G1 X105.751 Y103.157 E29.80713
G1 X105.945 Y103.229 E29.83196
G1 X106.118 Y103.323 E29.85559
G1 X106.279 Y103.444 E29.87976
G1 X106.417 Y103.582 E29.90318
G1 X106.538 Y103.743 E29.92735
G1 X106.632 Y103.916 E29.95097
G1 X106.704 Y104.110 E29.97580
G1 X106.745 Y104.296 E29.99866
G1 X106.760 Y104.549 E30.02907
G1 X106.744 Y104.755 E30.05387
G1 X106.702 Y104.948 E30.07757
G1 X106.632 Y105.133 E30.10131
G1 X106.538 Y105.304 E30.12472
G1 X106.416 Y105.468 E30.14925
G1 X106.285 Y105.599 E30.17148
G1 X106.122 Y105.722 E30.19599
G1 X105.949 Y105.818 E30.21973
G1 X105.763 Y105.890 E30.24366
G1 X105.244 Y106.011 E30.30761
G1 X104.887 Y106.147 E30.35345
G1 X104.566 Y106.328 E30.39768
G1 X104.275 Y106.552 E30.44174
G1 X104.019 Y106.813 E30.48561
G1 X103.801 Y107.108 E30.52963
G1 X103.627 Y107.432 E30.57376
G1 X103.502 Y107.775 E30.61757
G1 X103.421 Y108.143 E30.66279
G1 X103.400 Y108.747 E30.73531
G1 X103.400 Y116.521 E31.66819
G1 X103.425 Y116.870 E31.71018
G1 X103.504 Y117.232 E31.75464
G1 X103.633 Y117.579 E31.79907
G1 X103.811 Y117.906 E31.84374
G1 X104.034 Y118.203 E31.88831
G1 X104.296 Y118.465 E31.93277
G1 X104.593 Y118.688 E31.97734
G1 X104.920 Y118.866 E32.02202
G1 X105.267 Y118.995 E32.06644
G1 X105.650 Y119.079 E32.11350
G1 X124.022 Y119.100 E34.31814
G1 X124.371 Y119.074 E34.36013
G1 X124.732 Y118.995 E34.40448
G1 X125.079 Y118.866 E34.44890
G1 X125.406 Y118.688 E34.49358
G1 X125.703 Y118.465 E34.53815
G1 X125.965 Y118.203 E34.58261
G1 X126.188 Y117.906 E34.62718
G1 X126.366 Y117.579 E34.67186
G1 X126.495 Y117.232 E34.71628
G1 X126.579 Y116.850 E34.76322
G1 X126.600 Y108.892 E35.71818
G1 X126.579 Y108.158 E35.80629
G1 X126.496 Y107.768 E35.85414
G1 X126.366 Y107.420 E35.89872
G1 X126.188 Y107.093 E35.94340
G1 X125.965 Y106.796 E35.98797
G1 X125.703 Y106.534 E36.03243
G1 X125.406 Y106.311 E36.07700
G1 X125.079 Y106.133 E36.12167
G1 X124.732 Y106.004 E36.16610
G1 X124.349 Y105.920 E36.21315
G1 X110.881 Y105.900 E37.82931
G1 X110.654 Y105.882 E37.85664
G1 X110.449 Y105.836 E37.88185
G1 X110.258 Y105.761 E37.90647
G1 X110.072 Y105.653 E37.93228
G1 X109.911 Y105.525 E37.95697
G1 X109.770 Y105.373 E37.98184
G1 X109.648 Y105.195 E38.00774
G1 X109.561 Y105.013 E38.03195
G1 X109.496 Y104.806 E38.05798
G1 X109.467 Y104.608 E38.08200
G1 X109.467 Y104.391 E38.10804
G1 X109.496 Y104.193 E38.13205
G1 X109.561 Y103.986 E38.15809
G1 X109.650 Y103.802 E38.18261
G1 X109.768 Y103.629 E38.20774
G1 X109.911 Y103.474 E38.23305
G1 X110.072 Y103.346 E38.25773
G0 F9000 X109.849 Y103.012
;TYPE:WALL-OUTER
G1 F1200 X110.080 Y102.878 E38.28978
G1 X110.331 Y102.780 E38.32211
G1 X110.585 Y102.722 E38.35338
G1 X127.986 Y102.700 E40.44150
G1 X128.261 Y102.719 E40.47458
G1 X128.500 Y102.772 E40.50395
G1 X128.747 Y102.863 E40.53554
G1 X128.975 Y102.988 E40.56674
G1 X129.181 Y103.142 E40.59761
G1 X129.357 Y103.318 E40.62748
G1 X129.511 Y103.524 E40.65834
G1 X129.636 Y103.752 E40.68954
G1 X129.727 Y103.999 E40.72113
G1 X129.779 Y104.235 E40.75013
G1 X129.800 Y120.500 E42.70193
G1 X129.781 Y120.754 E42.73250
G1 X129.727 Y121.000 E42.76272
G1 X129.636 Y121.247 E42.79431
G1 X129.511 Y121.475 E42.82551
G1 X129.357 Y121.681 E42.85637
G1 X129.181 Y121.857 E42.88624
G1 X128.975 Y122.011 E42.91710
G1 X128.747 Y122.136 E42.94831
G1 X128.500 Y122.227 E42.97989
G1 X128.264 Y122.279 E43.00889
G1 X102.001 Y122.300 E46.16045
G1 X101.745 Y122.281 E46.19126
G1 X101.499 Y122.227 E46.22148
G1 X101.252 Y122.136 E46.25307
G1 X101.024 Y122.011 E46.28427
G1 X100.818 Y121.857 E46.31514
G1 X100.642 Y121.681 E46.34500
G1 X100.488 Y121.475 E46.37587
G1 X100.363 Y121.247 E46.40707
G1 X100.272 Y121.000 E46.43866
G1 X100.220 Y120.762 E46.46789
G1 X100.200 Y119.936 E46.56704
G1 X100.200 Y104.514 E48.41768
G1 X100.219 Y104.238 E48.45088
G1 X100.272 Y103.999 E48.48025
G1 X100.363 Y103.752 E48.51184
G1 X100.488 Y103.524 E48.54304
G1 X100.642 Y103.318 E48.57391
G1 X100.818 Y103.142 E48.60378
G1 X101.024 Y102.988 E48.63464
G1 X101.252 Y102.863 E48.66584
G1 X101.499 Y102.772 E48.69743
G1 X101.736 Y102.720 E48.72655
G1 X105.184 Y102.700 E49.14031
G1 X105.623 Y102.719 E49.19304
G1 X105.862 Y102.772 E49.22242
G1 X106.109 Y102.863 E49.25401
G1 X106.337 Y102.988 E49.28521
G1 X106.543 Y103.142 E49.31607
G1 X106.719 Y103.318 E49.34594
G1 X106.873 Y103.524 E49.37681
G1 X106.998 Y103.752 E49.40801
G1 X107.089 Y103.999 E49.43960
G1 X107.142 Y104.238 E49.46897
G1 X107.161 Y104.555 E49.50708
G1 X107.141 Y104.815 E49.53837
G1 X107.086 Y105.064 E49.56897
G1 X106.997 Y105.301 E49.59935
G1 X106.877 Y105.519 E49.62921
G1 X106.720 Y105.730 E49.66077
G1 X106.551 Y105.899 E49.68945
G1 X106.338 Y106.060 E49.72149
G1 X106.121 Y106.180 E49.75125
G1 X105.883 Y106.272 E49.78187
G1 X105.361 Y106.394 E49.84620
G1 X105.058 Y106.510 E49.88513
G1 X104.787 Y106.663 E49.92248
G1 X104.541 Y106.852 E49.95970
G1 X104.324 Y107.073 E49.99687
G1 X104.140 Y107.323 E50.03412
G1 X103.993 Y107.596 E50.07133
G1 X103.887 Y107.887 E50.10849
G1 X103.820 Y108.193 E50.14608
G1 X103.800 Y108.754 E50.21344
G1 X103.800 Y116.507 E51.14380
G1 X103.822 Y116.813 E51.18062
G1 X103.889 Y117.119 E51.21821
G1 X103.998 Y117.413 E51.25584
G1 X104.148 Y117.689 E51.29353
G1 X104.337 Y117.940 E51.33123
G1 X104.559 Y118.162 E51.36891
G1 X104.810 Y118.351 E51.40661
G1 X105.086 Y118.501 E51.44431
G1 X105.380 Y118.610 E51.48194
G1 X105.693 Y118.679 E51.52040
G1 X124.007 Y118.700 E53.71808
G1 X124.313 Y118.677 E53.75490
G1 X124.619 Y118.610 E53.79249
G1 X124.913 Y118.501 E53.83012
G1 X125.189 Y118.351 E53.86781
G1 X125.440 Y118.162 E53.90552
G1 X125.662 Y117.940 E53.94319
G1 X125.851 Y117.689 E53.98090
G1 X126.001 Y117.413 E54.01859
G1 X126.110 Y117.119 E54.05622
G1 X126.179 Y116.806 E54.09468
G1 X126.200 Y108.897 E55.04376
G1 X126.180 Y108.206 E55.12672
G1 X126.111 Y107.880 E55.16671
G1 X126.001 Y107.586 E55.20437
G1 X125.851 Y107.310 E55.24207
G1 X125.662 Y107.059 E55.27977
G1 X125.440 Y106.837 E55.31745
G1 X125.189 Y106.648 E55.35515
G1 X124.913 Y106.498 E55.39285
G1 X124.619 Y106.389 E55.43047
G1 X124.306 Y106.320 E55.46894
G1 X110.863 Y106.300 E57.08210
G1 X110.595 Y106.279 E57.11436
G1 X110.331 Y106.219 E57.14684
G1 X110.080 Y106.121 E57.17918
G1 X109.849 Y105.987 E57.21122
G1 X109.639 Y105.820 E57.24342
G1 X109.454 Y105.619 E57.27620
G1 X109.301 Y105.397 E57.30856
G1 X109.188 Y105.161 E57.33996
G1 X109.107 Y104.900 E57.37275
G1 X109.067 Y104.633 E57.40515
G1 X109.067 Y104.366 E57.43719
G1 X109.107 Y104.099 E57.46958
G1 X109.188 Y103.838 E57.50238
G1 X109.301 Y103.603 E57.53367
G1 X109.454 Y103.380 E57.56612
G1 X109.639 Y103.179 E57.59890
G1 X109.849 Y103.012 E57.63110
G0 F9000 X110.048 Y103.543
;TYPE:SKIN
G1 F1200 X112.267 Y105.761 E58.00759
G0 F9000 X112.833 Y105.762
G1 F1200 X110.402 Y103.331 E58.42015
G0 F9000 X110.899 Y103.262
G1 F1200 X113.400 Y105.764 E58.84467
G0 F9000 X113.967 Y105.764
G1 F1200 X111.464 Y103.261 E59.26944
G0 F9000 X112.029 Y103.260
G1 F1200 X114.533 Y105.765 E59.69447
G0 F9000 X115.100 Y105.766
G1 F1200 X112.594 Y103.260 E60.11975
G0 F9000 X113.159 Y103.259
G1 F1200 X115.666 Y105.766 E60.54520
G0 F9000 X116.232 Y105.767
G1 F1200 X113.723 Y103.258 E60.97099
G0 F9000 X114.288 Y103.258
G1 F1200 X116.799 Y105.768 E61.39704
G0 F9000 X117.365 Y105.769
G1 F1200 X114.853 Y103.257 E61.82334
G0 F9000 X115.418 Y103.256
G1 F1200 X117.932 Y105.770 E62.24998
G0 F9000 X118.499 Y105.771
G1 F1200 X115.983 Y103.255 E62.67696
G0 F9000 X116.548 Y103.255
G1 F1200 X119.065 Y105.771 E63.10402
G0 F9000 X119.631 Y105.772
G1 F1200 X117.113 Y103.254 E63.53134
G0 F9000 X117.678 Y103.253
G1 F1200 X120.198 Y105.773 E63.95900
G0 F9000 X120.764 Y105.773
G1 F1200 X118.243 Y103.252 E64.38683
G0 F9000 X118.808 Y103.251
G1 F1200 X121.331 Y105.774 E64.81499
G0 F9000 X121.898 Y105.776
G1 F1200 X119.373 Y103.251 E65.24350
G0 F9000 X119.938 Y103.250
G1 F1200 X122.464 Y105.776 E65.67218
G0 F9000 X123.030 Y105.777
G1 F1200 X120.503 Y103.249 E66.10111
G0 F9000 X121.067 Y103.248
G1 F1200 X123.597 Y105.778 E66.53046
G0 F9000 X124.163 Y105.778
G1 F1200 X121.632 Y103.248 E66.95990
G0 F9000 X122.197 Y103.247
G1 F1200 X124.848 Y105.898 E67.40979
G0 F9000 X126.601 Y107.651
G1 F1200 X129.246 Y110.295 E67.85858
G0 F9000 X129.245 Y109.729
G1 F1200 X122.762 Y103.246 E68.95878
G0 F9000 X123.327 Y103.246
G1 F1200 X129.244 Y109.163 E69.96293
G0 F9000 X129.244 Y108.596
G1 F1200 X123.892 Y103.245 E70.87111
G0 F9000 X124.457 Y103.244
G1 F1200 X129.243 Y108.030 E71.68332
G0 F9000 X129.242 Y107.463
G1 F1200 X125.022 Y103.243 E72.39948
G0 F9000 X125.587 Y103.243
G1 F1200 X129.242 Y106.897 E73.01967
G0 F9000 X129.241 Y106.331
G1 F1200 X126.152 Y103.242 E73.54389
G0 F9000 X126.717 Y103.241
G1 F1200 X129.240 Y105.764 E73.97206
G0 F9000 X129.240 Y105.198
G1 F1200 X127.282 Y103.241 E74.30425
G0 F9000 X127.847 Y103.240
G1 F1200 X129.239 Y104.632 E74.54048
G0 F9000 X129.133 Y103.960
G1 F1200 X128.537 Y103.364 E74.64163
G0 F9000 X126.722 Y108.337
G1 F1200 X129.247 Y110.862 E75.07014
G0 F9000 X129.247 Y111.428
G1 F1200 X126.738 Y108.919 E75.49593
G0 F9000 X126.736 Y109.483
G1 F1200 X129.248 Y111.995 E75.92223
G0 F9000 X129.249 Y112.561
G1 F1200 X126.735 Y110.047 E76.34887
G0 F9000 X126.734 Y110.612
G1 F1200 X129.249 Y113.127 E76.77568
G0 F9000 X129.250 Y113.694
G1 F1200 X126.732 Y111.176 E77.20300
G0 F9000 X126.731 Y111.740
G1 F1200 X129.251 Y114.260 E77.63065
G0 F9000 X129.252 Y114.827
G1 F1200 X126.729 Y112.304 E78.05882
G0 F9000 X126.728 Y112.869
G1 F1200 X129.252 Y115.393 E78.48716
G0 F9000 X129.253 Y115.959
G1 F1200 X126.726 Y113.433 E78.91592
G0 F9000 X126.725 Y113.997
G1 F1200 X129.254 Y116.526 E79.34511
G0 F9000 X129.254 Y117.092
G1 F1200 X126.724 Y114.561 E79.77455
G0 F9000 X126.722 Y115.126
G1 F1200 X129.255 Y117.659 E80.20441
G0 F9000 X129.256 Y118.225
G1 F1200 X126.721 Y115.690 E80.63461
G0 F9000 X126.719 Y116.254
G1 F1200 X129.256 Y118.791 E81.06516
G0 F9000 X129.257 Y119.358
G1 F1200 X126.718 Y116.818 E81.49612
G0 F9000 X126.621 Y117.287
G1 F1200 X129.258 Y119.924 E81.94364
G0 F9000 X129.259 Y120.490
G1 F1200 X126.461 Y117.692 E82.41847
G0 F9000 X126.253 Y118.050
G1 F1200 X129.165 Y120.962 E82.91266
G0 F9000 X128.954 Y121.317
G1 F1200 X126.000 Y118.364 E83.41388
G0 F9000 X125.707 Y118.636
G1 F1200 X128.646 Y121.574 E83.91256
G0 F9000 X128.237 Y121.731
G1 F1200 X125.371 Y118.866 E84.39885
G0 F9000 X124.988 Y119.049
G1 F1200 X127.678 Y121.739 E84.85536
G0 F9000 X127.113 Y121.739
G1 F1200 X124.551 Y119.177 E85.29015
G0 F9000 X124.047 Y119.238
G1 F1200 X126.548 Y121.739 E85.71458
G0 F9000 X125.983 Y121.740
G1 F1200 X123.482 Y119.240 E86.13893
G0 F9000 X122.916 Y119.239
G1 F1200 X125.418 Y121.741 E86.56353
G0 F9000 X124.852 Y121.741
G1 F1200 X122.349 Y119.238 E86.98831
G0 F9000 X121.783 Y119.238
G1 F1200 X124.287 Y121.741 E87.41317
G0 F9000 X123.721 Y121.741
G1 F1200 X121.217 Y119.237 E87.83811
G0 F9000 X120.650 Y119.236
G1 F1200 X123.156 Y121.742 E88.26339
G0 F9000 X122.591 Y121.743
G1 F1200 X120.084 Y119.235 E88.68893
G0 F9000 X119.518 Y119.235
G1 F1200 X122.026 Y121.743 E89.11455
G0 F9000 X121.461 Y121.743
G1 F1200 X118.951 Y119.234 E89.54043
G0 F9000 X118.385 Y119.233
G1 F1200 X120.896 Y121.744 E89.96656
G0 F9000 X120.330 Y121.744
G1 F1200 X117.818 Y119.233 E90.39277
G0 F9000 X117.252 Y119.232
G1 F1200 X119.765 Y121.745 E90.81924
G0 F9000 X119.199 Y121.745
G1 F1200 X116.686 Y119.231 E91.24580
G0 F9000 X116.119 Y119.230
G1 F1200 X118.634 Y121.746 E91.67269
G0 F9000 X118.069 Y121.746
G1 F1200 X115.553 Y119.230 E92.09967
G0 F9000 X114.986 Y119.229
G1 F1200 X117.504 Y121.746 E92.52690
G0 F9000 X116.939 Y121.747
G1 F1200 X114.420 Y119.228 E92.95439
G0 F9000 X113.854 Y119.228
G1 F1200 X116.374 Y121.748 E93.38205
G0 F9000 X115.808 Y121.748
G1 F1200 X113.287 Y119.227 E93.80988
G0 F9000 X112.721 Y119.226
G1 F1200 X115.243 Y121.748 E94.23788
G0 F9000 X114.677 Y121.748
G1 F1200 X112.154 Y119.225 E94.66604
G0 F9000 X111.589 Y119.225
G1 F1200 X114.112 Y121.749 E95.09430
G0 F9000 X113.547 Y121.750
G1 F1200 X111.022 Y119.225 E95.52280
G0 F9000 X110.456 Y119.224
G1 F1200 X112.982 Y121.750 E95.95148
G0 F9000 X112.417 Y121.751
G1 F1200 X109.890 Y119.223 E96.38041
G0 F9000 X109.323 Y119.223
G1 F1200 X111.852 Y121.751 E96.80951
G0 F9000 X111.286 Y121.751
