;FLAVOR:UltiGCode
;TIME:1172
;MATERIAL:1481
;MATERIAL2:0
;NOZZLE_DIAMETER:0.400000
;NOZZLE_DIAMETER2:0.400000

;Layer count: 68
;LAYER:0
M107
G0 F9000 X101.035 Y102.783 Z0.300
;TYPE:SKIRT
G1 F1200 X101.590 Y102.297 E0.08853
G1 X102.203 Y101.889 E0.17689
G1 X102.864 Y101.566 E0.26517
G1 X103.555 Y101.332 E0.35272
G1 X104.379 Y101.169 E0.45351
G1 X105.400 Y101.163 E0.57604
G1 X105.400 Y101.150 E0.57760
G1 X125.124 Y101.150 E2.94448
G1 X125.774 Y101.195 E3.02266
G1 X126.497 Y101.347 E3.11132
G1 X127.181 Y101.584 E3.19819
G1 X127.847 Y101.917 E3.28754
G1 X128.442 Y102.326 E3.37418
G1 X128.966 Y102.785 E3.45778
G1 X129.452 Y103.340 E3.54630
G1 X129.860 Y103.953 E3.63466
G1 X130.183 Y104.614 E3.72295
G1 X130.417 Y105.305 E3.81049
G1 X130.581 Y106.135 E3.91202
G1 X130.600 Y117.882 E5.32166
G1 X130.574 Y118.919 E5.44614
G1 X130.404 Y119.740 E5.54675
G1 X130.165 Y120.431 E5.63449
G1 X129.832 Y121.097 E5.72384
G1 X129.423 Y121.692 E5.81048
G1 X128.964 Y122.216 E5.89408
G1 X128.411 Y122.699 E5.98219
G1 X127.797 Y123.110 E6.07085
G1 X127.132 Y123.434 E6.15962
G1 X126.444 Y123.667 E6.24678
G1 X125.612 Y123.832 E6.34857
G1 X105.717 Y123.850 E8.73597
G1 X104.870 Y123.850 E8.83761
G1 X104.220 Y123.803 E8.91581
G1 X103.502 Y123.652 E9.00386
G1 X102.815 Y123.414 E9.09110
G1 X102.154 Y123.082 E9.17987
G1 X101.560 Y122.675 E9.26627
G1 X101.033 Y122.214 E9.35029
G1 X100.550 Y121.661 E9.43840
G1 X100.139 Y121.047 E9.52707
G1 X99.815 Y120.382 E9.61583
G1 X99.582 Y119.694 E9.70300
G1 X99.425 Y118.899 E9.80024
G1 X99.400 Y117.755 E9.93756
G1 X99.400 Y106.627 E11.27292
G1 X99.445 Y105.976 E11.35122
G1 X99.597 Y105.252 E11.44000
G1 X99.835 Y104.565 E11.52724
G1 X100.167 Y103.904 E11.61601
G1 X100.574 Y103.310 E11.70241
G1 X101.035 Y102.783 E11.78643
G0 F9000 X101.318 Y103.066
G1 F1200 X101.834 Y102.616 E11.86859
G1 X102.403 Y102.236 E11.95070
G1 X103.016 Y101.936 E12.03260
G1 X103.659 Y101.720 E12.11399
G1 X104.419 Y101.569 E12.20698
G1 X105.800 Y101.561 E12.37270
G1 X105.800 Y101.550 E12.37402
G1 X125.110 Y101.550 E14.69122
G1 X125.718 Y101.592 E14.76435
G1 X126.390 Y101.734 E14.84677
G1 X127.025 Y101.954 E14.92742
G1 X127.643 Y102.263 E15.01033
G1 X128.197 Y102.643 E15.09095
G1 X128.683 Y103.068 E15.16842
G1 X129.133 Y103.584 E15.25058
G1 X129.513 Y104.153 E15.33269
G1 X129.813 Y104.766 E15.41458
G1 X130.029 Y105.409 E15.49598
G1 X130.182 Y106.175 E15.58972
G1 X130.200 Y117.877 E16.99396
G1 X130.175 Y118.873 E17.11352
G1 X130.018 Y119.633 E17.20664
G1 X129.795 Y120.275 E17.28820
G1 X129.486 Y120.893 E17.37111
G1 X129.106 Y121.447 E17.45173
G1 X128.681 Y121.933 E17.52920
G1 X128.168 Y122.381 E17.61093
G1 X127.598 Y122.763 E17.69327
G1 X126.980 Y123.064 E17.77576
G1 X126.340 Y123.279 E17.85678
G1 X125.573 Y123.432 E17.95063
G1 X105.716 Y123.450 E20.33347
G1 X104.885 Y123.450 E20.43319
G1 X104.275 Y123.406 E20.50658
G1 X103.609 Y123.265 E20.58827
G1 X102.971 Y123.044 E20.66930
G1 X102.358 Y122.736 E20.75162
G1 X101.805 Y122.358 E20.83200
G1 X101.316 Y121.931 E20.90990
G1 X100.868 Y121.418 E20.99163
G1 X100.486 Y120.848 E21.07397
G1 X100.185 Y120.230 E21.15646
G1 X99.970 Y119.590 E21.23748
G1 X99.824 Y118.855 E21.32740
G1 X99.800 Y117.750 E21.46003
G1 X99.800 Y106.640 E22.79323
G1 X99.842 Y106.031 E22.86649
G1 X99.984 Y105.359 E22.94891
G1 X100.205 Y104.721 E23.02993
G1 X100.513 Y104.108 E23.11225
G1 X100.891 Y103.555 E23.19264
G1 X101.318 Y103.066 E23.27054
G10
G0 F9000 X104.010 Y105.761
;TYPE:WALL-INNER
G11
G1 F1200 X104.150 Y105.639 E23.29282
G1 X104.299 Y105.539 E23.31436
G1 X104.462 Y105.459 E23.33614
G1 X104.640 Y105.399 E23.35869
G1 X104.805 Y105.367 E23.37885
G1 X107.400 Y105.353 E23.69026
G1 X107.400 Y116.850 E25.06990
G1 X122.600 Y116.850 E26.89390
G1 X122.600 Y108.150 E27.93790
G1 X109.600 Y108.150 E29.49790
G1 X109.600 Y105.350 E29.83390
G1 X124.974 Y105.350 E31.67878
G1 X125.196 Y105.365 E31.70548
G1 X125.369 Y105.402 E31.72671
G1 X125.547 Y105.464 E31.74933
G1 X125.706 Y105.543 E31.77063
G1 X125.864 Y105.651 E31.79360
G1 X125.988 Y105.760 E31.81341
G1 X126.110 Y105.900 E31.83569
G1 X126.210 Y106.049 E31.85723
G1 X126.290 Y106.212 E31.87902
G1 X126.350 Y106.390 E31.90156
G1 X126.382 Y106.554 E31.92161
G1 X126.400 Y117.824 E33.27401
G1 X126.384 Y118.436 E33.34748
G1 X126.346 Y118.623 E33.37037
G1 X126.285 Y118.797 E33.39250
G1 X126.206 Y118.956 E33.41381
G1 X126.098 Y119.114 E33.43677
G1 X125.989 Y119.238 E33.45658
G1 X125.852 Y119.358 E33.47844
G1 X125.695 Y119.463 E33.50110
G1 X125.540 Y119.538 E33.52177
G1 X125.359 Y119.600 E33.54473
G1 X125.195 Y119.632 E33.56478
G1 X105.015 Y119.650 E35.98638
G1 X104.810 Y119.635 E36.01104
G1 X104.630 Y119.597 E36.03312
G1 X104.449 Y119.535 E36.05608
G1 X104.138 Y119.350 E36.09950
G1 X104.011 Y119.239 E36.11974
G1 X103.891 Y119.102 E36.14160
G1 X103.786 Y118.945 E36.16426
G1 X103.711 Y118.790 E36.18493
G1 X103.649 Y118.609 E36.20788
G1 X103.616 Y118.440 E36.22855
G1 X103.600 Y117.716 E36.31545
G1 X103.600 Y106.776 E37.62825
G1 X103.615 Y106.553 E37.65507
G1 X103.652 Y106.380 E37.67630
G1 X103.714 Y106.199 E37.69926
G1 X103.899 Y105.888 E37.74268
G1 X104.010 Y105.761 E37.76292
G0 F9000 X103.582 Y105.643
;TYPE:WALL-OUTER
G1 F1200 X103.727 Y105.477 E37.78937
G1 X103.909 Y105.318 E37.81837
G1 X104.097 Y105.193 E37.84546
G1 X104.311 Y105.088 E37.87407
G1 X104.542 Y105.011 E37.90329
G1 X104.761 Y104.967 E37.93009
G1 X107.800 Y104.951 E38.29478
G1 X107.800 Y116.450 E39.67466
G1 X122.200 Y116.450 E41.40266
G1 X122.200 Y108.550 E42.35066
G1 X109.200 Y108.550 E43.91066
G1 X109.200 Y104.950 E44.34266
G1 X124.986 Y104.950 E46.23698
G1 X125.250 Y104.968 E46.26873
G1 X125.479 Y105.016 E46.29681
G1 X125.704 Y105.095 E46.32542
G1 X125.912 Y105.198 E46.35328
G1 X126.102 Y105.329 E46.38097
G1 X126.272 Y105.477 E46.40802
G1 X126.431 Y105.659 E46.43702
G1 X126.556 Y105.847 E46.46411
G1 X126.660 Y106.059 E46.49245
G1 X126.738 Y106.292 E46.52193
G1 X126.782 Y106.511 E46.54874
G1 X126.800 Y117.834 E47.90750
G1 X126.783 Y118.483 E47.98541
G1 X126.734 Y118.725 E48.01504
G1 X126.654 Y118.954 E48.04414
G1 X126.551 Y119.161 E48.07189
G1 X126.419 Y119.354 E48.09995
G1 X126.272 Y119.522 E48.12674
G1 X126.090 Y119.681 E48.15574
G1 X125.903 Y119.806 E48.18273
G1 X125.688 Y119.911 E48.21144
G1 X125.457 Y119.988 E48.24066
G1 X125.238 Y120.032 E48.26746
G1 X105.000 Y120.050 E50.69603
G1 X104.756 Y120.032 E50.72539
G1 X104.520 Y119.983 E50.75431
G1 X104.298 Y119.906 E50.78251
G1 X104.085 Y119.799 E50.81111
G1 X103.895 Y119.668 E50.83880
G1 X103.727 Y119.522 E50.86551
G1 X103.568 Y119.340 E50.89451
G1 X103.442 Y119.151 E50.92177
G1 X103.338 Y118.938 E50.95022
G1 X103.261 Y118.707 E50.97944
G1 X103.217 Y118.486 E51.00648
G1 X103.200 Y117.716 E51.09890
G1 X103.200 Y106.764 E52.41314
G1 X103.218 Y106.499 E52.44501
G1 X103.343 Y106.048 E52.50117
G1 X103.450 Y105.835 E52.52978
G1 X103.582 Y105.643 E52.55774
G0 F9000 X104.004 Y105.983
;TYPE:SKIN
G1 F1200 X107.259 Y109.239 E53.11021
G0 F9000 X107.259 Y109.805
G1 F1200 X103.808 Y106.353 E53.69595
G0 F9000 X103.739 Y106.850
G1 F1200 X107.259 Y110.370 E54.29331
G0 F9000 X107.259 Y110.936
G1 F1200 X103.739 Y107.416 E54.89068
G0 F9000 X103.739 Y107.982
G1 F1200 X107.259 Y111.502 E55.48804
G0 F9000 X107.259 Y112.067
G1 F1200 X103.739 Y108.547 E56.08541
G0 F9000 X103.739 Y109.113
G1 F1200 X107.259 Y112.633 E56.68277
G0 F9000 X107.259 Y113.199
G1 F1200 X103.739 Y109.679 E57.28013
G0 F9000 X103.739 Y110.245
G1 F1200 X107.259 Y113.764 E57.87741
G0 F9000 X107.259 Y114.330
G1 F1200 X103.739 Y110.810 E58.47478
G0 F9000 X103.739 Y111.376
G1 F1200 X107.259 Y114.896 E59.07214
G0 F9000 X107.259 Y115.462
G1 F1200 X103.739 Y111.942 E59.66950
G0 F9000 X103.739 Y112.507
G1 F1200 X107.259 Y116.027 E60.26687
G0 F9000 X107.259 Y116.593
G1 F1200 X103.739 Y113.073 E60.86423
G0 F9000 X103.739 Y113.639
G1 F1200 X109.605 Y119.505 E61.85973
G0 F9000 X109.040 Y119.505
G1 F1200 X103.739 Y114.204 E62.75933
G0 F9000 X103.739 Y114.770
G1 F1200 X108.475 Y119.505 E63.56298
G0 F9000 X107.910 Y119.506
G1 F1200 X103.739 Y115.336 E64.27073
G0 F9000 X103.739 Y115.901
G1 F1200 X107.345 Y119.507 E64.88269
G0 F9000 X106.779 Y119.507
G1 F1200 X103.739 Y116.467 E65.39860
G0 F9000 X103.739 Y117.033
G1 F1200 X106.214 Y119.508 E65.81862
G0 F9000 X105.649 Y119.508
G1 F1200 X103.739 Y117.598 E66.14276
G0 F9000 X103.750 Y118.175
G1 F1200 X105.083 Y119.508 E66.36897
G0 F9000 X104.279 Y119.270
G1 F1200 X103.954 Y118.945 E66.42413
G0 F9000 X107.656 Y116.990
G1 F1200 X110.170 Y119.504 E66.85077
G0 F9000 X110.735 Y119.503
G1 F1200 X108.221 Y116.990 E67.27732
G0 F9000 X108.787 Y116.990
G1 F1200 X111.301 Y119.503 E67.70388
G0 F9000 X111.866 Y119.503
G1 F1200 X109.353 Y116.990 E68.13035
G0 F9000 X109.919 Y116.990
G1 F1200 X112.431 Y119.502 E68.55665
G0 F9000 X112.997 Y119.502
G1 F1200 X110.484 Y116.990 E68.98303
G0 F9000 X111.050 Y116.990
G1 F1200 X113.562 Y119.501 E69.40925
G0 F9000 X114.127 Y119.501
G1 F1200 X111.616 Y116.990 E69.83538
G0 F9000 X112.181 Y116.990
G1 F1200 X114.692 Y119.501 E70.26151
G0 F9000 X115.257 Y119.500
G1 F1200 X112.747 Y116.990 E70.68747
G0 F9000 X113.313 Y116.990
G1 F1200 X115.822 Y119.499 E71.11326
G0 F9000 X116.387 Y119.498
G1 F1200 X113.878 Y116.990 E71.53897
G0 F9000 X114.444 Y116.990
G1 F1200 X116.953 Y119.498 E71.96468
G0 F9000 X117.518 Y119.498
G1 F1200 X115.010 Y116.990 E72.39030
G0 F9000 X115.575 Y116.990
G1 F1200 X118.083 Y119.497 E72.81584
G0 F9000 X118.648 Y119.497
G1 F1200 X116.141 Y116.990 E73.24129
G0 F9000 X116.707 Y116.990
G1 F1200 X119.213 Y119.496 E73.66657
G0 F9000 X119.778 Y119.496
G1 F1200 X117.272 Y116.990 E74.09185
G0 F9000 X117.838 Y116.990
G1 F1200 X120.343 Y119.495 E74.51696
G0 F9000 X120.909 Y119.495
G1 F1200 X118.404 Y116.990 E74.94208
G0 F9000 X118.970 Y116.990
G1 F1200 X121.474 Y119.494 E75.36702
G0 F9000 X122.039 Y119.493
G1 F1200 X119.535 Y116.990 E75.79188
G0 F9000 X122.541 Y116.791
G0 X122.541 Y108.209
G0 X119.606 Y108.009
G1 F1200 X117.086 Y105.489 E76.21954
G0 F9000 X117.651 Y105.489
G1 F1200 X120.172 Y108.009 E76.64728
G0 F9000 X120.737 Y108.009
G1 F1200 X118.217 Y105.489 E77.07494
G0 F9000 X118.783 Y105.489
G1 F1200 X121.303 Y108.009 E77.50260
G0 F9000 X121.869 Y108.009
G1 F1200 X119.349 Y105.489 E77.93025
G0 F9000 X119.914 Y105.489
G1 F1200 X122.434 Y108.009 E78.35791
G0 F9000 X122.738 Y108.313
G1 F1200 X126.250 Y111.825 E78.95392
G0 F9000 X126.251 Y112.391
G1 F1200 X122.738 Y108.879 E79.55001
G0 F9000 X122.738 Y109.445
G1 F1200 X126.251 Y112.958 E80.14619
G0 F9000 X126.252 Y113.524
G1 F1200 X122.738 Y110.010 E80.74253
G0 F9000 X122.738 Y110.576
G1 F1200 X126.253 Y114.091 E81.33905
G0 F9000 X126.254 Y114.658
G1 F1200 X122.738 Y111.142 E81.93573
G0 F9000 X122.738 Y111.708
G1 F1200 X126.255 Y115.224 E82.53250
G0 F9000 X126.256 Y115.790
G1 F1200 X122.738 Y112.273 E83.12944
G0 F9000 X122.738 Y112.839
G1 F1200 X126.256 Y116.357 E83.72647
G0 F9000 X126.258 Y116.924
G1 F1200 X122.738 Y113.405 E84.32374
G0 F9000 X122.738 Y113.970
G1 F1200 X126.258 Y117.490 E84.92111
G0 F9000 X126.253 Y118.050
G1 F1200 X122.738 Y114.536 E85.51754
G0 F9000 X122.738 Y115.102
G1 F1200 X126.212 Y118.575 E86.10701
G0 F9000 X126.032 Y118.961
G1 F1200 X122.738 Y115.667 E86.66602
G0 F9000 X122.738 Y116.233
G1 F1200 X125.758 Y119.252 E87.17845
G0 F9000 X125.382 Y119.443
G1 F1200 X122.738 Y116.799 E87.62715
G0 F9000 X122.364 Y116.990
G1 F1200 X124.865 Y119.491 E88.05158
G0 F9000 X124.300 Y119.492
G1 F1200 X121.798 Y116.990 E88.47619
G0 F9000 X121.232 Y116.990
G1 F1200 X123.735 Y119.492 E88.90087
G0 F9000 X123.170 Y119.493
G1 F1200 X120.667 Y116.990 E89.32565
G0 F9000 X120.101 Y116.990
G1 F1200 X122.605 Y119.493 E89.75051
G0 F9000 X126.249 Y111.259
G1 F1200 X120.480 Y105.489 E90.72962
G0 F9000 X121.046 Y105.489
G1 F1200 X126.248 Y110.691 E91.61243
G0 F9000 X126.247 Y110.125
G1 F1200 X121.611 Y105.489 E92.39919
G0 F9000 X122.177 Y105.489
G1 F1200 X126.246 Y109.559 E93.08980
G0 F9000 X126.246 Y108.992
G1 F1200 X122.743 Y105.489 E93.68428
G0 F9000 X123.308 Y105.489
G1 F1200 X126.244 Y108.425 E94.18254
G0 F9000 X126.244 Y107.859
G1 F1200 X123.874 Y105.489 E94.58474
G0 F9000 X124.440 Y105.489
G1 F1200 X126.243 Y107.292 E94.89072
G0 F9000 X126.242 Y106.726
G1 F1200 X125.009 Y105.493 E95.09997
G0 F9000 X119.040 Y108.009
G1 F1200 X116.520 Y105.489 E95.52762
G0 F9000 X115.954 Y105.489
G1 F1200 X118.475 Y108.009 E95.95537
G0 F9000 X117.909 Y108.009
G1 F1200 X115.389 Y105.489 E96.38303
G0 F9000 X114.823 Y105.489
G1 F1200 X117.343 Y108.009 E96.81068
G0 F9000 X116.777 Y108.009
G1 F1200 X114.257 Y105.489 E97.23834
G0 F9000 X113.692 Y105.489
G1 F1200 X116.212 Y108.009 E97.66600
G0 F9000 X115.646 Y108.009
G1 F1200 X113.126 Y105.489 E98.09366
G0 F9000 X112.560 Y105.489
G1 F1200 X115.080 Y108.009 E98.52132
G0 F9000 X114.515 Y108.009
G1 F1200 X111.995 Y105.489 E98.94898
G0 F9000 X111.429 Y105.489
G1 F1200 X113.949 Y108.009 E99.37663
G0 F9000 X113.383 Y108.009
G1 F1200 X110.863 Y105.489 E99.80429
G0 F9000 X110.298 Y105.489
G1 F1200 X112.818 Y108.009 E100.23195
G0 F9000 X112.252 Y108.009
G1 F1200 X109.739 Y105.496 E100.65842
G0 F9000 X109.739 Y106.062
G1 F1200 X111.686 Y108.009 E100.98884
G0 F9000 X111.121 Y108.009
G1 F1200 X109.739 Y106.628 E101.22328
G0 F9000 X109.739 Y107.193
G1 F1200 X110.555 Y108.009 E101.36176
G0 F9000 X109.989 Y108.009
G1 F1200 X109.739 Y107.759 E101.40419
G0 F9000 X122.541 Y108.209
G0 X122.541 Y116.791
G0 X107.459 Y116.791
G0 X107.259 Y107.542
G1 F1200 X105.221 Y105.504 E101.75005
G0 F9000 X104.683 Y105.532
G1 F1200 X107.259 Y108.108 E102.18721
G0 F9000 X107.259 Y108.673
G1 F1200 X104.295 Y105.709 E102.69022
G0 F9000 X105.784 Y105.501
G1 F1200 X107.259 Y106.976 E102.94054
G0 F9000 X107.259 Y106.411
G1 F1200 X106.347 Y105.498 E103.09539
G0 F9000 X106.910 Y105.496
G1 F1200 X107.259 Y105.845 E103.15462
;LAYER:1
M106 S5
G0 F9000 X104.803 Y105.367 Z0.400
;TYPE:WALL-INNER
G1 F1500 X107.400 Y105.352 E103.25850
G1 X107.400 Y116.850 E103.71842
G1 X122.600 Y116.850 E104.32642
G1 X122.600 Y108.150 E104.67442
G1 X109.600 Y108.150 E105.19442
G1 X109.600 Y105.350 E105.30642
G1 X124.986 Y105.350 E105.92186
G1 X125.191 Y105.365 E105.93008
G1 X125.378 Y105.405 E105.93773
G1 X125.549 Y105.465 E105.94498
G1 X125.713 Y105.547 E105.95232
G1 X125.870 Y105.656 E105.95996
G1 X125.986 Y105.757 E105.96611
G1 X126.112 Y105.902 E105.97380
G1 X126.212 Y106.050 E105.98094
G1 X126.289 Y106.210 E105.98804
G1 X126.351 Y106.393 E105.99577
G1 X126.382 Y106.552 E106.00225
G1 X126.400 Y118.232 E106.46945
G1 X126.384 Y118.441 E106.47784
G1 X126.344 Y118.628 E106.48549
G1 X126.284 Y118.799 E106.49274
G1 X126.202 Y118.963 E106.50007
G1 X126.093 Y119.120 E106.50772
G1 X125.992 Y119.236 E106.51387
G1 X125.847 Y119.362 E106.52155
G1 X125.699 Y119.462 E106.52870
G1 X125.539 Y119.539 E106.53580
G1 X125.356 Y119.601 E106.54353
G1 X125.197 Y119.632 E106.55001
G1 X105.017 Y119.650 E107.35721
G1 X104.808 Y119.634 E107.36559
G1 X104.621 Y119.594 E107.37324
G1 X104.447 Y119.533 E107.38062
G1 X104.291 Y119.454 E107.38761
G1 X104.013 Y119.242 E107.40160
G1 X103.887 Y119.097 E107.40928
G1 X103.787 Y118.949 E107.41642
G1 X103.648 Y118.606 E107.43123
G1 X103.616 Y118.442 E107.43791
G1 X103.600 Y117.758 E107.46528
G1 X103.600 Y107.125 E107.89060
G1 X103.615 Y106.560 E107.91321
G1 X103.653 Y106.375 E107.92076
G1 X103.795 Y106.041 E107.93528
G1 X104.007 Y105.763 E107.94926
G1 X104.152 Y105.637 E107.95695
G1 X104.300 Y105.537 E107.96409
G1 X104.460 Y105.460 E107.97119
G1 X104.643 Y105.398 E107.97892
G1 X104.803 Y105.367 E107.98544
G0 F9000 X104.543 Y105.009
;TYPE:WALL-OUTER
G1 F1500 X104.761 Y104.967 E107.99432
G1 X107.800 Y104.950 E108.11588
G1 X107.800 Y116.450 E108.57588
G1 X122.200 Y116.450 E109.15188
G1 X122.200 Y108.550 E109.46788
G1 X109.200 Y108.550 E109.98788
G1 X109.200 Y104.950 E110.13188
G1 X125.000 Y104.950 E110.76388
G1 X125.247 Y104.968 E110.77379
G1 X125.486 Y105.019 E110.78357
G1 X125.706 Y105.096 E110.79289
G1 X125.921 Y105.205 E110.80253
G1 X126.112 Y105.337 E110.81182
G1 X126.269 Y105.474 E110.82015
G1 X126.431 Y105.660 E110.83002
G1 X126.555 Y105.844 E110.83889
G1 X126.662 Y106.062 E110.84861
G1 X126.740 Y106.293 E110.85836
