;FLAVOR:UltiGCode
;TIME:2584
;MATERIAL:2945
;MATERIAL2:0
;NOZZLE_DIAMETER:0.400000
;NOZZLE_DIAMETER2:0.400000

;Layer count: 98
;LAYER:0
M107
G0 F9000 X97.026 Y104.778 Z0.300
;TYPE:SKIRT
G1 F1200 X127.491 Y104.778 E3.65580
G1 X128.105 Y104.818 E3.72964
G1 X128.831 Y104.961 E3.81843
G1 X129.538 Y105.202 E3.90806
G1 X130.193 Y105.530 E3.99597
G1 X130.804 Y105.939 E4.08420
G1 X131.356 Y106.429 E4.17277
G1 X131.835 Y106.979 E4.26029
G1 X132.245 Y107.598 E4.34939
G1 X132.566 Y108.259 E4.43757
G1 X132.797 Y108.947 E4.52466
G1 X132.956 Y109.756 E4.62359
G1 X132.975 Y114.732 E5.22072
G1 X132.935 Y115.353 E5.29539
G1 X132.791 Y116.081 E5.38445
G1 X132.551 Y116.784 E5.47359
G1 X132.223 Y117.442 E5.56181
G1 X131.814 Y118.050 E5.64974
G1 X131.329 Y118.599 E5.73765
G1 X130.775 Y119.083 E5.82593
G1 X130.158 Y119.491 E5.91469
G1 X129.496 Y119.814 E6.00308
G1 X128.803 Y120.045 E6.09074
G1 X128.013 Y120.200 E6.18735
G1 X126.307 Y120.223 E6.39209
G1 X97.026 Y120.223 E9.90581
G1 X97.026 Y104.778 E11.75921
G0 F9000 X97.426 Y105.178
G1 F1200 X127.478 Y105.178 E15.36545
G1 X128.053 Y105.215 E15.43459
G1 X128.727 Y105.348 E15.51703
G1 X129.383 Y105.572 E15.60021
G1 X129.991 Y105.876 E15.68178
G1 X130.559 Y106.257 E15.76386
G1 X131.071 Y106.711 E15.84597
G1 X131.517 Y107.222 E15.92736
G1 X131.897 Y107.796 E16.00997
G1 X132.195 Y108.411 E16.09198
G1 X132.409 Y109.050 E16.17284
G1 X132.556 Y109.796 E16.26409
G1 X132.575 Y114.720 E16.85497
G1 X132.538 Y115.301 E16.92483
G1 X132.404 Y115.977 E17.00753
G1 X132.181 Y116.629 E17.09022
G1 X131.877 Y117.240 E17.17211
G1 X131.497 Y117.805 E17.25382
G1 X131.046 Y118.315 E17.33552
G1 X130.532 Y118.764 E17.41742
G1 X129.959 Y119.143 E17.49986
G1 X129.344 Y119.443 E17.58197
G1 X128.701 Y119.657 E17.66329
G1 X127.972 Y119.801 E17.75246
G1 X126.304 Y119.823 E17.95264
G1 X97.426 Y119.823 E21.41800
G1 X97.426 Y105.178 E23.17540
G10
G0 F9000 X101.226 Y108.978
;TYPE:WALL-INNER
G11
G1 F1200 X127.351 Y108.978 E26.31040
G1 X127.560 Y108.991 E26.33553
G1 X127.741 Y109.027 E26.35767
G1 X128.073 Y109.166 E26.40086
G1 X128.232 Y109.272 E26.42379
G1 X128.365 Y109.391 E26.44521
G1 X128.491 Y109.534 E26.46808
G1 X128.670 Y109.851 E26.51177
G1 X128.727 Y110.021 E26.53328
G1 X128.757 Y110.175 E26.55211
G1 X128.775 Y114.601 E27.08324
G1 X128.762 Y114.808 E27.10812
G1 X128.726 Y114.986 E27.12992
G1 X128.665 Y115.166 E27.15272
G1 X128.587 Y115.321 E27.17355
G1 X128.483 Y115.477 E27.19604
G1 X128.219 Y115.739 E27.24068
G1 X128.071 Y115.837 E27.26198
G1 X127.906 Y115.917 E27.28398
G1 X127.733 Y115.975 E27.30588
G1 X127.575 Y116.006 E27.32520
G1 X126.275 Y116.023 E27.48121
G1 X101.226 Y116.023 E30.48709
G1 X101.226 Y114.723 E30.64309
G1 X126.355 Y114.723 E33.65857
G1 X126.464 Y114.857 E33.67930
G1 X126.658 Y115.005 E33.70858
G1 X126.903 Y115.109 E33.74052
G1 X127.169 Y115.143 E33.77270
G1 X127.443 Y115.107 E33.80586
G1 X127.704 Y114.989 E33.84024
G1 X127.903 Y114.827 E33.87103
G1 X128.053 Y114.631 E33.90065
G1 X128.154 Y114.385 E33.93256
G1 X128.188 Y114.123 E33.96426
G1 X128.153 Y113.852 E33.99705
G1 X128.036 Y113.590 E34.03148
G1 X127.873 Y113.389 E34.06254
G1 X127.769 Y113.310 E34.07821
G1 X127.769 Y111.864 E34.25173
G1 X121.523 Y111.864 E35.00125
G1 X121.302 Y111.852 E35.02781
G1 X121.279 Y111.845 E35.03069
G1 X121.235 Y111.821 E35.03671
G1 X121.175 Y111.761 E35.04689
G1 X121.147 Y111.696 E35.05538
G1 X121.133 Y110.897 E35.15128
G1 X121.133 Y110.278 E35.22556
G1 X107.491 Y110.278 E36.86260
G1 X107.491 Y111.144 E36.96652
G1 X101.226 Y111.144 E37.71832
G1 X101.226 Y108.978 E37.97824
G0 F9000 X100.826 Y108.578
;TYPE:WALL-OUTER
G1 F1200 X127.362 Y108.578 E41.16256
G1 X127.616 Y108.594 E41.19310
G1 X127.844 Y108.639 E41.22099
G1 X128.067 Y108.716 E41.24930
G1 X128.280 Y108.822 E41.27785
G1 X128.470 Y108.949 E41.30527
G1 X128.651 Y109.110 E41.33434
G1 X128.809 Y109.291 E41.36317
G1 X128.937 Y109.485 E41.39106
G1 X129.040 Y109.696 E41.41924
G1 X129.116 Y109.924 E41.44808
G1 X129.157 Y110.133 E41.47364
G1 X129.175 Y114.610 E42.01088
G1 X129.159 Y114.864 E42.04142
G1 X129.114 Y115.092 E42.06931
G1 X129.037 Y115.314 E42.09751
G1 X128.933 Y115.524 E42.12563
G1 X128.798 Y115.724 E42.15458
G1 X128.648 Y115.895 E42.18188
G1 X128.462 Y116.057 E42.21148
G1 X128.271 Y116.183 E42.23893
G1 X128.055 Y116.289 E42.26781
G1 X127.829 Y116.364 E42.29638
G1 X127.619 Y116.405 E42.32206
G1 X126.280 Y116.423 E42.48275
G1 X100.826 Y116.423 E45.53723
G1 X100.826 Y114.323 E45.78923
G1 X126.590 Y114.323 E48.88091
G1 X126.645 Y114.445 E48.89697
G1 X126.745 Y114.568 E48.91599
G1 X126.860 Y114.656 E48.93337
G1 X127.008 Y114.719 E48.95267
G1 X127.169 Y114.740 E48.97216
G1 X127.332 Y114.718 E48.99189
G1 X127.492 Y114.646 E49.01295
G1 X127.614 Y114.546 E49.03188
G1 X127.703 Y114.430 E49.04942
G1 X127.764 Y114.282 E49.06863
G1 X127.785 Y114.123 E49.08788
G1 X127.764 Y113.961 E49.10748
G1 X127.692 Y113.801 E49.12854
G1 X127.592 Y113.678 E49.14756
G1 X127.477 Y113.590 E49.16493
G1 X127.369 Y113.544 E49.17902
G1 X127.369 Y112.264 E49.33262
G1 X121.519 Y112.264 E50.03462
G1 X121.231 Y112.248 E50.06923
G1 X121.122 Y112.215 E50.08290
G1 X121.010 Y112.154 E50.09820
G1 X120.917 Y112.078 E50.11262
G1 X120.838 Y111.980 E50.12772
G1 X120.780 Y111.870 E50.14265
G1 X120.748 Y111.758 E50.15662
G1 X120.733 Y110.897 E50.25996
G1 X120.733 Y110.678 E50.28624
G1 X107.891 Y110.678 E51.82728
G1 X107.891 Y111.544 E51.93120
G1 X100.826 Y111.544 E52.77900
G1 X100.826 Y108.578 E53.13492
G0 F9000 X101.481 Y109.117
;TYPE:SKIN
G1 F1200 X103.366 Y111.003 E53.45490
G0 F9000 X102.801 Y111.003
G1 F1200 X101.365 Y109.568 E53.69851
G0 F9000 X101.365 Y110.134
G1 F1200 X102.235 Y111.003 E53.84607
G0 F9000 X101.669 Y111.003
G1 F1200 X101.365 Y110.699 E53.89766
G0 F9000 X102.046 Y109.117
G1 F1200 X103.932 Y111.003 E54.21773
G0 F9000 X104.498 Y111.003
G1 F1200 X102.612 Y109.117 E54.53779
G0 F9000 X103.178 Y109.117
G1 F1200 X105.064 Y111.003 E54.85785
G0 F9000 X105.629 Y111.003
G1 F1200 X103.743 Y109.117 E55.17792
G0 F9000 X104.309 Y109.117
G1 F1200 X106.195 Y111.003 E55.49798
G0 F9000 X106.761 Y111.003
G1 F1200 X104.875 Y109.117 E55.81805
G0 F9000 X105.440 Y109.117
G1 F1200 X107.326 Y111.003 E56.13811
G0 F9000 X107.350 Y110.462
G1 F1200 X106.006 Y109.117 E56.36628
G0 F9000 X106.572 Y109.117
G1 F1200 X107.591 Y110.136 E56.53921
G0 F9000 X108.156 Y110.136
G1 F1200 X107.137 Y109.117 E56.71214
G0 F9000 X107.703 Y109.117
G1 F1200 X108.722 Y110.136 E56.88507
G0 F9000 X109.288 Y110.136
G1 F1200 X108.269 Y109.117 E57.05800
G0 F9000 X108.835 Y109.117
G1 F1200 X109.853 Y110.136 E57.23085
G0 F9000 X110.419 Y110.136
G1 F1200 X109.400 Y109.117 E57.40378
G0 F9000 X109.966 Y109.117
G1 F1200 X110.985 Y110.136 E57.57671
G0 F9000 X111.551 Y110.136
G1 F1200 X110.532 Y109.117 E57.74964
G0 F9000 X111.097 Y109.117
G1 F1200 X112.116 Y110.136 E57.92257
G0 F9000 X112.682 Y110.136
G1 F1200 X111.663 Y109.117 E58.09550
G0 F9000 X112.229 Y109.117
G1 F1200 X113.248 Y110.136 E58.26843
G0 F9000 X113.813 Y110.136
G1 F1200 X112.794 Y109.117 E58.44136
G0 F9000 X113.360 Y109.117
G1 F1200 X114.380 Y110.137 E58.61446
G0 F9000 X114.945 Y110.137
G1 F1200 X113.926 Y109.117 E58.78747
G0 F9000 X114.491 Y109.117
G1 F1200 X115.511 Y110.137 E58.96057
G0 F9000 X116.077 Y110.137
G1 F1200 X115.057 Y109.117 E59.13367
G0 F9000 X115.623 Y109.117
G1 F1200 X116.642 Y110.137 E59.30669
G0 F9000 X117.208 Y110.137
G1 F1200 X116.188 Y109.117 E59.47979
G0 F9000 X116.754 Y109.117
G1 F1200 X117.774 Y110.137 E59.65289
G0 F9000 X118.339 Y110.137
G1 F1200 X117.320 Y109.117 E59.82590
G0 F9000 X117.886 Y109.117
G1 F1200 X118.905 Y110.137 E59.99892
G0 F9000 X119.471 Y110.137
G1 F1200 X118.451 Y109.117 E60.17202
G0 F9000 X119.017 Y109.117
G1 F1200 X120.037 Y110.137 E60.34512
G0 F9000 X120.602 Y110.137
G1 F1200 X119.583 Y109.117 E60.51813
G0 F9000 X121.074 Y110.337
G0 X127.710 Y111.923
G0 X128.051 Y114.630
G0 X127.169 Y115.141
G0 X119.671 Y114.863
G1 F1200 X120.678 Y115.870 E60.68903
G0 F9000 X121.243 Y115.869
G1 F1200 X120.237 Y114.863 E60.85975
G0 F9000 X120.802 Y114.863
G1 F1200 X121.809 Y115.869 E61.03056
G0 F9000 X122.374 Y115.868
G1 F1200 X121.368 Y114.863 E61.20120
G0 F9000 X121.934 Y114.863
G1 F1200 X122.939 Y115.868 E61.37175
G0 F9000 X123.504 Y115.867
G1 F1200 X122.499 Y114.863 E61.54222
G0 F9000 X123.065 Y114.863
G1 F1200 X124.070 Y115.867 E61.71269
G0 F9000 X124.635 Y115.867
G1 F1200 X123.631 Y114.863 E61.88307
G0 F9000 X124.196 Y114.863
G1 F1200 X125.201 Y115.867 E62.05354
G0 F9000 X125.766 Y115.866
G1 F1200 X124.762 Y114.863 E62.22384
G0 F9000 X125.328 Y114.863
G1 F1200 X126.331 Y115.866 E62.39406
G0 F9000 X126.896 Y115.865
G1 F1200 X125.893 Y114.863 E62.56419
G0 F9000 X126.825 Y115.229
G1 F1200 X127.462 Y115.865 E62.67221
G0 F9000 X127.917 Y115.755
G1 F1200 X127.612 Y115.167 E62.75746
G1 X128.367 Y115.356 E62.83100
G1 X128.191 Y114.615 E62.89772
G1 X128.628 Y114.486 E62.95513
G1 X128.295 Y113.870 E63.03916
G0 F9000 X128.631 Y113.640
G1 F1200 X127.907 Y112.917 E63.16194
G0 F9000 X127.907 Y112.351
G1 F1200 X128.628 Y113.072 E63.28430
G0 F9000 X128.626 Y112.504
G1 F1200 X127.907 Y111.785 E63.40632
G0 F9000 X127.845 Y111.723
G1 F1200 X125.239 Y109.117 E63.84857
G0 F9000 X124.674 Y109.117
G1 F1200 X127.279 Y111.723 E64.29074
G0 F9000 X126.714 Y111.723
G1 F1200 X124.108 Y109.117 E64.73299
G0 F9000 X123.542 Y109.117
G1 F1200 X126.148 Y111.723 E65.17525
G0 F9000 X125.582 Y111.723
G1 F1200 X122.977 Y109.117 E65.61742
G0 F9000 X122.411 Y109.117
G1 F1200 X125.017 Y111.723 E66.05967
G0 F9000 X124.451 Y111.723
G1 F1200 X121.845 Y109.117 E66.50192
G0 F9000 X121.280 Y109.117
G1 F1200 X123.885 Y111.723 E66.94409
G0 F9000 X123.320 Y111.723
G1 F1200 X120.714 Y109.117 E67.38634
G0 F9000 X120.148 Y109.117
G1 F1200 X121.168 Y110.137 E67.55944
G0 F9000 X121.272 Y110.241
G1 F1200 X122.754 Y111.723 E67.81095
G0 F9000 X122.188 Y111.723
G1 F1200 X121.272 Y110.807 E67.96640
G0 F9000 X121.280 Y111.380
G1 F1200 X121.623 Y111.723 E68.02461
G0 F9000 X127.710 Y111.923
G0 X128.051 Y114.630
G0 X127.169 Y115.141
G0 X119.105 Y114.863
G1 F1200 X120.112 Y115.870 E68.19550
G0 F9000 X127.703 Y114.987
G0 X128.150 Y113.852
G0 X127.710 Y111.923
G0 X125.805 Y109.117
G1 F1200 X128.623 Y111.935 E68.67373
G0 F9000 X128.621 Y111.367
G1 F1200 X126.371 Y109.117 E69.05557
G0 F9000 X126.936 Y109.117
G1 F1200 X128.618 Y110.799 E69.34101
G0 F9000 X128.616 Y110.231
G1 F1200 X127.513 Y109.128 E69.52820
G0 F9000 X128.051 Y114.630
G0 X127.169 Y115.141
G0 X119.547 Y115.870
G1 F1200 X118.540 Y114.863 E69.69909
G0 F9000 X117.974 Y114.863
G1 F1200 X118.982 Y115.870 E69.87007
G0 F9000 X118.417 Y115.871
G1 F1200 X117.408 Y114.863 E70.04122
G0 F9000 X116.843 Y114.863
G1 F1200 X117.851 Y115.871 E70.21228
G0 F9000 X117.286 Y115.872
G1 F1200 X116.277 Y114.863 E70.38351
G0 F9000 X115.711 Y114.863
G1 F1200 X116.720 Y115.872 E70.55475
G0 F9000 X116.155 Y115.872
G1 F1200 X115.145 Y114.863 E70.72606
G0 F9000 X114.580 Y114.863
G1 F1200 X115.590 Y115.872 E70.89738
G0 F9000 X115.025 Y115.873
G1 F1200 X114.014 Y114.863 E71.06887
G0 F9000 X113.448 Y114.862
G1 F1200 X114.460 Y115.874 E71.24061
G0 F9000 X113.894 Y115.874
G1 F1200 X112.882 Y114.862 E71.41235
G0 F9000 X112.316 Y114.862
G1 F1200 X113.329 Y115.875 E71.58427
G0 F9000 X112.763 Y115.875
G1 F1200 X111.751 Y114.862 E71.75609
G0 F9000 X111.185 Y114.862
G1 F1200 X112.198 Y115.875 E71.92800
G0 F9000 X111.633 Y115.875
G1 F1200 X110.619 Y114.862 E72.10000
G0 F9000 X110.054 Y114.862
G1 F1200 X111.068 Y115.876 E72.27208
G0 F9000 X110.502 Y115.876
G1 F1200 X109.488 Y114.862 E72.44416
G0 F9000 X108.922 Y114.862
G1 F1200 X109.937 Y115.877 E72.61642
G0 F9000 X109.371 Y115.877
G1 F1200 X108.357 Y114.862 E72.78858
G0 F9000 X107.791 Y114.862
G1 F1200 X108.806 Y115.877 E72.96083
G0 F9000 X108.241 Y115.877
G1 F1200 X107.225 Y114.862 E73.13317
G0 F9000 X106.659 Y114.862
G1 F1200 X107.676 Y115.878 E73.30567
G0 F9000 X107.110 Y115.878
G1 F1200 X106.094 Y114.862 E73.47810
G0 F9000 X105.528 Y114.862
G1 F1200 X106.545 Y115.879 E73.65069
G0 F9000 X105.979 Y115.879
G1 F1200 X104.962 Y114.862 E73.82328
G0 F9000 X104.397 Y114.862
G1 F1200 X105.414 Y115.879 E73.99587
G0 F9000 X104.849 Y115.879
G1 F1200 X103.831 Y114.862 E74.16854
G0 F9000 X103.265 Y114.862
G1 F1200 X104.284 Y115.880 E74.34139
G0 F9000 X103.718 Y115.880
G1 F1200 X102.700 Y114.862 E74.51415
G0 F9000 X102.134 Y114.862
G1 F1200 X103.153 Y115.881 E74.68708
G0 F9000 X102.587 Y115.881
G1 F1200 X101.568 Y114.862 E74.86001
G0 F9000 X101.365 Y115.225
G1 F1200 X102.022 Y115.882 E74.97151
G0 F9000 X101.457 Y115.882
G1 F1200 X101.365 Y115.790 E74.98712
;LAYER:1
M106 S5
G0 F9000 X101.226 Y116.023 Z0.400
;TYPE:WALL-INNER
G1 F1500 X101.226 Y114.723 E75.03912
G1 X126.353 Y114.723 E76.04420
G1 X126.474 Y114.864 E76.05163
G1 X126.656 Y115.005 E76.06084
G1 X126.903 Y115.109 E76.07156
G1 X127.169 Y115.143 E76.08229
G1 X127.444 Y115.107 E76.09338
G1 X127.717 Y114.981 E76.10541
G1 X127.910 Y114.817 E76.11554
G1 X128.052 Y114.633 E76.12483
G1 X128.154 Y114.385 E76.13556
G1 X128.188 Y114.123 E76.14613
G1 X128.152 Y113.850 E76.15714
G1 X128.029 Y113.576 E76.16916
G1 X127.863 Y113.382 E76.17937
G1 X127.769 Y113.309 E76.18413
G1 X127.769 Y111.864 E76.24193
G1 X121.572 Y111.864 E76.48981
G1 X121.303 Y111.851 E76.50058
G1 X121.275 Y111.843 E76.50175
G1 X121.200 Y111.792 E76.50538
G1 X121.174 Y111.759 E76.50706
G1 X121.147 Y111.696 E76.50980
G1 X121.133 Y110.905 E76.54144
G1 X121.133 Y110.278 E76.56652
G1 X107.491 Y110.278 E77.11220
G1 X107.491 Y111.144 E77.14684
G1 X101.226 Y111.144 E77.39744
G1 X101.226 Y108.978 E77.48408
G1 X127.352 Y108.978 E78.52912
G1 X127.563 Y108.992 E78.53758
G1 X127.738 Y109.027 E78.54472
G1 X127.918 Y109.088 E78.55232
G1 X128.081 Y109.169 E78.55960
G1 X128.227 Y109.268 E78.56666
G1 X128.478 Y109.519 E78.58086
G1 X128.590 Y109.686 E78.58890
G1 X128.671 Y109.854 E78.59636
G1 X128.729 Y110.028 E78.60370
G1 X128.759 Y110.187 E78.61017
G1 X128.775 Y114.601 E78.78673
G1 X128.761 Y114.811 E78.79515
G1 X128.727 Y114.981 E78.80208
G1 X128.666 Y115.161 E78.80969
G1 X128.584 Y115.327 E78.81709
G1 X128.480 Y115.480 E78.82449
G1 X128.360 Y115.616 E78.83175
G1 X128.221 Y115.737 E78.83912
G1 X128.065 Y115.839 E78.84657
G1 X127.901 Y115.919 E78.85387
G1 X127.728 Y115.976 E78.86116
G1 X127.564 Y116.007 E78.86784
G1 X125.841 Y116.023 E78.93676
G1 X101.226 Y116.023 E79.92136
G0 F9000 X100.826 Y116.423
;TYPE:WALL-OUTER
G1 F1500 X100.826 Y114.323 E80.00536
G1 X126.591 Y114.323 E81.03596
G1 X126.649 Y114.453 E81.04165
G1 X126.751 Y114.573 E81.04795
G1 X126.859 Y114.656 E81.05340
G1 X127.008 Y114.719 E81.05987
G1 X127.169 Y114.740 E81.06637
G1 X127.332 Y114.718 E81.07295
G1 X127.500 Y114.641 E81.08034
G1 X127.619 Y114.540 E81.08658
G1 X127.703 Y114.431 E81.09209
G1 X127.764 Y114.282 E81.09853
G1 X127.785 Y114.123 E81.10494
G1 X127.763 Y113.961 E81.11148
G1 X127.688 Y113.793 E81.11884
G1 X127.586 Y113.673 E81.12514
G1 X127.478 Y113.590 E81.13059
G1 X127.369 Y113.544 E81.13532
G1 X127.369 Y112.264 E81.18652
G1 X121.575 Y112.264 E81.41828
G1 X121.233 Y112.248 E81.43197
G1 X121.117 Y112.213 E81.43682
G1 X121.014 Y112.157 E81.44151
G1 X120.914 Y112.074 E81.44671
G1 X120.836 Y111.976 E81.45172
G1 X120.780 Y111.869 E81.45655
G1 X120.748 Y111.756 E81.46125
G1 X120.733 Y110.905 E81.49529
G1 X120.733 Y110.678 E81.50437
G1 X107.891 Y110.678 E82.01805
G1 X107.891 Y111.544 E82.05269
G1 X100.826 Y111.544 E82.33529
G1 X100.826 Y108.578 E82.45393
G1 X127.362 Y108.578 E83.51537
G1 X127.615 Y108.594 E83.52551
G1 X127.846 Y108.641 E83.53494
G1 X128.069 Y108.717 E83.54437
G1 X128.278 Y108.821 E83.55370
G1 X128.475 Y108.954 E83.56321
G1 X128.658 Y109.116 E83.57299
G1 X128.794 Y109.271 E83.58124
G1 X128.940 Y109.491 E83.59180
G1 X129.041 Y109.699 E83.60105
G1 X129.118 Y109.930 E83.61079
G1 X129.159 Y110.148 E83.61966
G1 X129.175 Y114.610 E83.79814
G1 X129.159 Y114.863 E83.80828
G1 X129.112 Y115.094 E83.81771
G1 X129.036 Y115.316 E83.82710
G1 X128.932 Y115.526 E83.83647
G1 X128.796 Y115.726 E83.84614
G1 X128.646 Y115.897 E83.85524
G1 X128.460 Y116.059 E83.86511
G1 X128.269 Y116.184 E83.87424
G1 X128.052 Y116.290 E83.88390
G1 X127.823 Y116.366 E83.89355
