;FLAVOR:UltiGCode
;TIME:3641
;MATERIAL:4444
;MATERIAL2:0
;NOZZLE_DIAMETER:0.400000
;NOZZLE_DIAMETER2:0.400000

;Layer count: 68
;LAYER:0
M107
G0 F9000 X100.574 Y70.409 Z0.300
;TYPE:SKIRT
G1 F1200 X101.035 Y69.882 E0.08402
G1 X101.590 Y69.396 E0.17255
G1 X102.203 Y68.988 E0.26091
G1 X102.864 Y68.665 E0.34919
G1 X103.555 Y68.431 E0.43674
G1 X104.379 Y68.268 E0.53754
G1 X105.400 Y68.262 E0.66006
G1 X105.400 Y68.249 E0.66162
G1 X125.124 Y68.249 E3.02850
G1 X125.774 Y68.294 E3.10668
G1 X126.497 Y68.446 E3.19534
G1 X127.181 Y68.683 E3.28221
G1 X127.847 Y69.016 E3.37156
G1 X128.442 Y69.425 E3.45820
G1 X128.966 Y69.884 E3.54180
G1 X129.452 Y70.439 E3.63032
G1 X129.860 Y71.052 E3.71869
G1 X130.183 Y71.713 E3.80697
G1 X130.417 Y72.404 E3.89451
G1 X130.581 Y73.234 E3.99604
G1 X130.600 Y84.981 E5.40568
G1 X130.574 Y86.018 E5.53016
G1 X130.404 Y86.839 E5.63077
G1 X130.165 Y87.530 E5.71851
G1 X129.832 Y88.196 E5.80786
G1 X129.423 Y88.791 E5.89451
G1 X128.964 Y89.315 E5.97810
G1 X128.411 Y89.798 E6.06621
G1 X127.797 Y90.209 E6.15487
G1 X127.132 Y90.533 E6.24364
G1 X126.444 Y90.766 E6.33080
G1 X125.612 Y90.931 E6.43259
G1 X105.717 Y90.949 E8.81999
G1 X104.870 Y90.949 E8.92163
G1 X104.220 Y90.902 E8.99983
G1 X103.502 Y90.751 E9.08788
G1 X102.815 Y90.513 E9.17512
G1 X102.154 Y90.181 E9.26389
G1 X101.560 Y89.774 E9.35029
G1 X101.033 Y89.313 E9.43432
G1 X100.550 Y88.760 E9.52242
G1 X100.139 Y88.146 E9.61109
G1 X99.815 Y87.481 E9.69986
G1 X99.582 Y86.793 E9.78702
G1 X99.425 Y85.998 E9.88426
G1 X99.400 Y84.854 E10.02158
G1 X99.400 Y73.726 E11.35694
G1 X99.445 Y73.075 E11.43524
G1 X99.597 Y72.351 E11.52402
G1 X99.835 Y71.664 E11.61126
G1 X100.167 Y71.003 E11.70003
G1 X100.574 Y70.409 E11.78643
G0 F9000 X100.891 Y70.654
G1 F1200 X101.318 Y70.165 E11.86434
G1 X101.834 Y69.715 E11.94650
G1 X102.403 Y69.335 E12.02860
G1 X103.016 Y69.035 E12.11050
G1 X103.659 Y68.819 E12.19190
G1 X104.419 Y68.668 E12.28488
G1 X105.800 Y68.660 E12.45060
G1 X105.800 Y68.649 E12.45192
G1 X125.110 Y68.649 E14.76912
G1 X125.718 Y68.691 E14.84226
G1 X126.390 Y68.833 E14.92468
G1 X127.025 Y69.053 E15.00532
G1 X127.643 Y69.362 E15.08823
G1 X128.197 Y69.742 E15.16885
G1 X128.683 Y70.167 E15.24632
G1 X129.133 Y70.683 E15.32848
G1 X129.513 Y71.252 E15.41059
G1 X129.813 Y71.865 E15.49249
G1 X130.029 Y72.508 E15.57388
G1 X130.182 Y73.274 E15.66762
G1 X130.200 Y84.976 E17.07186
G1 X130.175 Y85.972 E17.19142
G1 X130.018 Y86.732 E17.28454
G1 X129.795 Y87.374 E17.36610
G1 X129.486 Y87.992 E17.44901
G1 X129.106 Y88.546 E17.52963
G1 X128.681 Y89.032 E17.60710
G1 X128.168 Y89.480 E17.68883
G1 X127.598 Y89.862 E17.77117
G1 X126.980 Y90.163 E17.85366
G1 X126.340 Y90.378 E17.93468
G1 X125.573 Y90.531 E18.02853
G1 X105.716 Y90.549 E20.41137
G1 X104.885 Y90.549 E20.51109
G1 X104.275 Y90.505 E20.58448
G1 X103.609 Y90.364 E20.66617
G1 X102.971 Y90.143 E20.74720
G1 X102.358 Y89.835 E20.82952
G1 X101.805 Y89.457 E20.90990
G1 X101.316 Y89.030 E20.98781
G1 X100.868 Y88.517 E21.06954
G1 X100.486 Y87.947 E21.15188
G1 X100.185 Y87.329 E21.23436
G1 X99.970 Y86.689 E21.31538
G1 X99.824 Y85.954 E21.40531
G1 X99.800 Y84.849 E21.53794
G1 X99.800 Y73.739 E22.87114
G1 X99.842 Y73.130 E22.94439
G1 X99.984 Y72.458 E23.02681
G1 X100.205 Y71.820 E23.10783
G1 X100.513 Y71.207 E23.19016
G1 X100.891 Y70.654 E23.27054
G10
G0 F9000 X104.010 Y72.860
;TYPE:WALL-INNER
G11
G1 F1200 X104.150 Y72.738 E23.29282
G1 X104.299 Y72.638 E23.31436
G1 X104.462 Y72.558 E23.33614
G1 X104.640 Y72.498 E23.35869
G1 X104.805 Y72.466 E23.37885
G1 X107.400 Y72.452 E23.69026
G1 X107.400 Y83.949 E25.06990
G1 X122.600 Y83.949 E26.89390
G1 X122.600 Y75.249 E27.93790
G1 X109.600 Y75.249 E29.49790
G1 X109.600 Y72.449 E29.83390
G1 X124.974 Y72.449 E31.67878
G1 X125.196 Y72.464 E31.70548
G1 X125.369 Y72.501 E31.72671
G1 X125.547 Y72.563 E31.74933
G1 X125.706 Y72.642 E31.77063
G1 X125.864 Y72.750 E31.79360
G1 X125.988 Y72.859 E31.81341
G1 X126.110 Y72.999 E31.83569
G1 X126.210 Y73.148 E31.85723
G1 X126.290 Y73.311 E31.87902
G1 X126.350 Y73.489 E31.90156
G1 X126.382 Y73.653 E31.92161
G1 X126.400 Y84.923 E33.27401
G1 X126.384 Y85.535 E33.34748
G1 X126.346 Y85.722 E33.37037
G1 X126.285 Y85.896 E33.39250
G1 X126.206 Y86.055 E33.41381
G1 X126.098 Y86.213 E33.43677
G1 X125.989 Y86.337 E33.45658
G1 X125.852 Y86.457 E33.47844
G1 X125.695 Y86.562 E33.50110
G1 X125.540 Y86.637 E33.52177
G1 X125.359 Y86.699 E33.54473
G1 X125.195 Y86.731 E33.56478
G1 X105.015 Y86.749 E35.98638
G1 X104.810 Y86.734 E36.01104
G1 X104.630 Y86.696 E36.03312
G1 X104.449 Y86.634 E36.05608
G1 X104.138 Y86.449 E36.09950
G1 X104.011 Y86.338 E36.11974
G1 X103.891 Y86.201 E36.14160
G1 X103.786 Y86.044 E36.16426
G1 X103.711 Y85.889 E36.18493
G1 X103.649 Y85.708 E36.20788
G1 X103.616 Y85.539 E36.22855
G1 X103.600 Y84.815 E36.31545
G1 X103.600 Y73.875 E37.62825
G1 X103.615 Y73.652 E37.65507
G1 X103.652 Y73.479 E37.67630
G1 X103.714 Y73.298 E37.69926
G1 X103.899 Y72.987 E37.74268
G1 X104.010 Y72.860 E37.76292
G0 F9000 X103.582 Y72.742
;TYPE:WALL-OUTER
G1 F1200 X103.727 Y72.576 E37.78937
G1 X103.909 Y72.417 E37.81837
G1 X104.097 Y72.292 E37.84546
G1 X104.311 Y72.187 E37.87407
G1 X104.542 Y72.110 E37.90329
G1 X104.761 Y72.066 E37.93009
G1 X107.800 Y72.050 E38.29478
G1 X107.800 Y83.549 E39.67466
G1 X122.200 Y83.549 E41.40266
G1 X122.200 Y75.649 E42.35066
G1 X109.200 Y75.649 E43.91066
G1 X109.200 Y72.049 E44.34266
G1 X124.986 Y72.049 E46.23698
G1 X125.250 Y72.067 E46.26873
G1 X125.479 Y72.115 E46.29681
G1 X125.704 Y72.194 E46.32542
G1 X125.912 Y72.297 E46.35328
G1 X126.102 Y72.428 E46.38097
G1 X126.272 Y72.576 E46.40802
G1 X126.431 Y72.758 E46.43702
G1 X126.556 Y72.946 E46.46411
G1 X126.660 Y73.158 E46.49245
G1 X126.738 Y73.391 E46.52193
G1 X126.782 Y73.610 E46.54874
G1 X126.800 Y84.933 E47.90750
G1 X126.783 Y85.582 E47.98541
G1 X126.734 Y85.824 E48.01504
G1 X126.654 Y86.053 E48.04414
G1 X126.551 Y86.260 E48.07189
G1 X126.419 Y86.453 E48.09995
G1 X126.272 Y86.621 E48.12674
G1 X126.090 Y86.780 E48.15574
G1 X125.903 Y86.905 E48.18273
G1 X125.688 Y87.010 E48.21144
G1 X125.457 Y87.087 E48.24066
G1 X125.238 Y87.131 E48.26746
G1 X105.000 Y87.149 E50.69603
G1 X104.756 Y87.131 E50.72539
G1 X104.520 Y87.082 E50.75431
G1 X104.298 Y87.005 E50.78251
G1 X104.085 Y86.898 E50.81111
G1 X103.895 Y86.767 E50.83880
G1 X103.727 Y86.621 E50.86551
G1 X103.568 Y86.439 E50.89451
G1 X103.442 Y86.250 E50.92177
G1 X103.338 Y86.037 E50.95022
G1 X103.261 Y85.806 E50.97944
G1 X103.217 Y85.585 E51.00648
G1 X103.200 Y84.815 E51.09890
G1 X103.200 Y73.863 E52.41314
G1 X103.218 Y73.598 E52.44501
G1 X103.343 Y73.147 E52.50117
G1 X103.450 Y72.934 E52.52978
G1 X103.582 Y72.742 E52.55774
G0 F9000 X103.970 Y73.140
;TYPE:SKIN
G1 F1200 X107.259 Y76.429 E53.11590
G0 F9000 X107.259 Y75.864
G1 F1200 X104.240 Y72.845 E53.62824
G0 F9000 X104.615 Y72.654
G1 F1200 X107.259 Y75.298 E54.07694
G0 F9000 X107.259 Y74.732
G1 F1200 X105.131 Y72.605 E54.43799
G0 F9000 X105.694 Y72.602
G1 F1200 X107.259 Y74.167 E54.70358
G0 F9000 X107.259 Y73.601
G1 F1200 X106.256 Y72.598 E54.87379
G0 F9000 X106.819 Y72.595
G1 F1200 X107.259 Y73.035 E54.94846
G0 F9000 X107.459 Y83.890
G0 X122.541 Y83.890
G0 X122.541 Y75.308
G0 X109.738 Y73.252
G1 F1200 X111.595 Y75.108 E55.26352
G0 F9000 X111.029 Y75.108
G1 F1200 X109.738 Y73.817 E55.48261
G0 F9000 X109.738 Y74.383
G1 F1200 X110.464 Y75.108 E55.60573
G0 F9000 X109.898 Y75.108
G1 F1200 X109.738 Y74.949 E55.63280
G0 F9000 X109.738 Y72.686
G1 F1200 X112.161 Y75.108 E56.04391
G0 F9000 X112.726 Y75.108
G1 F1200 X110.207 Y72.589 E56.47140
G0 F9000 X110.773 Y72.589
G1 F1200 X113.292 Y75.108 E56.89889
G0 F9000 X113.858 Y75.108
G1 F1200 X111.338 Y72.589 E57.32646
G0 F9000 X111.904 Y72.589
G1 F1200 X114.424 Y75.108 E57.75404
G0 F9000 X114.989 Y75.108
G1 F1200 X112.470 Y72.589 E58.18153
G0 F9000 X113.035 Y72.589
G1 F1200 X115.555 Y75.108 E58.60910
G0 F9000 X116.121 Y75.108
G1 F1200 X113.601 Y72.589 E59.03667
G0 F9000 X114.167 Y72.589
G1 F1200 X116.686 Y75.108 E59.46416
G0 F9000 X117.252 Y75.108
G1 F1200 X114.733 Y72.589 E59.89165
G0 F9000 X115.298 Y72.589
G1 F1200 X117.818 Y75.108 E60.31922
G0 F9000 X118.383 Y75.108
G1 F1200 X115.864 Y72.589 E60.74671
G0 F9000 X116.430 Y72.589
G1 F1200 X118.949 Y75.108 E61.17420
G0 F9000 X119.515 Y75.108
G1 F1200 X116.995 Y72.589 E61.60177
G0 F9000 X117.561 Y72.589
G1 F1200 X120.080 Y75.108 E62.02926
G0 F9000 X120.646 Y75.108
G1 F1200 X118.127 Y72.589 E62.45675
G0 F9000 X118.692 Y72.589
G1 F1200 X121.212 Y75.108 E62.88432
G0 F9000 X121.777 Y75.108
G1 F1200 X119.258 Y72.589 E63.31181
G0 F9000 X119.824 Y72.589
G1 F1200 X122.343 Y75.108 E63.73930
G0 F9000 X122.739 Y75.504
G1 F1200 X126.250 Y79.015 E64.33514
G0 F9000 X126.249 Y78.449
G1 F1200 X120.389 Y72.589 E65.32961
G0 F9000 X120.955 Y72.589
G1 F1200 X126.248 Y77.882 E66.22786
G0 F9000 X126.247 Y77.315
G1 F1200 X121.521 Y72.589 E67.02989
G0 F9000 X122.086 Y72.589
G1 F1200 X126.246 Y76.749 E67.73587
G0 F9000 X126.245 Y76.182
G1 F1200 X122.652 Y72.589 E68.34562
G0 F9000 X123.218 Y72.589
G1 F1200 X126.244 Y75.615 E68.85915
G0 F9000 X126.244 Y75.049
G1 F1200 X123.783 Y72.589 E69.27671
G0 F9000 X124.349 Y72.589
G1 F1200 X126.242 Y74.482 E69.59796
G0 F9000 X126.241 Y73.915
G1 F1200 X124.915 Y72.589 E69.82299
G0 F9000 X125.699 Y72.807
G1 F1200 X126.046 Y73.154 E69.88188
G0 F9000 X122.739 Y76.070
G1 F1200 X126.251 Y79.582 E70.47789
G0 F9000 X126.251 Y80.148
G1 F1200 X122.739 Y76.636 E71.07389
G0 F9000 X122.739 Y77.201
G1 F1200 X126.253 Y80.715 E71.67024
G0 F9000 X126.253 Y81.281
G1 F1200 X122.739 Y77.767 E72.26658
G0 F9000 X122.739 Y78.333
G1 F1200 X126.254 Y81.848 E72.86310
G0 F9000 X126.256 Y82.415
G1 F1200 X122.739 Y78.898 E73.45995
G0 F9000 X122.739 Y79.464
G1 F1200 X126.256 Y82.981 E74.05681
G0 F9000 X126.257 Y83.548
G1 F1200 X122.739 Y80.030 E74.65383
G0 F9000 X122.739 Y80.596
G1 F1200 X126.258 Y84.115 E75.25103
G0 F9000 X126.259 Y84.681
G1 F1200 X122.739 Y81.161 E75.84839
G0 F9000 X122.739 Y81.727
G1 F1200 X126.251 Y85.238 E76.44431
G0 F9000 X126.189 Y85.743
G1 F1200 X122.739 Y82.293 E77.02980
G0 F9000 X122.739 Y82.858
G1 F1200 X125.995 Y86.114 E77.58236
G0 F9000 X125.703 Y86.387
G1 F1200 X122.739 Y83.424 E78.08528
G0 F9000 X122.739 Y83.990
G1 F1200 X125.314 Y86.564 E78.52219
G0 F9000 X124.774 Y86.590
G1 F1200 X122.272 Y84.089 E78.94671
G0 F9000 X121.707 Y84.089
G1 F1200 X124.209 Y86.591 E79.37131
G0 F9000 X123.643 Y86.591
G1 F1200 X121.141 Y84.089 E79.79591
G0 F9000 X120.575 Y84.089
G1 F1200 X123.079 Y86.592 E80.22077
G0 F9000 X122.514 Y86.593
G1 F1200 X120.010 Y84.089 E80.64571
G0 F9000 X119.444 Y84.089
G1 F1200 X121.949 Y86.593 E81.07074
G0 F9000 X121.383 Y86.593
G1 F1200 X118.878 Y84.089 E81.49577
G0 F9000 X118.313 Y84.089
G1 F1200 X120.818 Y86.594 E81.92088
G0 F9000 X120.253 Y86.595
G1 F1200 X117.747 Y84.089 E82.34616
G0 F9000 X117.181 Y84.089
G1 F1200 X119.687 Y86.595 E82.77145
G0 F9000 X119.122 Y86.595
G1 F1200 X116.616 Y84.089 E83.19673
G0 F9000 X116.050 Y84.089
G1 F1200 X118.557 Y86.596 E83.62218
G0 F9000 X117.992 Y86.596
G1 F1200 X115.484 Y84.089 E84.04772
G0 F9000 X114.918 Y84.089
G1 F1200 X117.427 Y86.597 E84.47342
G0 F9000 X116.862 Y86.597
G1 F1200 X114.353 Y84.089 E84.89913
G0 F9000 X113.787 Y84.089
G1 F1200 X116.297 Y86.598 E85.32501
G0 F9000 X115.731 Y86.598
G1 F1200 X113.221 Y84.089 E85.75088
G0 F9000 X112.656 Y84.089
G1 F1200 X115.166 Y86.599 E86.17684
G0 F9000 X114.601 Y86.600
G1 F1200 X112.090 Y84.089 E86.60298
G0 F9000 X111.524 Y84.089
G1 F1200 X114.035 Y86.600 E87.02911
G0 F9000 X113.470 Y86.600
G1 F1200 X110.959 Y84.089 E87.45524
G0 F9000 X110.393 Y84.089
G1 F1200 X112.905 Y86.601 E87.88154
G0 F9000 X112.340 Y86.601
G1 F1200 X109.827 Y84.089 E88.30792
G0 F9000 X109.262 Y84.089
G1 F1200 X111.775 Y86.602 E88.73439
G0 F9000 X111.210 Y86.602
G1 F1200 X108.696 Y84.089 E89.16095
G0 F9000 X108.130 Y84.089
G1 F1200 X110.645 Y86.603 E89.58767
G0 F9000 X110.079 Y86.603
G1 F1200 X107.565 Y84.089 E90.01431
G0 F9000 X107.259 Y83.783
G1 F1200 X103.738 Y80.262 E90.61185
G0 F9000 X103.738 Y79.697
G1 F1200 X107.259 Y83.217 E91.20930
G0 F9000 X107.259 Y82.652
G1 F1200 X103.738 Y79.131 E91.80683
G0 F9000 X103.738 Y78.565
G1 F1200 X107.259 Y82.086 E92.40436
G0 F9000 X107.259 Y81.520
G1 F1200 X103.738 Y78.000 E93.00181
G0 F9000 X103.738 Y77.434
G1 F1200 X107.259 Y80.955 E93.59934
G0 F9000 X107.259 Y80.389
G1 F1200 X103.738 Y76.868 E94.19688
G0 F9000 X103.738 Y76.303
G1 F1200 X107.259 Y79.823 E94.79433
G0 F9000 X107.259 Y79.258
G1 F1200 X103.738 Y75.737 E95.39186
G0 F9000 X103.738 Y75.171
G1 F1200 X107.259 Y78.692 E95.98939
G0 F9000 X107.259 Y78.126
G1 F1200 X103.738 Y74.606 E96.58684
G0 F9000 X103.738 Y74.040
G1 F1200 X107.259 Y77.561 E97.18438
G0 F9000 X107.259 Y76.995
G1 F1200 X103.785 Y73.521 E97.77393
G0 F9000 X103.738 Y80.828
G1 F1200 X109.514 Y86.604 E98.75415
G0 F9000 X108.949 Y86.605
G1 F1200 X103.738 Y81.394 E99.63849
G0 F9000 X103.738 Y81.960
G1 F1200 X108.383 Y86.605 E100.42677
G0 F9000 X107.818 Y86.605
G1 F1200 X103.738 Y82.525 E101.11917
G0 F9000 X103.738 Y83.091
G1 F1200 X107.253 Y86.606 E101.71569
G0 F9000 X106.688 Y86.606
G1 F1200 X103.738 Y83.657 E102.21623
G0 F9000 X103.738 Y84.222
G1 F1200 X106.123 Y86.607 E102.62098
G0 F9000 X105.558 Y86.607
G1 F1200 X103.738 Y84.788 E102.92976
G0 F9000 X103.751 Y85.366
G1 F1200 X104.991 Y86.606 E103.14020
;LAYER:1
M106 S5
G0 F9000 X105.017 Y86.749 Z0.400
;TYPE:WALL-INNER
G1 F1500 X104.808 Y86.733 E103.14858
G1 X104.621 Y86.693 E103.15623
G1 X104.447 Y86.632 E103.16360
G1 X104.291 Y86.553 E103.17060
G1 X104.013 Y86.341 E103.18458
G1 X103.887 Y86.196 E103.19227
G1 X103.787 Y86.048 E103.19941
G1 X103.648 Y85.705 E103.21422
G1 X103.616 Y85.541 E103.22090
G1 X103.600 Y84.857 E103.24827
G1 X103.600 Y74.224 E103.67359
G1 X103.615 Y73.659 E103.69619
G1 X103.653 Y73.474 E103.70375
G1 X103.795 Y73.140 E103.71827
G1 X104.007 Y72.862 E103.73225
G1 X104.152 Y72.736 E103.73993
G1 X104.300 Y72.636 E103.74708
G1 X104.460 Y72.559 E103.75418
G1 X104.643 Y72.497 E103.76191
G1 X104.803 Y72.466 E103.76843
G1 X107.400 Y72.451 E103.87231
G1 X107.400 Y83.949 E104.33223
G1 X122.600 Y83.949 E104.94023
G1 X122.600 Y75.249 E105.28823
G1 X109.600 Y75.249 E105.80823
G1 X109.600 Y72.449 E105.92023
G1 X124.986 Y72.449 E106.53567
G1 X125.191 Y72.464 E106.54389
G1 X125.378 Y72.504 E106.55154
G1 X125.549 Y72.564 E106.55879
G1 X125.713 Y72.646 E106.56613
G1 X125.870 Y72.755 E106.57377
G1 X125.986 Y72.856 E106.57992
G1 X126.112 Y73.001 E106.58761
G1 X126.212 Y73.149 E106.59475
G1 X126.289 Y73.309 E106.60185
G1 X126.351 Y73.492 E106.60958
G1 X126.382 Y73.651 E106.61606
G1 X126.400 Y85.331 E107.08326
G1 X126.384 Y85.540 E107.09165
G1 X126.344 Y85.727 E107.09930
G1 X126.284 Y85.898 E107.10655
G1 X126.202 Y86.062 E107.11388
G1 X126.093 Y86.219 E107.12153
G1 X125.992 Y86.335 E107.12768
G1 X125.847 Y86.461 E107.13536
G1 X125.699 Y86.561 E107.14251
G1 X125.539 Y86.638 E107.14961
G1 X125.356 Y86.700 E107.15734
G1 X125.197 Y86.731 E107.16382
G1 X105.017 Y86.749 E107.97102
G0 F9000 X105.002 Y87.149
;TYPE:WALL-OUTER
G1 F1500 X104.752 Y87.130 E107.98105
G1 X104.513 Y87.079 E107.99082
G1 X104.286 Y87.000 E108.00044
G1 X104.089 Y86.900 E108.00927
G1 X103.730 Y86.624 E108.02739
G1 X103.568 Y86.438 E108.03725
G1 X103.442 Y86.251 E108.04627
G1 X103.337 Y86.036 E108.05584
G1 X103.259 Y85.805 E108.06560
G1 X103.217 Y85.586 E108.07451
G1 X103.200 Y84.857 E108.10368
G1 X103.200 Y74.213 E108.52944
G1 X103.216 Y73.617 E108.55329
G1 X103.268 Y73.363 E108.56366
G1 X103.348 Y73.135 E108.57333
G1 X103.448 Y72.938 E108.58216
G1 X103.724 Y72.579 E108.60028
G1 X103.910 Y72.417 E108.61014
G1 X104.097 Y72.291 E108.61916
G1 X104.312 Y72.186 E108.62873
G1 X104.543 Y72.108 E108.63849
G1 X104.761 Y72.066 E108.64737
G1 X107.800 Y72.049 E108.76893
G1 X107.800 Y83.549 E109.22893
G1 X122.200 Y83.549 E109.80493
G1 X122.200 Y75.649 E110.12093
G1 X109.200 Y75.649 E110.64093
G1 X109.200 Y72.049 E110.78493
G1 X125.000 Y72.049 E111.41693
G1 X125.247 Y72.067 E111.42684
G1 X125.486 Y72.118 E111.43661
G1 X125.706 Y72.195 E111.44593
G1 X125.921 Y72.304 E111.45558
G1 X126.112 Y72.436 E111.46486
G1 X126.269 Y72.573 E111.47320
