;FLAVOR:UltiGCode
;TIME:7942
;MATERIAL:10199
;MATERIAL2:0
;NOZZLE_DIAMETER:0.400000
;NOZZLE_DIAMETER2:0.400000

;Layer count: 188
;LAYER:0
M107
G0 F9000 X90.800 Y86.800 Z0.300
;TYPE:SKIRT
G1 F1200 X139.200 Y86.800 E5.80800
G1 X139.200 Y138.200 E11.97600
G1 X90.800 Y138.200 E17.78400
G1 X90.800 Y86.800 E23.95200
G10
G0 F9000 X94.600 Y90.600
;TYPE:WALL-INNER
G11
G1 F1200 X135.400 Y90.600 E28.84800
G1 X135.400 Y134.400 E34.10400
G1 X94.600 Y134.400 E39.00000
G1 X94.600 Y90.600 E44.25600
G0 F9000 X98.239 Y96.816
G1 F1200 X97.884 Y97.153 E44.31474
G1 X97.617 Y97.564 E44.37355
G1 X97.453 Y98.022 E44.43193
G1 X97.396 Y98.506 E44.49041
G1 X97.455 Y98.992 E44.54916
G1 X97.623 Y99.451 E44.60781
G1 X97.892 Y99.858 E44.66636
G1 X98.250 Y100.193 E44.72519
G1 X98.674 Y100.435 E44.78377
G1 X99.141 Y100.573 E44.84221
G1 X99.630 Y100.601 E44.90099
G1 X100.112 Y100.514 E44.95976
G1 X100.557 Y100.319 E45.01806
G1 X100.949 Y100.027 E45.07672
G1 X101.262 Y99.651 E45.13543
G1 X101.479 Y99.215 E45.19387
G1 X101.589 Y98.753 E45.25086
G1 X101.591 Y98.306 E45.30450
G1 X101.584 Y98.223 E45.31449
G1 X101.475 Y97.773 E45.37006
G1 X101.255 Y97.338 E45.42855
G1 X100.939 Y96.965 E45.48722
G1 X100.546 Y96.674 E45.54590
G1 X100.097 Y96.484 E45.60440
G1 X99.617 Y96.400 E45.66288
G1 X99.128 Y96.429 E45.72166
G1 X98.661 Y96.571 E45.78023
G1 X98.239 Y96.816 E45.83879
G0 F9000 X99.617 Y96.402
G0 X100.937 Y96.966
G0 X101.590 Y98.308
G0 X106.916 Y104.997
G1 F1200 X106.191 Y105.705 E45.96039
G1 X105.528 Y106.471 E46.08196
G1 X104.931 Y107.290 E46.20358
G1 X104.405 Y108.156 E46.32517
G1 X103.954 Y109.064 E46.44683
G1 X103.579 Y110.006 E46.56850
G1 X103.286 Y110.976 E46.69009
G1 X103.073 Y111.967 E46.81173
G1 X102.945 Y112.972 E46.93330
G1 X102.901 Y113.961 E47.05210
G1 X102.900 Y114.018 E47.05894
G1 X102.942 Y114.996 E47.17641
G1 X103.067 Y116.001 E47.29794
G1 X103.276 Y116.993 E47.41959
G1 X103.568 Y117.963 E47.54115
G1 X103.940 Y118.907 E47.66291
G1 X104.389 Y119.814 E47.78435
G1 X104.912 Y120.682 E47.90596
G1 X105.507 Y121.503 E48.02763
G1 X106.168 Y122.271 E48.14923
G1 X106.892 Y122.981 E48.27091
G1 X107.672 Y123.628 E48.39252
G1 X108.503 Y124.207 E48.51406
G1 X109.380 Y124.715 E48.63568
G1 X110.296 Y125.147 E48.75721
G1 X111.245 Y125.503 E48.87884
G1 X112.221 Y125.777 E49.00049
G1 X113.218 Y125.967 E49.12228
G1 X114.224 Y126.074 E49.24368
G1 X115.218 Y126.097 E49.36299
G1 X115.274 Y126.097 E49.36971
G1 X116.249 Y126.036 E49.48694
G1 X117.251 Y125.889 E49.60847
G1 X118.238 Y125.659 E49.73008
G1 X119.201 Y125.346 E49.85159
G1 X120.137 Y124.956 E49.97327
G1 X121.025 Y124.493 E50.09345
G1 X121.893 Y123.945 E50.21663
G1 X122.700 Y123.333 E50.33817
G1 X123.455 Y122.657 E50.45978
G1 X124.148 Y121.919 E50.58126
G1 X124.768 Y121.138 E50.70092
G1 X125.340 Y120.282 E50.82447
G1 X125.830 Y119.395 E50.94607
G1 X126.244 Y118.469 E51.06779
G1 X126.579 Y117.512 E51.18946
G1 X126.831 Y116.530 E51.31112
G1 X127.002 Y115.532 E51.43262
G1 X127.088 Y114.523 E51.55414
G1 X127.090 Y113.526 E51.67378
G1 X127.088 Y113.469 E51.68063
G1 X127.007 Y112.499 E51.79743
G1 X126.839 Y111.501 E51.91888
G1 X126.589 Y110.519 E52.04048
G1 X126.257 Y109.562 E52.16203
G1 X125.845 Y108.635 E52.28376
G1 X125.358 Y107.746 E52.40540
G1 X124.798 Y106.902 E52.52695
G1 X124.170 Y106.106 E52.64862
G1 X123.478 Y105.366 E52.77019
G1 X122.725 Y104.688 E52.89178
G1 X121.919 Y104.073 E53.01344
G1 X121.074 Y103.536 E53.13359
G1 X120.166 Y103.059 E53.25667
G1 X119.232 Y102.665 E53.37831
G1 X118.269 Y102.351 E53.49986
G1 X117.283 Y102.118 E53.62144
G1 X116.281 Y101.968 E53.74302
G1 X115.285 Y101.905 E53.86278
G1 X115.229 Y101.903 E53.86950
G1 X114.257 Y101.923 E53.98617
G1 X113.249 Y102.028 E54.10778
G1 X112.253 Y102.215 E54.22939
G1 X111.277 Y102.487 E54.35097
G1 X110.326 Y102.839 E54.47266
G1 X109.409 Y103.269 E54.59420
G1 X108.530 Y103.776 E54.71596
G1 X107.710 Y104.344 E54.83567
G1 X107.666 Y104.377 E54.84227
G1 X106.916 Y104.997 E54.95904
G0 F9000 X110.326 Y102.840
G0 X114.257 Y101.923
G0 X128.453 Y98.992
G1 F1200 X128.622 Y99.451 E55.01773
G1 X128.891 Y99.858 E55.07627
G1 X129.249 Y100.193 E55.13511
G1 X129.673 Y100.435 E55.19369
G1 X130.140 Y100.573 E55.25213
G1 X130.629 Y100.601 E55.31091
G1 X131.111 Y100.514 E55.36968
G1 X131.558 Y100.319 E55.42820
G1 X131.948 Y100.027 E55.48667
G1 X132.261 Y99.651 E55.54537
G1 X132.478 Y99.215 E55.60382
G1 X132.588 Y98.753 E55.66081
G1 X132.590 Y98.306 E55.71445
G1 X132.583 Y98.223 E55.72444
G1 X132.474 Y97.773 E55.78000
G1 X132.254 Y97.338 E55.83850
G1 X131.938 Y96.966 E55.89707
G1 X131.546 Y96.674 E55.95573
G1 X131.096 Y96.484 E56.01434
G1 X130.616 Y96.400 E56.07282
G1 X130.127 Y96.429 E56.13160
G1 X129.660 Y96.571 E56.19017
G1 X129.238 Y96.816 E56.24873
G1 X128.883 Y97.153 E56.30747
G1 X128.616 Y97.564 E56.36628
G1 X128.452 Y98.023 E56.42477
G1 X128.396 Y98.506 E56.48312
G1 X128.453 Y98.992 E56.54184
G0 F9000 X130.127 Y127.428
G1 F1200 X129.660 Y127.570 E56.60041
G1 X129.238 Y127.815 E56.65897
G1 X128.883 Y128.152 E56.71771
G1 X128.616 Y128.563 E56.77652
G1 X128.452 Y129.022 E56.83501
G1 X128.396 Y129.506 E56.89348
G1 X128.453 Y129.991 E56.95208
G1 X128.622 Y130.450 E57.01077
G1 X128.891 Y130.857 E57.06932
G1 X129.249 Y131.192 E57.12815
G1 X129.673 Y131.434 E57.18674
G1 X130.140 Y131.572 E57.24517
G1 X130.629 Y131.600 E57.30395
G1 X131.111 Y131.513 E57.36272
G1 X131.558 Y131.318 E57.42125
G1 X131.948 Y131.026 E57.47971
G1 X132.261 Y130.650 E57.53842
G1 X132.478 Y130.214 E57.59686
G1 X132.588 Y129.752 E57.65385
G1 X132.590 Y129.305 E57.70749
G1 X132.583 Y129.222 E57.71748
G1 X132.474 Y128.772 E57.77305
G1 X132.254 Y128.337 E57.83154
G1 X131.938 Y127.965 E57.89011
G1 X131.546 Y127.673 E57.94877
G1 X131.096 Y127.483 E58.00739
G1 X130.616 Y127.399 E58.06586
G1 X130.127 Y127.428 E58.12464
G0 F9000 X101.591 Y129.305
G1 F1200 X101.584 Y129.222 E58.13464
G1 X101.475 Y128.772 E58.19020
G1 X101.255 Y128.337 E58.24870
G1 X100.939 Y127.964 E58.30736
G1 X100.546 Y127.673 E58.36604
G1 X100.097 Y127.483 E58.42455
G1 X99.617 Y127.399 E58.48302
G1 X99.128 Y127.428 E58.54181
G1 X98.661 Y127.570 E58.60038
G1 X98.239 Y127.815 E58.65894
G1 X97.884 Y128.152 E58.71767
G1 X97.617 Y128.563 E58.77649
G1 X97.453 Y129.021 E58.83486
G1 X97.396 Y129.506 E58.89346
G1 X97.455 Y129.991 E58.95209
G1 X97.623 Y130.450 E59.01075
G1 X97.892 Y130.857 E59.06929
G1 X98.250 Y131.192 E59.12813
G1 X98.674 Y131.434 E59.18671
G1 X99.141 Y131.572 E59.24515
G1 X99.630 Y131.600 E59.30392
G1 X100.112 Y131.513 E59.36270
G1 X100.557 Y131.318 E59.42100
G1 X100.949 Y131.026 E59.47965
G1 X101.262 Y130.650 E59.53836
G1 X101.479 Y130.214 E59.59680
G1 X101.589 Y129.752 E59.65379
G1 X101.591 Y129.305 E59.70743
G0 F9000 X101.191 Y129.322
;TYPE:WALL-OUTER
G1 F1200 X101.188 Y129.287 E59.71165
G1 X101.097 Y128.911 E59.75807
G1 X100.919 Y128.560 E59.80530
G1 X100.664 Y128.258 E59.85273
G1 X100.346 Y128.023 E59.90018
G1 X99.983 Y127.869 E59.94750
G1 X99.594 Y127.801 E59.99488
G1 X99.199 Y127.825 E60.04237
G1 X98.822 Y127.939 E60.08964
G1 X98.480 Y128.138 E60.13712
G1 X98.193 Y128.410 E60.18457
G1 X97.978 Y128.742 E60.23203
G1 X97.845 Y129.113 E60.27933
G1 X97.799 Y129.505 E60.32669
G1 X97.846 Y129.897 E60.37407
G1 X97.982 Y130.268 E60.42148
G1 X98.200 Y130.597 E60.46884
G1 X98.489 Y130.868 E60.51638
G1 X98.832 Y131.063 E60.56373
G1 X99.210 Y131.175 E60.61104
G1 X99.605 Y131.198 E60.65852
G1 X99.995 Y131.128 E60.70607
G1 X100.355 Y130.970 E60.75325
G1 X100.672 Y130.734 E60.80067
G1 X100.925 Y130.430 E60.84813
G1 X101.100 Y130.077 E60.89541
G1 X101.189 Y129.704 E60.94143
G1 X101.191 Y129.322 E60.98727
G0 F9000 X101.490 Y129.324
G0 X101.260 Y130.649
G0 X100.111 Y131.511
G0 X94.410 Y134.500
G0 X94.200 Y134.800
G1 F1200 X94.200 Y90.200 E66.33927
G1 X135.800 Y90.200 E71.33127
G1 X135.800 Y134.800 E76.68327
G1 X94.200 Y134.800 E81.67527
G0 F9000 X94.410 Y134.500
G0 X98.241 Y127.817
G0 X99.617 Y127.401
G0 X106.232 Y122.191
G0 X106.460 Y121.997
G1 F1200 X107.160 Y122.684 E81.79296
G1 X107.915 Y123.309 E81.91058
G1 X108.718 Y123.869 E82.02806
G1 X109.566 Y124.360 E82.14564
G1 X110.452 Y124.778 E82.26320
G1 X111.370 Y125.122 E82.38084
G1 X112.313 Y125.387 E82.49839
G1 X113.277 Y125.571 E82.61616
G1 X114.250 Y125.675 E82.73358
G1 X115.223 Y125.697 E82.85037
G1 X115.261 Y125.697 E82.85493
G1 X116.208 Y125.638 E82.96879
G1 X117.176 Y125.496 E83.08619
G1 X118.131 Y125.273 E83.20388
G1 X119.062 Y124.971 E83.32133
G1 X119.967 Y124.593 E83.43902
G1 X120.832 Y124.142 E83.55608
G1 X121.664 Y123.616 E83.67420
G1 X122.445 Y123.024 E83.79180
G1 X123.175 Y122.370 E83.90942
G1 X123.845 Y121.657 E84.02682
G1 X124.451 Y120.893 E84.14384
G1 X124.998 Y120.074 E84.26203
G1 X125.472 Y119.216 E84.37965
G1 X125.872 Y118.321 E84.49729
G1 X126.196 Y117.396 E84.61490
G1 X126.440 Y116.447 E84.73249
G1 X126.605 Y115.481 E84.85009
G1 X126.688 Y114.506 E84.96751
G1 X126.690 Y113.532 E85.08439
G1 X126.689 Y113.492 E85.08919
G1 X126.610 Y112.549 E85.20275
G1 X126.447 Y111.584 E85.32019
G1 X126.206 Y110.634 E85.43780
G1 X125.884 Y109.709 E85.55533
G1 X125.486 Y108.812 E85.67309
G1 X125.015 Y107.953 E85.79065
G1 X124.474 Y107.137 E85.90814
G1 X123.867 Y106.367 E86.02580
G1 X123.197 Y105.652 E86.14338
G1 X122.470 Y104.996 E86.26088
G1 X121.690 Y104.402 E86.37854
G1 X120.867 Y103.878 E86.49561
G1 X119.995 Y103.421 E86.61375
G1 X119.092 Y103.040 E86.73136
G1 X118.161 Y102.736 E86.84889
G1 X117.207 Y102.511 E86.96651
G1 X116.238 Y102.366 E87.08408
G1 X115.266 Y102.304 E87.20096
G1 X115.226 Y102.303 E87.20576
G1 X114.282 Y102.322 E87.31907
G1 X113.307 Y102.424 E87.43670
G1 X112.344 Y102.605 E87.55429
G1 X111.400 Y102.868 E87.67188
G1 X110.481 Y103.208 E87.78947
G1 X109.594 Y103.624 E87.90703
G1 X108.744 Y104.114 E88.02477
G1 X107.944 Y104.669 E88.14161
G1 X107.183 Y105.295 E88.25985
G1 X106.482 Y105.980 E88.37747
G1 X105.841 Y106.720 E88.49495
G1 X105.264 Y107.512 E88.61254
G1 X104.756 Y108.349 E88.73003
G1 X104.319 Y109.227 E88.84772
G1 X103.957 Y110.138 E88.96535
G1 X103.673 Y111.076 E89.08296
G1 X103.468 Y112.034 E89.20052
G1 X103.344 Y113.006 E89.31811
G1 X103.301 Y113.976 E89.43462
G1 X103.300 Y114.016 E89.43942
G1 X103.341 Y114.963 E89.55317
G1 X103.462 Y115.935 E89.67071
G1 X103.664 Y116.894 E89.78831
G1 X103.946 Y117.832 E89.90585
G1 X104.306 Y118.744 E90.02351
G1 X104.740 Y119.622 E90.14104
G1 X105.246 Y120.461 E90.25861
G1 X105.821 Y121.255 E90.37625
G1 X106.460 Y121.997 E90.49376
G0 F9000 X106.232 Y122.191
G0 X108.503 Y124.206
G0 X112.222 Y125.776
G0 X116.249 Y126.035
G0 X128.547 Y129.078
G0 X128.844 Y129.113
G1 F1200 X128.799 Y129.505 E90.54111
G1 X128.845 Y129.897 E90.58847
G1 X128.981 Y130.268 E90.63589
G1 X129.199 Y130.597 E90.68325
G1 X129.488 Y130.868 E90.73079
G1 X129.831 Y131.063 E90.77814
G1 X130.209 Y131.175 E90.82545
G1 X130.604 Y131.198 E90.87293
G1 X130.994 Y131.128 E90.92047
G1 X131.355 Y130.970 E90.96776
G1 X131.671 Y130.734 E91.01509
G1 X131.924 Y130.430 E91.06255
G1 X132.099 Y130.077 E91.10983
G1 X132.188 Y129.704 E91.15585
G1 X132.190 Y129.322 E91.20169
G1 X132.187 Y129.287 E91.20590
G1 X132.096 Y128.911 E91.25233
G1 X131.918 Y128.560 E91.29955
G1 X131.663 Y128.258 E91.34698
G1 X131.346 Y128.023 E91.39434
G1 X130.982 Y127.869 E91.44176
G1 X130.593 Y127.801 E91.48915
G1 X130.198 Y127.825 E91.53664
G1 X129.821 Y127.939 E91.58390
G1 X129.479 Y128.138 E91.63138
G1 X129.192 Y128.410 E91.67883
G1 X128.977 Y128.742 E91.72630
G1 X128.844 Y129.113 E91.77359
G0 F9000 X128.547 Y129.078
G0 X130.589 Y100.498
G0 X130.604 Y100.199
G1 F1200 X130.994 Y100.129 E91.82114
G1 X131.355 Y99.971 E91.86843
G1 X131.671 Y99.735 E91.91576
G1 X131.924 Y99.431 E91.96322
G1 X132.099 Y99.078 E92.01050
G1 X132.188 Y98.705 E92.05651
G1 X132.190 Y98.323 E92.10235
G1 X132.187 Y98.288 E92.10657
G1 X132.096 Y97.912 E92.15299
G1 X131.918 Y97.561 E92.20022
G1 X131.663 Y97.259 E92.24765
G1 X131.346 Y97.024 E92.29500
G1 X130.982 Y96.870 E92.34243
G1 X130.593 Y96.802 E92.38982
G1 X130.198 Y96.826 E92.43731
G1 X129.821 Y96.940 E92.48457
G1 X129.479 Y97.139 E92.53205
G1 X129.192 Y97.411 E92.57950
G1 X128.977 Y97.743 E92.62696
G1 X128.844 Y98.114 E92.67426
G1 X128.799 Y98.505 E92.72149
G1 X128.845 Y98.898 E92.76897
G1 X128.981 Y99.269 E92.81639
G1 X129.199 Y99.598 E92.86375
G1 X129.488 Y99.869 E92.91129
G1 X129.831 Y100.064 E92.95864
G1 X130.209 Y100.176 E93.00595
G1 X130.604 Y100.199 E93.05343
G0 F9000 X130.589 Y100.498
G0 X101.480 Y98.774
G0 X101.189 Y98.705
G1 F1200 X101.191 Y98.323 E93.09927
G1 X101.188 Y98.288 E93.10348
G1 X101.097 Y97.912 E93.14991
G1 X100.919 Y97.561 E93.19713
G1 X100.664 Y97.259 E93.24456
G1 X100.346 Y97.024 E93.29201
G1 X99.983 Y96.870 E93.33933
G1 X99.594 Y96.802 E93.38672
G1 X99.199 Y96.826 E93.43421
G1 X98.822 Y96.940 E93.48147
G1 X98.480 Y97.139 E93.52895
G1 X98.193 Y97.411 E93.57640
G1 X97.978 Y97.743 E93.62386
G1 X97.845 Y98.114 E93.67116
G1 X97.799 Y98.505 E93.71840
G1 X97.846 Y98.898 E93.76590
G1 X97.982 Y99.269 E93.81332
G1 X98.200 Y99.598 E93.86068
G1 X98.489 Y99.869 E93.90822
G1 X98.832 Y100.064 E93.95556
G1 X99.210 Y100.176 E94.00287
G1 X99.605 Y100.199 E94.05035
G1 X99.995 Y100.129 E94.09790
G1 X100.355 Y99.971 E94.14508
G1 X100.672 Y99.735 E94.19250
G1 X100.925 Y99.431 E94.23996
G1 X101.100 Y99.078 E94.28724
G1 X101.189 Y98.705 E94.33326
G0 F9000 X101.727 Y98.616
;TYPE:SKIN
G1 F1200 X107.468 Y104.356 E95.30746
G0 F9000 X107.158 Y104.612
G1 F1200 X101.648 Y99.102 E96.24253
G0 F9000 X101.488 Y99.508
G1 F1200 X106.849 Y104.869 E97.15233
G0 F9000 X106.560 Y105.146
G1 F1200 X101.271 Y99.857 E98.04990
G0 F9000 X101.672 Y97.995
G1 F1200 X107.792 Y104.115 E99.08850
G0 F9000 X108.126 Y103.883
G1 F1200 X94.982 Y90.740 E101.31902
G0 F9000 X94.739 Y91.062
G1 F1200 X100.001 Y96.324 E102.21201
G0 F9000 X100.073 Y90.740
G1 F1200 X111.588 Y102.254 E104.16609
G0 F9000 X111.151 Y102.383
G1 F1200 X99.508 Y90.740 E106.14197
G0 F9000 X98.942 Y90.740
G1 F1200 X110.738 Y102.536 E108.14382
G0 F9000 X110.325 Y102.688
G1 F1200 X98.376 Y90.740 E110.17155
G0 F9000 X97.811 Y90.740
G1 F1200 X109.936 Y102.865 E112.22923
G0 F9000 X109.552 Y103.046
G1 F1200 X97.245 Y90.740 E114.31771
G0 F9000 X96.679 Y90.740
G1 F1200 X109.179 Y103.239 E116.43895
G0 F9000 X108.820 Y103.446
G1 F1200 X96.114 Y90.740 E118.59523
G0 F9000 X95.548 Y90.740
G1 F1200 X108.460 Y103.652 E120.78646
G0 F9000 X106.275 Y105.426
G1 F1200 X101.006 Y100.158 E121.68056
G0 F9000 X100.682 Y100.399
G1 F1200 X105.997 Y105.714 E122.58254
G0 F9000 X105.734 Y106.017
G1 F1200 X100.300 Y100.583 E123.50472
G0 F9000 X99.854 Y100.702
G1 F1200 X105.472 Y106.320 E124.45813
G0 F9000 X105.228 Y106.642
G1 F1200 X99.308 Y100.722 E125.46279
G0 F9000 X98.538 Y100.518
G1 F1200 X104.989 Y106.969 E126.55756
G0 F9000 X104.758 Y107.304
G1 F1200 X94.739 Y97.285 E128.25784
G0 F9000 X94.739 Y97.850
G1 F1200 X104.545 Y107.656 E129.92197
G0 F9000 X104.331 Y108.008
G1 F1200 X94.739 Y98.416 E131.54979
G0 F9000 X94.739 Y98.982
G1 F1200 X104.137 Y108.380 E133.14468
G0 F9000 X103.950 Y108.758
G1 F1200 X94.739 Y99.547 E134.70784
G0 F9000 X97.278 Y98.693
G1 F1200 X94.739 Y96.153 E135.13881
G0 F9000 X94.739 Y95.588
G1 F1200 X97.298 Y98.147 E135.57309
G0 F9000 X97.418 Y97.701
G1 F1200 X94.739 Y95.022 E136.02773
G0 F9000 X94.739 Y94.456
G1 F1200 X97.606 Y97.323 E136.51427
G0 F9000 X97.844 Y96.995
G1 F1200 X94.739 Y93.891 E137.04112
G0 F9000 X94.739 Y93.325
G1 F1200 X98.135 Y96.720 E137.61736
G0 F9000 X98.488 Y96.508
G1 F1200 X94.739 Y92.759 E138.25359
G0 F9000 X94.739 Y92.193
G1 F1200 X98.897 Y96.351 E138.95922
G0 F9000 X99.384 Y96.273
G1 F1200 X94.739 Y91.628 E139.74750
G0 F9000 X94.739 Y96.719
G1 F1200 X97.475 Y99.455 E140.21182
G0 F9000 X94.739 Y100.113
G1 F1200 X103.771 Y109.145 E141.74460
G0 F9000 X103.610 Y109.549
G1 F1200 X94.739 Y100.679 E143.24997
G0 F9000 X94.739 Y101.244
G1 F1200 X103.449 Y109.954 E144.72811
G0 F9000 X103.317 Y110.388
G1 F1200 X94.739 Y101.810 E146.18385
G0 F9000 X94.739 Y102.376
G1 F1200 X103.185 Y110.822 E147.61718
G0 F9000 X103.077 Y111.280
G1 F1200 X94.739 Y102.942 E149.03218
G0 F9000 X94.739 Y103.507
G1 F1200 X102.978 Y111.746 E150.43039
G0 F9000 X102.898 Y112.232
G1 F1200 X94.739 Y104.073 E151.81502
