;FLAVOR:UltiGCode
;TIME:3003
;MATERIAL:4070
;MATERIAL2:0
;NOZZLE_DIAMETER:0.400000
;NOZZLE_DIAMETER2:0.400000

;Layer count: 198
;LAYER:0
M107
G0 F9000 X125.739 Y92.043 Z0.300
;TYPE:SKIRT
G1 F1200 X152.924 Y92.043 E3.26220
G1 X152.924 Y119.243 E6.52620
G1 X125.725 Y119.243 E9.79008
G1 X125.724 Y95.886 E12.59292
G1 X125.739 Y92.043 E13.05408
G0 F9000 X126.138 Y92.443
G1 F1200 X152.524 Y92.443 E16.22040
G1 X152.524 Y118.843 E19.38840
G1 X126.125 Y118.843 E22.55628
G1 X126.124 Y95.887 E25.31100
G1 X126.138 Y92.443 E25.72429
G10
G0 F9000 X129.924 Y96.243
;TYPE:WALL-INNER
G11
G1 F1200 X148.724 Y96.243 E27.98029
G1 X148.724 Y115.043 E30.23629
G1 X129.925 Y115.043 E32.49217
G1 X129.924 Y96.243 E34.74817
G0 F9000 X129.525 Y95.843
;TYPE:WALL-OUTER
G1 F1200 X149.124 Y95.843 E37.10005
G1 X149.124 Y115.443 E39.45205
G1 X129.525 Y115.443 E41.80393
G1 X129.525 Y95.843 E44.15593
G0 F9000 X130.063 Y96.405
;TYPE:SKIN
G1 F1200 X148.561 Y114.902 E47.29506
G0 F9000 X148.583 Y114.359
G1 F1200 X130.606 Y96.382 E50.34585
G0 F9000 X131.172 Y96.382
G1 F1200 X148.583 Y113.793 E53.30060
G0 F9000 X148.583 Y113.228
G1 F1200 X131.738 Y96.382 E56.15938
G0 F9000 X132.303 Y96.382
G1 F1200 X148.583 Y112.662 E58.92218
G0 F9000 X148.583 Y112.096
G1 F1200 X132.869 Y96.382 E61.58894
G0 F9000 X133.435 Y96.382
G1 F1200 X148.583 Y111.531 E64.15972
G0 F9000 X148.583 Y110.965
G1 F1200 X134.000 Y96.382 E66.63454
G0 F9000 X134.566 Y96.382
G1 F1200 X148.583 Y110.399 E69.01330
G0 F9000 X148.583 Y109.834
G1 F1200 X135.132 Y96.382 E71.29610
G0 F9000 X135.698 Y96.382
G1 F1200 X148.583 Y109.268 E73.48284
G0 F9000 X148.583 Y108.702
G1 F1200 X136.263 Y96.382 E75.57361
G0 F9000 X136.829 Y96.382
G1 F1200 X148.583 Y108.137 E77.56842
G0 F9000 X148.583 Y107.571
G1 F1200 X137.395 Y96.382 E79.46717
G0 F9000 X137.960 Y96.382
G1 F1200 X148.583 Y107.005 E81.26995
G0 F9000 X148.583 Y106.440
G1 F1200 X138.526 Y96.382 E82.97677
G0 F9000 X139.092 Y96.382
G1 F1200 X148.583 Y105.874 E84.58753
G0 F9000 X148.583 Y105.308
G1 F1200 X139.657 Y96.382 E86.10232
G0 F9000 X130.063 Y96.971
G1 F1200 X147.995 Y114.902 E89.14540
G0 F9000 X147.429 Y114.902
G1 F1200 X130.063 Y97.536 E92.09251
G0 F9000 X130.063 Y98.102
G1 F1200 X146.863 Y114.902 E94.94356
G0 F9000 X146.298 Y114.902
G1 F1200 X130.063 Y98.668 E97.69865
G0 F9000 X130.063 Y99.233
G1 F1200 X145.732 Y114.902 E100.35776
G0 F9000 X145.166 Y114.902
G1 F1200 X130.063 Y99.799 E102.92083
G0 F9000 X130.063 Y100.365
G1 F1200 X144.601 Y114.902 E105.38792
G0 F9000 X144.035 Y114.902
G1 F1200 X130.063 Y100.931 E107.75897
G0 F9000 X130.063 Y101.496
G1 F1200 X143.469 Y114.902 E110.03404
G0 F9000 X142.904 Y114.902
G1 F1200 X130.063 Y102.062 E112.21314
G0 F9000 X130.063 Y102.628
G1 F1200 X142.338 Y114.902 E114.29620
G0 F9000 X141.772 Y114.902
G1 F1200 X130.063 Y103.193 E116.28328
G0 F9000 X130.063 Y103.759
G1 F1200 X141.207 Y114.902 E118.17439
G0 F9000 X140.641 Y114.902
G1 F1200 X130.063 Y104.325 E119.96946
G0 F9000 X130.063 Y104.890
G1 F1200 X140.075 Y114.902 E121.66855
G0 F9000 X148.583 Y104.743
G1 F1200 X140.223 Y96.382 E123.08737
G0 F9000 X140.789 Y96.382
G1 F1200 X148.583 Y104.177 E124.41014
G0 F9000 X148.583 Y103.611
G1 F1200 X141.354 Y96.382 E125.63694
G0 F9000 X141.920 Y96.382
G1 F1200 X148.583 Y103.045 E126.76769
G0 F9000 X148.583 Y102.480
G1 F1200 X142.486 Y96.382 E127.80247
G0 F9000 X143.051 Y96.382
G1 F1200 X148.583 Y101.914 E128.74128
G0 F9000 X148.583 Y101.348
G1 F1200 X143.617 Y96.382 E129.58404
G0 F9000 X144.183 Y96.382
G1 F1200 X148.583 Y100.783 E130.33083
G0 F9000 X148.583 Y100.217
G1 F1200 X144.749 Y96.382 E130.98157
G0 F9000 X145.314 Y96.382
G1 F1200 X148.583 Y99.651 E131.53634
G0 F9000 X148.583 Y99.086
G1 F1200 X145.880 Y96.382 E131.99514
G0 F9000 X146.446 Y96.382
G1 F1200 X148.583 Y98.520 E132.35788
G0 F9000 X148.583 Y97.954
G1 F1200 X147.011 Y96.382 E132.62466
G0 F9000 X147.577 Y96.382
G1 F1200 X148.583 Y97.389 E132.79547
G0 F9000 X148.583 Y96.823
G1 F1200 X148.143 Y96.382 E132.87022
G0 F9000 X130.063 Y105.456
G1 F1200 X139.510 Y114.902 E134.47335
G0 F9000 X138.944 Y114.902
G1 F1200 X130.063 Y106.022 E135.98042
G0 F9000 X130.063 Y106.587
G1 F1200 X138.378 Y114.902 E137.39152
G0 F9000 X137.812 Y114.902
G1 F1200 X130.063 Y107.153 E138.70657
G0 F9000 X130.063 Y107.719
G1 F1200 X137.247 Y114.902 E139.92565
G0 F9000 X136.681 Y114.902
G1 F1200 X130.063 Y108.284 E141.04876
G0 F9000 X130.063 Y108.850
G1 F1200 X136.115 Y114.902 E142.07582
G0 F9000 X135.550 Y114.902
G1 F1200 X130.063 Y109.416 E143.00691
G0 F9000 X130.063 Y109.981
G1 F1200 X134.984 Y114.902 E143.84203
G0 F9000 X134.418 Y114.902
G1 F1200 X130.063 Y110.547 E144.58110
G0 F9000 X130.063 Y111.113
G1 F1200 X133.853 Y114.902 E145.22420
G0 F9000 X133.287 Y114.902
G1 F1200 X130.063 Y111.679 E145.77124
G0 F9000 X130.063 Y112.244
G1 F1200 X132.721 Y114.902 E146.22232
G0 F9000 X132.156 Y114.902
G1 F1200 X130.063 Y112.810 E146.57743
G0 F9000 X130.063 Y113.376
G1 F1200 X131.590 Y114.902 E146.83649
G0 F9000 X131.024 Y114.902
G1 F1200 X130.063 Y113.941 E146.99957
G0 F9000 X130.063 Y114.507
G1 F1200 X130.459 Y114.902 E147.06669
;LAYER:1
M106 S5
G0 F9000 X129.925 Y115.043 Z0.400
;TYPE:WALL-INNER
G1 F1500 X129.924 Y96.243 E147.81869
G1 X148.724 Y96.243 E148.57069
G1 X148.724 Y115.043 E149.32269
G1 X129.925 Y115.043 E150.07465
G0 F9000 X129.525 Y115.443
;TYPE:WALL-OUTER
G1 F1500 X129.525 Y95.843 E150.85865
G1 X149.124 Y95.843 E151.64261
G1 X149.124 Y115.443 E152.42661
G1 X129.525 Y115.443 E153.21057
G0 F9000 X130.321 Y114.902
;TYPE:SKIN
G1 F1500 X148.582 Y96.641 E154.24357
G0 F9000 X148.276 Y96.382
G1 F1500 X130.064 Y114.594 E155.27380
G0 F9000 X130.064 Y114.028
G1 F1500 X147.710 Y96.382 E156.27201
G0 F9000 X147.144 Y96.382
G1 F1500 X130.064 Y113.463 E157.23822
G0 F9000 X130.064 Y112.897
G1 F1500 X146.578 Y96.382 E158.17243
G0 F9000 X146.013 Y96.382
G1 F1500 X130.064 Y112.331 E159.07464
G0 F9000 X130.064 Y111.766
G1 F1500 X145.447 Y96.382 E159.94486
G0 F9000 X144.881 Y96.382
G1 F1500 X130.064 Y111.200 E160.78306
G0 F9000 X130.064 Y110.634
G1 F1500 X144.316 Y96.382 E161.58928
G0 F9000 X143.750 Y96.382
G1 F1500 X130.064 Y110.068 E162.36348
G0 F9000 X130.064 Y109.503
G1 F1500 X143.184 Y96.382 E163.10568
G0 F9000 X142.619 Y96.382
G1 F1500 X130.064 Y108.937 E163.81590
G0 F9000 X130.064 Y108.371
G1 F1500 X142.053 Y96.382 E164.49410
G0 F9000 X141.487 Y96.382
G1 F1500 X130.064 Y107.806 E165.14031
G0 F9000 X130.064 Y107.240
G1 F1500 X140.922 Y96.382 E165.75453
G0 F9000 X140.356 Y96.382
G1 F1500 X130.064 Y106.674 E166.33674
G0 F9000 X130.064 Y106.109
G1 F1500 X139.790 Y96.382 E166.88695
G0 F9000 X139.225 Y96.382
G1 F1500 X130.064 Y105.543 E167.40518
G0 F9000 X130.064 Y104.977
G1 F1500 X138.659 Y96.382 E167.89138
G0 F9000 X138.093 Y96.382
G1 F1500 X130.064 Y104.412 E168.34560
G0 F9000 X130.064 Y103.846
G1 F1500 X137.528 Y96.382 E168.76783
G0 F9000 X136.962 Y96.382
G1 F1500 X130.064 Y103.280 E169.15804
G0 F9000 X130.064 Y102.715
G1 F1500 X136.396 Y96.382 E169.51626
G0 F9000 X135.830 Y96.382
G1 F1500 X130.064 Y102.149 E169.84246
G0 F9000 X130.064 Y101.583
G1 F1500 X135.265 Y96.382 E170.13667
G0 F9000 X134.699 Y96.382
G1 F1500 X130.064 Y101.017 E170.39887
G0 F9000 X130.064 Y100.452
G1 F1500 X134.133 Y96.382 E170.62907
G0 F9000 X133.568 Y96.382
G1 F1500 X130.064 Y99.886 E170.82729
G0 F9000 X130.064 Y99.320
G1 F1500 X133.002 Y96.382 E170.99349
G0 F9000 X132.436 Y96.382
G1 F1500 X130.064 Y98.755 E171.12770
G0 F9000 X130.064 Y98.189
G1 F1500 X131.871 Y96.382 E171.22992
G0 F9000 X131.305 Y96.382
G1 F1500 X130.064 Y97.623 E171.30012
G0 F9000 X130.064 Y97.058
G1 F1500 X130.739 Y96.382 E171.33833
G0 F9000 X130.174 Y96.382
G1 F1500 X130.064 Y96.492 E171.34455
G0 F9000 X130.887 Y114.902
G1 F1500 X148.582 Y97.207 E172.34553
G0 F9000 X148.582 Y97.773
G1 F1500 X131.453 Y114.902 E173.31450
G0 F9000 X132.018 Y114.902
G1 F1500 X148.582 Y98.338 E174.25150
G0 F9000 X148.582 Y98.904
G1 F1500 X132.584 Y114.902 E175.15648
G0 F9000 X133.150 Y114.902
G1 F1500 X148.582 Y99.470 E176.02945
G0 F9000 X148.582 Y100.035
G1 F1500 X133.716 Y114.902 E176.87042
G0 F9000 X134.281 Y114.902
G1 F1500 X148.582 Y100.601 E177.67941
G0 F9000 X148.582 Y101.167
G1 F1500 X134.847 Y114.902 E178.45638
G0 F9000 X135.413 Y114.902
G1 F1500 X148.582 Y101.732 E179.20136
G0 F9000 X148.582 Y102.298
G1 F1500 X135.978 Y114.902 E179.91435
G0 F9000 X136.544 Y114.902
G1 F1500 X148.582 Y102.864 E180.59532
G0 F9000 X148.582 Y103.429
G1 F1500 X137.110 Y114.902 E181.24430
G0 F9000 X137.675 Y114.902
G1 F1500 X148.582 Y103.995 E181.86129
G0 F9000 X148.582 Y104.561
G1 F1500 X138.241 Y114.902 E182.44627
G0 F9000 X138.807 Y114.902
G1 F1500 X148.582 Y105.126 E182.99926
G0 F9000 X148.582 Y105.692
G1 F1500 X139.372 Y114.902 E183.52025
G0 F9000 X139.938 Y114.902
G1 F1500 X148.582 Y106.258 E184.00923
G0 F9000 X148.582 Y106.824
G1 F1500 X140.504 Y114.902 E184.46619
G0 F9000 X141.069 Y114.902
G1 F1500 X148.582 Y107.389 E184.89119
G0 F9000 X148.582 Y107.955
G1 F1500 X141.635 Y114.902 E185.28417
G0 F9000 X142.201 Y114.902
G1 F1500 X148.582 Y108.521 E185.64514
G0 F9000 X148.582 Y109.086
G1 F1500 X142.766 Y114.902 E185.97414
G0 F9000 X143.332 Y114.902
G1 F1500 X148.582 Y109.652 E186.27112
G0 F9000 X148.582 Y110.218
G1 F1500 X143.898 Y114.902 E186.53609
G0 F9000 X144.464 Y114.902
G1 F1500 X148.582 Y110.783 E186.76907
G0 F9000 X148.582 Y111.349
G1 F1500 X145.029 Y114.902 E186.97006
G0 F9000 X145.595 Y114.902
G1 F1500 X148.582 Y111.915 E187.13903
G0 F9000 X148.582 Y112.480
G1 F1500 X146.161 Y114.902 E187.27601
G0 F9000 X146.726 Y114.902
G1 F1500 X148.582 Y113.046 E187.38100
G0 F9000 X148.582 Y113.612
G1 F1500 X147.292 Y114.902 E187.45397
G0 F9000 X147.858 Y114.902
G1 F1500 X148.582 Y114.177 E187.49496
G0 F9000 X148.582 Y114.743
G1 F1500 X148.423 Y114.902 E187.50395
;LAYER:2
M106 S10
G0 F9000 X148.724 Y115.043 Z0.500
;TYPE:WALL-INNER
G1 F1800 X129.925 Y115.043 E188.25591
G1 X129.924 Y96.243 E189.00791
G1 X148.724 Y96.243 E189.75991
G1 X148.724 Y115.043 E190.51191
G0 F9000 X149.124 Y115.443
;TYPE:WALL-OUTER
G1 F1800 X129.525 Y115.443 E191.29587
G1 X129.525 Y95.843 E192.07987
G1 X149.124 Y95.843 E192.86383
G1 X149.124 Y115.443 E193.64783
G0 F9000 X148.561 Y114.902
;TYPE:SKIN
G1 F1800 X130.063 Y96.405 E194.69421
G0 F9000 X130.606 Y96.382
G1 F1800 X148.583 Y114.359 E195.71114
G0 F9000 X148.583 Y113.793
G1 F1800 X131.172 Y96.382 E196.69605
G0 F9000 X131.738 Y96.382
G1 F1800 X148.583 Y113.228 E197.64898
G0 F9000 X148.583 Y112.662
G1 F1800 X132.303 Y96.382 E198.56992
G0 F9000 X132.869 Y96.382
G1 F1800 X148.583 Y112.096 E199.45883
G0 F9000 X148.583 Y111.531
G1 F1800 X133.435 Y96.382 E200.31576
G0 F9000 X134.000 Y96.382
G1 F1800 X148.583 Y110.965 E201.14070
G0 F9000 X148.583 Y110.399
G1 F1800 X134.566 Y96.382 E201.93362
G0 F9000 X135.132 Y96.382
G1 F1800 X148.583 Y109.834 E202.69455
G0 F9000 X148.583 Y109.268
G1 F1800 X135.698 Y96.382 E203.42347
G0 F9000 X136.263 Y96.382
G1 F1800 X148.583 Y108.702 E204.12039
G0 F9000 X148.583 Y108.137
G1 F1800 X136.829 Y96.382 E204.78533
G0 F9000 X137.395 Y96.382
G1 F1800 X148.583 Y107.571 E205.41824
G0 F9000 X148.583 Y107.005
G1 F1800 X137.960 Y96.382 E206.01917
G0 F9000 X138.526 Y96.382
G1 F1800 X148.583 Y106.440 E206.58811
G0 F9000 X148.583 Y105.874
G1 F1800 X139.092 Y96.382 E207.12503
G0 F9000 X139.657 Y96.382
G1 F1800 X148.583 Y105.308 E207.62996
G0 F9000 X148.583 Y104.743
G1 F1800 X140.223 Y96.382 E208.10290
G0 F9000 X140.789 Y96.382
G1 F1800 X148.583 Y104.177 E208.54383
G0 F9000 X148.583 Y103.611
G1 F1800 X141.354 Y96.382 E208.95276
G0 F9000 X141.920 Y96.382
G1 F1800 X148.583 Y103.045 E209.32968
G0 F9000 X148.583 Y102.480
G1 F1800 X142.486 Y96.382 E209.67460
G0 F9000 X143.051 Y96.382
G1 F1800 X148.583 Y101.914 E209.98754
G0 F9000 X148.583 Y101.348
G1 F1800 X143.617 Y96.382 E210.26846
G0 F9000 X144.183 Y96.382
G1 F1800 X148.583 Y100.783 E210.51739
G0 F9000 X148.583 Y100.217
G1 F1800 X144.749 Y96.382 E210.73430
G0 F9000 X145.314 Y96.382
G1 F1800 X148.583 Y99.651 E210.91922
G0 F9000 X148.583 Y99.086
G1 F1800 X145.880 Y96.382 E211.07216
G0 F9000 X146.446 Y96.382
G1 F1800 X148.583 Y98.520 E211.19307
G0 F9000 X148.583 Y97.954
G1 F1800 X147.011 Y96.382 E211.28200
G0 F9000 X147.577 Y96.382
G1 F1800 X148.583 Y97.389 E211.33893
G0 F9000 X148.583 Y96.823
G1 F1800 X148.143 Y96.382 E211.36385
G0 F9000 X130.063 Y96.971
G1 F1800 X147.995 Y114.902 E212.37821
G0 F9000 X147.429 Y114.902
G1 F1800 X130.063 Y97.536 E213.36058
G0 F9000 X130.063 Y98.102
G1 F1800 X146.863 Y114.902 E214.31093
G0 F9000 X146.298 Y114.902
G1 F1800 X130.063 Y98.668 E215.22930
G0 F9000 X130.063 Y99.233
G1 F1800 X145.732 Y114.902 E216.11567
G0 F9000 X145.166 Y114.902
G1 F1800 X130.063 Y99.799 E216.97002
G0 F9000 X130.063 Y100.365
G1 F1800 X144.601 Y114.902 E217.79239
G0 F9000 X144.035 Y114.902
G1 F1800 X130.063 Y100.931 E218.58273
G0 F9000 X130.063 Y101.496
G1 F1800 X143.469 Y114.902 E219.34109
G0 F9000 X142.904 Y114.902
G1 F1800 X130.063 Y102.062 E220.06746
G0 F9000 X130.063 Y102.628
G1 F1800 X142.338 Y114.902 E220.76181
G0 F9000 X141.772 Y114.902
G1 F1800 X130.063 Y103.193 E221.42417
G0 F9000 X130.063 Y103.759
G1 F1800 X141.207 Y114.902 E222.05454
G0 F9000 X140.641 Y114.902
G1 F1800 X130.063 Y104.325 E222.65290
G0 F9000 X130.063 Y104.890
G1 F1800 X140.075 Y114.902 E223.21926
G0 F9000 X139.510 Y114.902
G1 F1800 X130.063 Y105.456 E223.75364
G0 F9000 X130.063 Y106.022
G1 F1800 X138.944 Y114.902 E224.25599
G0 F9000 X138.378 Y114.902
G1 F1800 X130.063 Y106.587 E224.72636
G0 F9000 X130.063 Y107.153
G1 F1800 X137.812 Y114.902 E225.16471
G0 F9000 X137.247 Y114.902
G1 F1800 X130.063 Y107.719 E225.57107
G0 F9000 X130.063 Y108.284
G1 F1800 X136.681 Y114.902 E225.94544
G0 F9000 X136.115 Y114.902
G1 F1800 X130.063 Y108.850 E226.28779
G0 F9000 X130.063 Y109.416
G1 F1800 X135.550 Y114.902 E226.59816
G0 F9000 X134.984 Y114.902
G1 F1800 X130.063 Y109.981 E226.87653
G0 F9000 X130.063 Y110.547
G1 F1800 X134.418 Y114.902 E227.12289
G0 F9000 X133.853 Y114.902
G1 F1800 X130.063 Y111.113 E227.33725
G0 F9000 X130.063 Y111.679
G1 F1800 X133.287 Y114.902 E227.51960
G0 F9000 X132.721 Y114.902
G1 F1800 X130.063 Y112.244 E227.66996
G0 F9000 X130.063 Y112.810
G1 F1800 X132.156 Y114.902 E227.78833
G0 F9000 X131.590 Y114.902
G1 F1800 X130.063 Y113.376 E227.87468
G0 F9000 X130.063 Y113.941
G1 F1800 X131.024 Y114.902 E227.92905
G0 F9000 X130.459 Y114.902
G1 F1800 X130.063 Y114.507 E227.95142
;LAYER:3
M106 S15
G0 F9000 X129.925 Y115.043 Z0.600
;TYPE:WALL-INNER
G1 F2100 X129.924 Y96.243 E228.70342
G1 X148.724 Y96.243 E229.45542
G1 X148.724 Y115.043 E230.20742
G1 X129.925 Y115.043 E230.95938
G0 F9000 X129.525 Y115.443
;TYPE:WALL-OUTER
G1 F2100 X129.525 Y95.843 E231.74338
G1 X149.124 Y95.843 E232.52734
G1 X149.124 Y115.443 E233.31134
G1 X129.525 Y115.443 E234.09530
G0 F9000 X130.321 Y114.902
;TYPE:SKIN
G1 F2100 X148.582 Y96.641 E235.12830
G0 F9000 X148.276 Y96.382
G1 F2100 X130.064 Y114.594 E236.15852
G0 F9000 X130.064 Y114.028
G1 F2100 X147.710 Y96.382 E237.15673
G0 F9000 X147.144 Y96.382
G1 F2100 X130.064 Y113.463 E238.12295
G0 F9000 X130.064 Y112.897
G1 F2100 X146.578 Y96.382 E239.05715
G0 F9000 X146.013 Y96.382
G1 F2100 X130.064 Y112.331 E239.95936
G0 F9000 X130.064 Y111.766
G1 F2100 X145.447 Y96.382 E240.82959
G0 F9000 X144.881 Y96.382
G1 F2100 X130.064 Y111.200 E241.66779
G0 F9000 X130.064 Y110.634
G1 F2100 X144.316 Y96.382 E242.47401
G0 F9000 X143.750 Y96.382
G1 F2100 X130.064 Y110.068 E243.24820
G0 F9000 X130.064 Y109.503
G1 F2100 X143.184 Y96.382 E243.99041
G0 F9000 X142.619 Y96.382
G1 F2100 X130.064 Y108.937 E244.70063
G0 F9000 X130.064 Y108.371
G1 F2100 X142.053 Y96.382 E245.37883
G0 F9000 X141.487 Y96.382
G1 F2100 X130.064 Y107.806 E246.02504
G0 F9000 X130.064 Y107.240
G1 F2100 X140.922 Y96.382 E246.63926
G0 F9000 X140.356 Y96.382
G1 F2100 X130.064 Y106.674 E247.22146
G0 F9000 X130.064 Y106.109
G1 F2100 X139.790 Y96.382 E247.77168
G0 F9000 X139.225 Y96.382
G1 F2100 X130.064 Y105.543 E248.28990
G0 F9000 X130.064 Y104.977
G1 F2100 X138.659 Y96.382 E248.77611
G0 F9000 X138.093 Y96.382
G1 F2100 X130.064 Y104.412 E249.23033
G0 F9000 X130.064 Y103.846
G1 F2100 X137.528 Y96.382 E249.65255
