;FLAVOR:UltiGCode
;TIME:2310
;MATERIAL:2971
;MATERIAL2:0
;NOZZLE_DIAMETER:0.400000
;NOZZLE_DIAMETER2:0.400000

;Layer count: 79
;LAYER:0
M107
G0 F9000 X84.850 Y82.695 Z0.300
;TYPE:SKIRT
G1 F1200 X97.750 Y82.695 E1.54800
G1 X97.750 Y102.994 E3.98388
G1 X132.250 Y102.994 E8.12388
G1 X132.250 Y82.695 E10.55976
G1 X145.150 Y82.695 E12.10776
G1 X145.150 Y109.082 E15.27420
G1 X145.061 Y109.841 E15.36590
G1 X144.752 Y110.724 E15.47816
G1 X144.250 Y111.524 E15.59150
G1 X143.579 Y112.195 E15.70537
G1 X142.779 Y112.697 E15.81871
G1 X141.896 Y113.006 E15.93097
G1 X141.137 Y113.095 E16.02267
G1 X128.973 Y113.095 E17.48235
G1 X128.973 Y142.306 E20.98767
G1 X106.240 Y142.306 E23.71563
G1 X106.237 Y137.783 E24.25839
G1 X106.239 Y130.906 E25.08363
G1 X111.938 Y130.906 E25.76751
G1 X111.938 Y130.236 E25.84791
G1 X111.934 Y125.906 E26.36751
G1 X114.258 Y125.906 E26.64639
G1 X101.447 Y113.095 E28.82049
G1 X88.864 Y113.095 E30.33045
G1 X88.103 Y113.006 E30.42239
G1 X87.220 Y112.697 E30.53465
G1 X86.420 Y112.195 E30.64799
G1 X85.749 Y111.524 E30.76186
G1 X85.247 Y110.724 E30.87520
G1 X84.936 Y109.835 E30.98822
G1 X84.850 Y109.075 E31.08000
G1 X84.850 Y82.695 E34.24560
G10
G0 F9000 X88.650 Y86.495
;TYPE:WALL-INNER
G11
G1 F1200 X93.950 Y86.495 E34.88160
G1 X93.950 Y106.794 E37.31748
G1 X136.050 Y106.794 E42.36948
G1 X136.050 Y86.495 E44.80536
G1 X141.350 Y86.495 E45.44136
G1 X141.350 Y88.394 E45.66924
G1 X141.287 Y88.394 E45.67680
G1 X141.223 Y88.311 E45.68938
G1 X140.896 Y88.004 E45.74320
G1 X140.525 Y87.754 E45.79688
G1 X140.117 Y87.565 E45.85084
G1 X139.685 Y87.444 E45.90468
G1 X139.239 Y87.394 E45.95853
G1 X138.792 Y87.416 E46.01224
G1 X138.353 Y87.508 E46.06606
G1 X137.934 Y87.670 E46.11997
G1 X137.547 Y87.896 E46.17375
G1 X137.200 Y88.182 E46.22771
G1 X136.903 Y88.519 E46.28161
G1 X136.665 Y88.899 E46.33542
G1 X136.491 Y89.311 E46.38909
G1 X136.384 Y89.747 E46.44296
G1 X136.348 Y90.195 E46.49689
G1 X136.384 Y90.642 E46.55071
G1 X136.491 Y91.078 E46.60458
G1 X136.665 Y91.490 E46.65825
G1 X136.903 Y91.870 E46.71205
G1 X137.200 Y92.207 E46.76596
G1 X137.547 Y92.493 E46.81992
G1 X137.934 Y92.719 E46.87369
G1 X138.353 Y92.881 E46.92760
G1 X138.792 Y92.973 E46.98143
G1 X139.239 Y92.995 E47.03513
G1 X139.685 Y92.945 E47.08899
G1 X140.117 Y92.824 E47.14282
G1 X140.525 Y92.635 E47.19678
G1 X140.896 Y92.385 E47.25046
G1 X141.223 Y92.078 E47.30429
G1 X141.287 Y91.995 E47.31686
G1 X141.350 Y91.995 E47.32442
G1 X141.350 Y99.795 E48.26042
G1 X141.288 Y99.795 E48.26786
G1 X141.224 Y99.711 E48.28054
G1 X140.896 Y99.404 E48.33445
G1 X140.525 Y99.154 E48.38813
G1 X140.117 Y98.965 E48.44209
G1 X139.685 Y98.844 E48.49593
G1 X139.239 Y98.794 E48.54978
G1 X138.792 Y98.816 E48.60349
G1 X138.353 Y98.908 E48.65731
G1 X137.934 Y99.070 E48.71122
G1 X137.547 Y99.296 E48.76500
G1 X137.200 Y99.582 E48.81896
G1 X136.903 Y99.919 E48.87286
G1 X136.665 Y100.299 E48.92667
G1 X136.491 Y100.711 E48.98033
G1 X136.384 Y101.147 E49.03421
G1 X136.348 Y101.594 E49.08802
G1 X136.384 Y102.042 E49.14195
G1 X136.491 Y102.478 E49.19583
G1 X136.665 Y102.890 E49.24949
G1 X136.903 Y103.270 E49.30330
G1 X137.200 Y103.607 E49.35720
G1 X137.547 Y103.893 E49.41116
G1 X137.934 Y104.119 E49.46494
G1 X138.353 Y104.281 E49.51885
G1 X138.792 Y104.373 E49.57268
G1 X139.239 Y104.395 E49.62638
G1 X139.685 Y104.345 E49.68024
G1 X140.117 Y104.224 E49.73407
G1 X140.525 Y104.035 E49.78803
G1 X140.896 Y103.785 E49.84171
G1 X141.224 Y103.478 E49.89562
G1 X141.288 Y103.394 E49.90830
G1 X141.350 Y103.394 E49.91574
G1 X141.350 Y108.859 E50.57154
G1 X141.336 Y108.982 E50.58639
G1 X141.305 Y109.069 E50.59747
G1 X141.260 Y109.141 E50.60766
G1 X141.196 Y109.205 E50.61852
G1 X141.124 Y109.250 E50.62871
G1 X141.037 Y109.281 E50.63980
G1 X125.173 Y109.295 E52.54348
G1 X125.173 Y138.506 E56.04880
G1 X110.038 Y138.506 E57.86500
G1 X110.038 Y134.706 E58.32100
G1 X115.737 Y134.706 E59.00488
G1 X115.737 Y129.706 E59.60488
G1 X118.373 Y129.706 E59.92120
G1 X118.373 Y124.646 E60.52840
G1 X103.022 Y109.295 E63.13355
G1 X89.085 Y109.295 E64.80599
G1 X88.963 Y109.281 E64.82072
G1 X88.875 Y109.250 E64.83192
G1 X88.803 Y109.205 E64.84211
G1 X88.739 Y109.141 E64.85297
G1 X88.694 Y109.069 E64.86316
G1 X88.663 Y108.982 E64.87424
G1 X88.650 Y103.394 E65.54480
G1 X88.711 Y103.394 E65.55212
G1 X88.775 Y103.478 E65.56480
G1 X89.103 Y103.785 E65.61871
G1 X89.474 Y104.035 E65.67239
G1 X89.882 Y104.224 E65.72635
G1 X90.314 Y104.345 E65.78018
G1 X90.760 Y104.395 E65.83404
G1 X91.207 Y104.373 E65.88774
G1 X91.646 Y104.281 E65.94157
G1 X92.065 Y104.119 E65.99548
G1 X92.452 Y103.893 E66.04926
G1 X92.799 Y103.607 E66.10322
G1 X93.096 Y103.270 E66.15712
G1 X93.334 Y102.890 E66.21092
G1 X93.508 Y102.478 E66.26459
G1 X93.615 Y102.043 E66.31835
G1 X93.652 Y101.594 E66.37241
G1 X93.615 Y101.146 E66.42635
G1 X93.508 Y100.711 E66.48011
G1 X93.334 Y100.299 E66.53378
G1 X93.096 Y99.919 E66.58758
G1 X92.799 Y99.582 E66.64149
G1 X92.452 Y99.296 E66.69545
G1 X92.065 Y99.070 E66.74923
G1 X91.646 Y98.908 E66.80314
G1 X91.207 Y98.816 E66.85696
G1 X90.760 Y98.794 E66.91066
G1 X90.314 Y98.844 E66.96452
G1 X89.882 Y98.965 E67.01835
G1 X89.472 Y99.155 E67.07258
G1 X89.082 Y99.423 E67.12937
G1 X88.760 Y99.731 E67.18284
G1 X88.711 Y99.795 E67.19251
G1 X88.650 Y99.795 E67.19983
G1 X88.650 Y91.995 E68.13583
G1 X88.712 Y91.995 E68.14327
G1 X88.776 Y92.078 E68.15585
G1 X89.103 Y92.385 E68.20967
G1 X89.474 Y92.635 E68.26335
G1 X89.882 Y92.824 E68.31731
G1 X90.314 Y92.945 E68.37115
G1 X90.760 Y92.995 E68.42500
G1 X91.207 Y92.973 E68.47871
G1 X91.646 Y92.881 E68.53253
G1 X92.065 Y92.719 E68.58644
G1 X92.452 Y92.493 E68.64022
G1 X92.799 Y92.207 E68.69418
G1 X93.096 Y91.870 E68.74808
G1 X93.334 Y91.490 E68.80189
G1 X93.508 Y91.078 E68.85556
G1 X93.615 Y90.643 E68.90931
G1 X93.652 Y90.195 E68.96325
G1 X93.615 Y89.746 E69.01732
G1 X93.508 Y89.311 E69.07107
G1 X93.334 Y88.899 E69.12474
G1 X93.096 Y88.519 E69.17855
G1 X92.799 Y88.182 E69.23245
G1 X92.452 Y87.896 E69.28641
G1 X92.065 Y87.670 E69.34019
G1 X91.646 Y87.508 E69.39410
G1 X91.207 Y87.416 E69.44792
G1 X90.760 Y87.394 E69.50163
G1 X90.314 Y87.444 E69.55548
G1 X89.882 Y87.565 E69.60932
G1 X89.472 Y87.755 E69.66354
G1 X89.082 Y88.023 E69.72033
G1 X88.761 Y88.330 E69.77363
G1 X88.712 Y88.394 E69.78330
G1 X88.650 Y88.394 E69.79074
G1 X88.650 Y86.495 E70.01862
G0 F9000 X92.798 Y88.183
G0 X93.614 Y89.746
G0 X93.333 Y91.489
G0 X92.064 Y92.719
G0 X90.314 Y92.944
G0 X93.651 Y101.594
G0 X93.095 Y103.269
G0 X91.645 Y104.280
G0 X89.882 Y104.223
G0 X89.081 Y109.296
G0 X103.015 Y109.311
G0 X118.357 Y124.653
G0 X120.332 Y131.941
G1 F1200 X119.987 Y132.215 E70.07149
G1 X119.694 Y132.544 E70.12436
G1 X119.465 Y132.909 E70.17606
G1 X119.357 Y133.150 E70.20775
G1 X119.293 Y133.330 E70.23068
G1 X119.226 Y133.586 E70.26243
G1 X119.176 Y133.997 E70.31212
G1 X119.175 Y134.210 E70.33768
G1 X119.225 Y134.626 E70.38796
G1 X119.359 Y135.071 E70.44373
G1 X119.549 Y135.453 E70.49492
G1 X119.802 Y135.801 E70.54655
G1 X120.137 Y136.125 E70.60248
G1 X120.479 Y136.361 E70.65234
G1 X120.728 Y136.486 E70.68577
G1 X121.134 Y136.627 E70.73735
G1 X121.555 Y136.696 E70.78854
G1 X121.757 Y136.705 E70.81281
G1 X122.198 Y136.670 E70.86589
G1 X122.623 Y136.562 E70.91851
G1 X122.869 Y136.464 E70.95029
G1 X123.244 Y136.250 E71.00210
G1 X123.593 Y135.964 E71.05625
G1 X123.973 Y135.495 E71.12868
G1 X124.178 Y135.093 E71.18283
G1 X124.311 Y134.672 E71.23581
G1 X124.368 Y134.247 E71.28727
G1 X124.369 Y133.968 E71.32075
G1 X124.311 Y133.541 E71.37246
G1 X124.180 Y133.121 E71.42526
G1 X123.979 Y132.727 E71.47833
G1 X123.706 Y132.365 E71.53274
G1 X123.254 Y131.968 E71.60493
G1 X122.871 Y131.750 E71.65782
G1 X122.625 Y131.650 E71.68968
G1 X122.439 Y131.594 E71.71299
G1 X122.009 Y131.519 E71.76537
G1 X121.762 Y131.508 E71.79504
G1 X121.559 Y131.515 E71.81942
G1 X121.135 Y131.584 E71.87096
G1 X120.719 Y131.729 E71.92383
G1 X120.332 Y131.941 E71.97678
G0 F9000 X120.555 Y132.275
;TYPE:WALL-OUTER
G1 F1200 X120.263 Y132.507 E72.02153
G1 X120.015 Y132.785 E72.06624
G1 X119.818 Y133.098 E72.11062
G1 X119.676 Y133.447 E72.15583
G1 X119.620 Y133.661 E72.18238
G1 X119.576 Y134.022 E72.22602
G1 X119.575 Y134.187 E72.24582
G1 X119.619 Y134.551 E72.28982
G1 X119.728 Y134.915 E72.33541
G1 X119.892 Y135.245 E72.37963
G1 X120.109 Y135.544 E72.42397
G1 X120.383 Y135.809 E72.46971
G1 X120.683 Y136.016 E72.51345
G1 X120.884 Y136.117 E72.54044
G1 X121.233 Y136.238 E72.58477
G1 X121.596 Y136.297 E72.62890
G1 X121.758 Y136.304 E72.64836
G1 X121.973 Y136.295 E72.67418
G1 X122.491 Y136.184 E72.73775
G1 X122.695 Y136.103 E72.76409
G1 X123.017 Y135.919 E72.80859
G1 X123.308 Y135.681 E72.85371
G1 X123.636 Y135.276 E72.91625
G1 X123.807 Y134.941 E72.96138
G1 X123.919 Y134.585 E73.00616
G1 X123.968 Y134.219 E73.05048
G1 X123.969 Y133.994 E73.07748
G1 X123.919 Y133.628 E73.12180
G1 X123.808 Y133.272 E73.16655
G1 X123.638 Y132.940 E73.21131
G1 X123.411 Y132.638 E73.25665
G1 X123.021 Y132.295 E73.31897
G1 X122.696 Y132.111 E73.36379
G1 X122.340 Y131.982 E73.40923
G1 X121.974 Y131.918 E73.45381
G1 X121.760 Y131.908 E73.47952
G1 X121.598 Y131.914 E73.49898
G1 X121.234 Y131.973 E73.54323
G1 X120.882 Y132.096 E73.58797
G1 X120.555 Y132.275 E73.63270
G0 F9000 X120.411 Y132.013
G0 X117.973 Y129.606
G0 X117.973 Y129.306
G1 F1200 X117.973 Y124.812 E74.17198
G1 X102.856 Y109.695 E76.73742
G1 X89.064 Y109.695 E78.39246
G1 X88.872 Y109.673 E78.41565
G1 X88.700 Y109.612 E78.43755
G1 X88.550 Y109.518 E78.45880
G1 X88.425 Y109.393 E78.48001
G1 X88.332 Y109.244 E78.50109
G1 X88.271 Y109.072 E78.52299
G1 X88.250 Y108.882 E78.54593
G1 X88.250 Y102.994 E79.25249
G1 X88.908 Y102.994 E79.33145
G1 X89.072 Y103.208 E79.36380
G1 X89.353 Y103.471 E79.40998
G1 X89.671 Y103.686 E79.45605
G1 X90.021 Y103.847 E79.50228
G1 X90.391 Y103.951 E79.54840
G1 X90.773 Y103.994 E79.59453
G1 X91.156 Y103.975 E79.64054
G1 X91.532 Y103.896 E79.68665
G1 X91.891 Y103.758 E79.73280
G1 X92.223 Y103.564 E79.77895
G1 X92.520 Y103.319 E79.82515
G1 X92.774 Y103.030 E79.87132
G1 X92.978 Y102.705 E79.91736
G1 X93.127 Y102.351 E79.96345
G1 X93.219 Y101.978 E80.00956
G1 X93.251 Y101.594 E80.05580
G1 X93.219 Y101.211 E80.10192
G1 X93.127 Y100.838 E80.14802
G1 X92.978 Y100.484 E80.19411
G1 X92.774 Y100.159 E80.24015
G1 X92.520 Y99.870 E80.28632
G1 X92.223 Y99.625 E80.33252
G1 X91.891 Y99.431 E80.37867
G1 X91.532 Y99.293 E80.42482
G1 X91.156 Y99.214 E80.47093
G1 X90.773 Y99.195 E80.51694
G1 X90.391 Y99.238 E80.56307
G1 X90.021 Y99.342 E80.60919
G1 X89.671 Y99.504 E80.65547
G1 X89.335 Y99.734 E80.70434
G1 X89.059 Y99.999 E80.75025
G1 X88.908 Y100.195 E80.77994
G1 X88.250 Y100.195 E80.85890
G1 X88.250 Y91.595 E81.89090
G1 X88.908 Y91.595 E81.96986
G1 X89.073 Y91.808 E82.00219
G1 X89.353 Y92.071 E82.04829
G1 X89.671 Y92.286 E82.09435
G1 X90.021 Y92.447 E82.14058
G1 X90.391 Y92.551 E82.18670
G1 X90.773 Y92.594 E82.23283
G1 X91.156 Y92.575 E82.27885
G1 X91.532 Y92.496 E82.32496
G1 X91.891 Y92.358 E82.37111
G1 X92.223 Y92.164 E82.41725
G1 X92.520 Y91.919 E82.46345
G1 X92.774 Y91.630 E82.50962
G1 X92.978 Y91.305 E82.55567
G1 X93.127 Y90.951 E82.60176
G1 X93.219 Y90.578 E82.64786
G1 X93.251 Y90.195 E82.69398
G1 X93.219 Y89.811 E82.74022
G1 X93.127 Y89.438 E82.78632
G1 X92.978 Y89.084 E82.83241
G1 X92.774 Y88.759 E82.87846
G1 X92.520 Y88.470 E82.92463
G1 X92.223 Y88.225 E82.97083
G1 X91.891 Y88.031 E83.01697
G1 X91.532 Y87.893 E83.06313
G1 X91.156 Y87.814 E83.10923
G1 X90.773 Y87.795 E83.15525
G1 X90.391 Y87.838 E83.20138
G1 X90.021 Y87.942 E83.24750
G1 X89.671 Y88.104 E83.29378
G1 X89.335 Y88.334 E83.34264
G1 X89.059 Y88.599 E83.38856
G1 X88.908 Y88.794 E83.41815
G1 X88.250 Y88.794 E83.49711
G1 X88.250 Y86.095 E83.82099
G1 X94.350 Y86.095 E84.55299
G1 X94.350 Y106.394 E86.98887
G1 X135.650 Y106.394 E91.94487
G1 X135.650 Y86.095 E94.38075
G1 X141.750 Y86.095 E95.11275
G1 X141.750 Y88.794 E95.43663
G1 X141.091 Y88.794 E95.51571
G1 X140.926 Y88.581 E95.54804
G1 X140.646 Y88.318 E95.59414
G1 X140.328 Y88.103 E95.64020
G1 X139.978 Y87.942 E95.68644
G1 X139.608 Y87.838 E95.73256
G1 X139.226 Y87.795 E95.77869
G1 X138.843 Y87.814 E95.82470
G1 X138.467 Y87.893 E95.87081
G1 X138.108 Y88.031 E95.91696
G1 X137.776 Y88.225 E95.96310
G1 X137.479 Y88.470 E96.00930
G1 X137.225 Y88.759 E96.05548
G1 X137.021 Y89.084 E96.10152
G1 X136.872 Y89.438 E96.14761
G1 X136.780 Y89.811 E96.19371
G1 X136.749 Y90.195 E96.23994
G1 X136.780 Y90.578 E96.28605
G1 X136.872 Y90.951 E96.33215
G1 X137.021 Y91.305 E96.37824
G1 X137.225 Y91.630 E96.42429
G1 X137.479 Y91.919 E96.47046
G1 X137.776 Y92.164 E96.51666
G1 X138.108 Y92.358 E96.56281
G1 X138.467 Y92.496 E96.60896
G1 X138.843 Y92.575 E96.65506
G1 X139.226 Y92.594 E96.70108
G1 X139.608 Y92.551 E96.74721
G1 X139.978 Y92.447 E96.79333
G1 X140.328 Y92.286 E96.83956
G1 X140.646 Y92.071 E96.88562
G1 X140.926 Y91.808 E96.93172
G1 X141.091 Y91.595 E96.96405
G1 X141.750 Y91.595 E97.04313
G1 X141.750 Y100.195 E98.07513
G1 X141.091 Y100.195 E98.15421
G1 X140.927 Y99.981 E98.18657
G1 X140.646 Y99.718 E98.23275
G1 X140.328 Y99.503 E98.27882
G1 X139.978 Y99.342 E98.32505
G1 X139.608 Y99.238 E98.37117
G1 X139.226 Y99.195 E98.41730
G1 X138.843 Y99.214 E98.46331
G1 X138.467 Y99.293 E98.50942
G1 X138.108 Y99.431 E98.55557
G1 X137.776 Y99.625 E98.60171
G1 X137.479 Y99.870 E98.64792
G1 X137.225 Y100.159 E98.69409
G1 X137.021 Y100.484 E98.74013
G1 X136.872 Y100.838 E98.78622
G1 X136.780 Y101.211 E98.83232
G1 X136.749 Y101.594 E98.87843
G1 X136.780 Y101.978 E98.92466
G1 X136.872 Y102.351 E98.97077
G1 X137.021 Y102.705 E99.01686
G1 X137.225 Y103.030 E99.06290
G1 X137.479 Y103.319 E99.10907
G1 X137.776 Y103.564 E99.15527
G1 X138.108 Y103.758 E99.20142
G1 X138.467 Y103.896 E99.24757
G1 X138.843 Y103.975 E99.29368
G1 X139.226 Y103.994 E99.33969
G1 X139.608 Y103.951 E99.38582
G1 X139.978 Y103.847 E99.43194
G1 X140.328 Y103.686 E99.47817
G1 X140.646 Y103.471 E99.52424
G1 X140.927 Y103.208 E99.57042
G1 X141.091 Y102.994 E99.60277
G1 X141.750 Y102.994 E99.68185
G1 X141.750 Y108.881 E100.38829
G1 X141.728 Y109.072 E100.41137
G1 X141.667 Y109.244 E100.43327
G1 X141.574 Y109.393 E100.45434
G1 X141.449 Y109.518 E100.47556
G1 X141.299 Y109.612 E100.49680
G1 X141.127 Y109.673 E100.51870
G1 X140.936 Y109.695 E100.54177
G1 X125.573 Y109.695 E102.38533
G1 X125.573 Y138.906 E105.89065
G1 X109.638 Y138.906 E107.80285
G1 X109.638 Y134.306 E108.35485
G1 X115.337 Y134.306 E109.03873
G1 X115.337 Y129.306 E109.63873
G1 X117.973 Y129.306 E109.95505
G0 F9000 X118.513 Y129.544
;TYPE:SKIN
G1 F1200 X120.602 Y131.632 E110.30948
G0 F9000 X120.238 Y131.835
G1 F1200 X118.248 Y129.845 E110.64719
G0 F9000 X117.683 Y129.845
G1 F1200 X119.923 Y132.085 E111.02733
G0 F9000 X119.652 Y132.380
G1 F1200 X117.117 Y129.845 E111.45754
G0 F9000 X116.551 Y129.845
G1 F1200 X119.421 Y132.714 E111.94451
G0 F9000 X119.230 Y133.090
G1 F1200 X115.986 Y129.845 E112.49512
G0 F9000 X115.876 Y130.301
G1 F1200 X119.097 Y133.522 E113.04174
G0 F9000 X119.036 Y134.027
G1 F1200 X115.876 Y130.867 E113.57801
G0 F9000 X115.876 Y131.432
G1 F1200 X119.085 Y134.642 E114.12268
G0 F9000 X119.496 Y135.618
G1 F1200 X115.876 Y131.998 E114.73701
G0 F9000 X115.876 Y132.564
G1 F1200 X121.677 Y138.365 E115.72148
G0 F9000 X121.111 Y138.365
G1 F1200 X115.876 Y133.129 E116.60997
G0 F9000 X115.876 Y133.695
G1 F1200 X120.546 Y138.365 E117.40250
G0 F9000 X122.243 Y138.365
G1 F1200 X120.252 Y136.374 E117.74038
G0 F9000 X121.227 Y136.783
G1 F1200 X122.808 Y138.365 E118.00877
G0 F9000 X123.374 Y138.365
G1 F1200 X121.847 Y136.837 E118.26799
G0 F9000 X122.350 Y136.775
G1 F1200 X123.940 Y138.365 E118.53783
G0 F9000 X124.505 Y138.365
G1 F1200 X122.787 Y136.646 E118.82947
G0 F9000 X123.163 Y136.456
G1 F1200 X125.033 Y138.327 E119.14690
G0 F9000 X125.033 Y137.761
G1 F1200 X123.496 Y136.224 E119.40774
G0 F9000 X123.785 Y135.947
G1 F1200 X125.033 Y137.195 E119.61953
G0 F9000 X125.033 Y136.630
G1 F1200 X124.038 Y135.635 E119.78839
G0 F9000 X124.242 Y135.273
G1 F1200 X125.033 Y136.064 E119.92262
G0 F9000 X125.033 Y135.498
G1 F1200 X124.397 Y134.862 E120.03056
G0 F9000 X124.490 Y134.389
G1 F1200 X125.033 Y134.649 E120.12249
